; generated by PrusaSlicer 2.0.0+linux64 on 2019-11-18 at 23:42:37

; 

; external perimeters extrusion width = 0.56mm
; perimeters extrusion width = 0.56mm
; infill extrusion width = 0.56mm
; solid infill extrusion width = 0.40mm
; top infill extrusion width = 0.50mm
; first layer extrusion width = 0.50mm

M201 X9000 Y9000 Z100 E10000 ; sets maximum accelerations, mm/sec^2
M203 X300 Y300 Z5 E120 ; sets maximum feedrates, mm/sec
M204 P1500 R1500 T1500 ; sets acceleration (P, T) and retract acceleration (R), mm/sec^2
M205 X10.00 Y10.00 Z0.20 E2.50 ; sets the jerk limits, mm/sec
M205 S0 T0 ; sets the minimum extruding and travel feed rate, mm/sec
M107
M190 S70 ; set bed temperature and wait for it to be reached
M104 S230 ; set temperature
G28 ; home all axes
G1 Z5 F100 ; lift nozzle
; Filament gcode
M109 S230 ; set temperature and wait for it to be reached
G21 ; set units to millimeters
G90 ; use absolute coordinates
M82 ; use absolute distances for extrusion
G92 E0
G1 Z0.450 F10800.000
G1 E-2.00000 F2400.00000
G92 E0
G1 X64.817 Y42.946 F10800.000
G1 E2.00000 F2400.00000
G1 F1800
G1 X65.485 Y42.272 E2.01328
G1 X66.117 Y41.806 E2.02426
G1 X66.986 Y41.354 E2.03798
G1 X67.882 Y41.072 E2.05112
G1 X68.792 Y40.948 E2.06397
G1 X85.680 Y40.938 E2.30029
G1 X86.836 Y41.042 E2.31654
G1 X87.835 Y41.308 E2.33100
G1 X118.008 Y51.316 E2.77585
G1 X118.779 Y51.684 E2.78780
G1 X119.632 Y52.286 E2.80241
G1 X120.336 Y53.012 E2.81656
G1 X120.885 Y53.838 E2.83045
G1 X121.393 Y55.128 E2.84984
G1 X121.565 Y56.453 E2.86854
G1 X121.565 Y103.516 E3.52711
G1 X121.426 Y104.737 E3.54431
G1 X120.996 Y105.952 E3.56235
G1 X120.285 Y107.049 E3.58063
G1 X119.353 Y107.939 E3.59867
G1 X118.180 Y108.617 E3.61763
G1 X87.233 Y118.872 E4.07384
G1 X85.688 Y119.062 E4.09562
G1 X69.058 Y119.062 E4.32834
G1 X67.866 Y118.925 E4.34512
G1 X66.800 Y118.567 E4.36087
G1 X65.826 Y118.000 E4.37664
G1 X64.981 Y117.243 E4.39251
G1 X64.334 Y116.375 E4.40766
G1 X52.016 Y93.966 E4.76549
G1 X50.496 Y90.731 E4.81551
G1 X49.347 Y87.202 E4.86744
G1 X48.644 Y83.369 E4.92198
G1 X48.441 Y80.002 E4.96918
G1 X48.643 Y76.634 E5.01639
G1 X49.321 Y72.909 E5.06937
G1 X50.468 Y69.339 E5.12185
G1 X51.995 Y66.075 E5.17227
G1 X64.241 Y43.783 E5.52819
G1 X64.774 Y43.007 E5.54136
G1 X65.141 Y43.259 F10800.000
G1 F1800
G1 X65.776 Y42.610 E5.55407
G1 X66.353 Y42.185 E5.56409
G1 X67.160 Y41.765 E5.57682
G1 X67.991 Y41.504 E5.58902
G1 X68.840 Y41.392 E5.60100
G1 X85.680 Y41.384 E5.83664
G1 X86.766 Y41.483 E5.85190
G1 X87.702 Y41.735 E5.86546
G1 X117.843 Y51.731 E6.30984
G1 X118.544 Y52.064 E6.32070
G1 X119.341 Y52.625 E6.33434
G1 X119.990 Y53.295 E6.34739
G1 X120.499 Y54.062 E6.36027
G1 X120.963 Y55.248 E6.37809
G1 X121.119 Y56.460 E6.39519
G1 X121.119 Y103.510 E7.05359
G1 X120.990 Y104.642 E7.06952
G1 X120.592 Y105.760 E7.08614
G1 X119.937 Y106.770 E7.10298
G1 X119.077 Y107.589 E7.11959
G1 X117.990 Y108.213 E7.13714
G1 X87.107 Y118.443 E7.59239
G1 X85.681 Y118.616 E7.61249
G1 X69.064 Y118.616 E7.84501
G1 X67.960 Y118.488 E7.86056
G1 X66.977 Y118.157 E7.87509
G1 X66.079 Y117.633 E7.88964
G1 X65.301 Y116.932 E7.90429
G1 X64.705 Y116.126 E7.91832
G1 X52.408 Y93.752 E8.27557
G1 X50.905 Y90.553 E8.32504
G1 X49.780 Y87.093 E8.37595
G1 X49.089 Y83.338 E8.42938
G1 X48.887 Y80.003 E8.47613
G1 X49.088 Y76.668 E8.52289
G1 X49.758 Y73.001 E8.57505
G1 X50.885 Y69.499 E8.62653
G1 X52.389 Y66.283 E8.67621
G1 X64.629 Y44.005 E9.03191
G1 X65.098 Y43.321 E9.04352
G1 X65.465 Y43.573 F10800.000
G1 F1800
G1 X66.072 Y42.944 E9.05575
G1 X66.590 Y42.563 E9.06474
G1 X67.338 Y42.174 E9.07655
G1 X68.100 Y41.938 E9.08771
G1 X68.887 Y41.836 E9.09881
G1 X85.679 Y41.830 E9.33379
G1 X86.696 Y41.924 E9.34808
G1 X87.564 Y42.159 E9.36066
G1 X117.684 Y52.148 E9.80473
G1 X118.317 Y52.447 E9.81452
G1 X119.051 Y52.964 E9.82709
G1 X119.646 Y53.578 E9.83905
G1 X120.112 Y54.285 E9.85089
G1 X120.532 Y55.363 E9.86709
G1 X120.672 Y56.468 E9.88267
G1 X120.672 Y103.509 E10.54094
G1 X120.553 Y104.547 E10.55556
G1 X120.191 Y105.565 E10.57068
G1 X119.591 Y106.487 E10.58607
G1 X118.805 Y107.235 E10.60126
G1 X117.804 Y107.806 E10.61738
G1 X86.981 Y118.015 E11.07174
G1 X85.683 Y118.170 E11.09004
G1 X69.071 Y118.169 E11.32250
G1 X68.058 Y118.053 E11.33676
G1 X67.157 Y117.749 E11.35007
G1 X66.336 Y117.268 E11.36338
G1 X65.625 Y116.624 E11.37681
G1 X65.079 Y115.882 E11.38970
G1 X52.800 Y93.539 E11.74646
G1 X51.316 Y90.380 E11.79530
G1 X50.213 Y86.984 E11.84527
G1 X49.534 Y83.306 E11.89761
G1 X49.333 Y79.999 E11.94397
G1 X49.534 Y76.696 E11.99027
G1 X50.194 Y73.098 E12.04146
G1 X51.301 Y69.658 E12.09203
G1 X52.782 Y66.495 E12.14090
G1 X65.016 Y44.226 E12.49645
G1 X65.423 Y43.635 E12.50649
G1 X65.789 Y43.887 F10800.000
G1 F1800
G1 X65.853 Y43.794 E12.50807
G1 X66.365 Y43.281 E12.51820
G1 X66.825 Y42.943 E12.52620
G1 X67.509 Y42.587 E12.53698
G1 X68.205 Y42.372 E12.54718
G1 X68.928 Y42.281 E12.55737
G1 X85.679 Y42.277 E12.79178
G1 X86.622 Y42.364 E12.80504
G1 X87.431 Y42.585 E12.81676
G1 X117.526 Y52.566 E13.26046
G1 X118.091 Y52.833 E13.26920
G1 X118.759 Y53.302 E13.28062
G1 X119.299 Y53.859 E13.29148
G1 X119.723 Y54.504 E13.30228
G1 X120.101 Y55.479 E13.31692
G1 X120.226 Y56.472 E13.33092
G1 X120.226 Y103.509 E13.98913
G1 X120.118 Y104.449 E14.00238
G1 X119.791 Y105.367 E14.01601
G1 X119.245 Y106.206 E14.03002
G1 X118.535 Y106.879 E14.04371
G1 X117.622 Y107.398 E14.05840
G1 X86.857 Y117.586 E14.51191
G1 X85.679 Y117.723 E14.52850
G1 X69.077 Y117.723 E14.76082
G1 X68.155 Y117.617 E14.77380
G1 X67.337 Y117.340 E14.78588
G1 X66.593 Y116.903 E14.79796
G1 X65.949 Y116.317 E14.81015
G1 X65.454 Y115.639 E14.82191
G1 X53.195 Y93.329 E15.17811
G1 X51.730 Y90.211 E15.22633
G1 X50.647 Y86.878 E15.27537
G1 X49.979 Y83.277 E15.32662
G1 X49.780 Y79.998 E15.37258
G1 X49.979 Y76.724 E15.41848
G1 X50.630 Y73.194 E15.46871
G1 X51.717 Y69.821 E15.51830
G1 X53.178 Y66.702 E15.56650
G1 X65.404 Y44.447 E15.92183
G1 X65.747 Y43.948 E15.93029
G1 E13.93029 F2400.00000
G92 E0
G1 X70.360 Y101.490 F10800.000
G1 E2.00000 F2400.00000
G1 F1800
G1 X70.360 Y113.357 E2.16606
G1 X69.179 Y113.357 E2.18259
G1 X57.049 Y91.278 E2.53511
G1 X55.786 Y88.593 E2.57664
G1 X54.881 Y85.805 E2.61765
G1 X54.332 Y82.926 E2.65867
G1 X54.148 Y80.000 E2.69969
G1 X54.332 Y77.074 E2.74071
G1 X54.881 Y74.195 E2.78173
G1 X55.786 Y71.407 E2.82275
G1 X57.049 Y68.722 E2.86427
G1 X69.179 Y46.643 E3.21679
G1 X70.360 Y46.643 E3.23332
G1 X70.360 Y58.510 E3.39939
G1 X67.684 Y59.594 E3.43979
G1 X65.084 Y61.064 E3.48158
G1 X62.699 Y62.864 E3.52340
G1 X60.572 Y64.962 E3.56521
G1 X58.739 Y67.322 E3.60703
G1 X57.228 Y69.915 E3.64902
G1 X56.080 Y72.660 E3.69065
G1 X55.301 Y75.544 E3.73246
G1 X54.907 Y78.506 E3.77427
G1 X54.907 Y81.494 E3.81609
G1 X55.301 Y84.456 E3.85790
G1 X56.080 Y87.340 E3.89971
G1 X57.233 Y90.097 E3.94152
G1 X58.739 Y92.678 E3.98334
G1 X60.572 Y95.038 E4.02515
G1 X62.699 Y97.136 E4.06696
G1 X65.084 Y98.936 E4.10878
G1 X67.684 Y100.406 E4.15057
G1 X70.291 Y101.462 E4.18992
G1 X70.796 Y101.321 F10800.000
G1 F1800
G1 X70.795 Y113.567 E4.36128
G1 X70.737 Y113.686 E4.36313
G1 X70.689 Y113.734 E4.36408
G1 X70.570 Y113.792 E4.36594
G1 X69.031 Y113.793 E4.38747
G1 X68.915 Y113.740 E4.38925
G1 X68.810 Y113.613 E4.39156
G1 X56.651 Y91.481 E4.74493
G1 X55.370 Y88.758 E4.78704
G1 X54.448 Y85.916 E4.82884
G1 X53.888 Y82.982 E4.87065
G1 X53.701 Y80.000 E4.91245
G1 X53.888 Y77.018 E4.95426
G1 X54.448 Y74.084 E4.99606
G1 X55.370 Y71.242 E5.03787
G1 X56.651 Y68.519 E5.07998
G1 X68.810 Y46.386 E5.43336
G1 X68.915 Y46.260 E5.43566
G1 X69.031 Y46.207 E5.43744
G1 X69.132 Y46.196 E5.43885
G1 X70.569 Y46.208 E5.45896
G1 X70.690 Y46.266 E5.46084
G1 X70.737 Y46.313 E5.46177
G1 X70.795 Y46.433 E5.46364
G1 X70.807 Y58.580 E5.63361
G1 X70.777 Y58.738 E5.63587
G1 X70.664 Y58.869 E5.63828
G1 X67.879 Y59.997 E5.68033
G1 X65.330 Y61.438 E5.72130
G1 X62.992 Y63.202 E5.76229
G1 X60.906 Y65.259 E5.80328
G1 X59.110 Y67.573 E5.84427
G1 X57.629 Y70.114 E5.88543
G1 X56.504 Y72.805 E5.92624
G1 X55.739 Y75.632 E5.96722
G1 X55.353 Y78.535 E6.00821
G1 X55.353 Y81.465 E6.04920
G1 X55.739 Y84.368 E6.09019
G1 X56.504 Y87.195 E6.13117
G1 X57.634 Y89.898 E6.17216
G1 X59.110 Y92.427 E6.21315
G1 X60.906 Y94.741 E6.25413
G1 X62.992 Y96.798 E6.29512
G1 X65.330 Y98.562 E6.33611
G1 X67.879 Y100.003 E6.37708
G1 X70.664 Y101.131 E6.41913
G1 X70.771 Y101.251 E6.42137
G1 X71.005 Y100.828 F10800.000
G1 F1800
G1 X71.109 Y100.944 E6.42356
G1 X71.187 Y101.079 E6.42575
G1 X71.235 Y101.228 E6.42793
G1 X71.253 Y101.396 E6.43030
G1 X71.253 Y113.486 E6.59948
G1 X71.233 Y113.667 E6.60202
G1 X71.177 Y113.825 E6.60437
G1 X71.089 Y113.966 E6.60670
G1 X70.969 Y114.085 E6.60906
G1 X70.828 Y114.174 E6.61140
G1 X70.670 Y114.230 E6.61375
G1 X70.489 Y114.250 E6.61629
G1 X69.108 Y114.250 E6.63561
G1 X68.936 Y114.232 E6.63804
G1 X68.784 Y114.181 E6.64027
G1 X68.647 Y114.100 E6.64250
G1 X68.530 Y113.992 E6.64473
G1 X68.431 Y113.849 E6.64716
G1 X56.253 Y91.683 E7.00107
G1 X54.954 Y88.922 E7.04377
G1 X54.014 Y86.027 E7.08636
G1 X53.444 Y83.038 E7.12895
G1 X53.253 Y80.000 E7.17154
G1 X53.444 Y76.962 E7.21413
G1 X54.014 Y73.973 E7.25672
G1 X54.954 Y71.078 E7.29931
G1 X56.253 Y68.317 E7.34201
G1 X68.431 Y46.151 E7.69592
G1 X68.530 Y46.009 E7.69834
G1 X68.647 Y45.900 E7.70057
G1 X68.784 Y45.819 E7.70281
G1 X68.936 Y45.768 E7.70504
G1 X69.108 Y45.750 E7.70746
G1 X70.489 Y45.750 E7.72679
G1 X70.669 Y45.770 E7.72932
G1 X70.828 Y45.826 E7.73168
G1 X70.970 Y45.915 E7.73402
G1 X71.088 Y46.033 E7.73637
G1 X71.177 Y46.175 E7.73871
G1 X71.233 Y46.333 E7.74106
G1 X71.253 Y46.514 E7.74360
G1 X71.253 Y58.604 E7.91277
G1 X71.235 Y58.772 E7.91514
G1 X71.187 Y58.921 E7.91733
G1 X71.109 Y59.056 E7.91952
G1 X71.005 Y59.172 E7.92170
G1 X70.882 Y59.262 E7.92383
G1 X68.073 Y60.400 E7.96624
G1 X65.575 Y61.812 E8.00639
G1 X63.284 Y63.541 E8.04656
G1 X61.241 Y65.556 E8.08672
G1 X59.481 Y67.823 E8.12688
G1 X58.029 Y70.314 E8.16722
G1 X56.927 Y72.950 E8.20720
G1 X56.178 Y75.720 E8.24736
G1 X55.800 Y78.565 E8.28752
G1 X55.800 Y81.435 E8.32768
G1 X56.178 Y84.280 E8.36784
G1 X56.927 Y87.050 E8.40800
G1 X58.034 Y89.698 E8.44816
G1 X59.481 Y92.177 E8.48832
G1 X61.241 Y94.444 E8.52849
G1 X63.284 Y96.459 E8.56865
G1 X65.575 Y98.188 E8.60881
G1 X68.073 Y99.600 E8.64896
G1 X70.882 Y100.738 E8.69138
G1 X70.944 Y100.784 E8.69245
G1 X70.979 Y100.982 F10800.000
G1 X70.226 Y102.494
G1 F1800
G1 X69.054 Y101.322 E8.71576
G1 X67.988 Y100.890 E8.73194
G1 X70.026 Y102.928 E8.77246
G1 X70.026 Y103.562 E8.78137
G1 X66.164 Y99.700 E8.85816
G1 X64.469 Y98.640 F10800.000
G1 F1800
G1 X70.226 Y104.397 E8.97263
G1 X70.226 Y105.031 F10800.000
G1 F1800
G1 X59.817 Y94.622 E9.17960
G1 X59.434 Y94.873 E9.18604
G1 X70.026 Y105.465 E9.39663
G1 X70.026 Y106.099 E9.40555
G1 X59.636 Y95.709 E9.61212
G1 X59.434 Y94.473 F10800.000
G1 F1800
G1 X59.229 Y94.161 E9.61925
G1 X58.615 Y93.226 E9.63546
G1 X58.398 Y92.894 E9.63963
G1 X57.386 Y91.107 E9.66121
G1 X56.930 Y90.240 E9.66806
G1 X56.137 Y88.454 E9.68156
G1 X55.763 Y87.442 E9.68902
G1 X55.248 Y85.711 E9.70138
G1 X54.973 Y84.514 E9.70978
G1 X54.709 Y82.878 E9.72108
G1 X54.575 Y81.509 E9.73046
G1 X54.528 Y80.000 E9.74074
G1 X54.576 Y78.477 E9.75113
G1 X54.709 Y77.122 E9.76045
G1 X54.976 Y75.471 E9.77189
G1 X55.248 Y74.289 E9.78027
G1 X55.767 Y72.545 E9.79285
G1 X56.137 Y71.546 E9.80032
G1 X56.932 Y69.759 E9.81404
G1 X57.159 Y69.326 E9.81813
G1 X57.386 Y68.893 E9.82288
G1 X57.892 Y68.000 E9.83368
G1 X58.398 Y67.106 E9.84533
G1 X58.410 Y67.086 E9.84560
G1 X58.615 Y66.774 E9.85043
G1 X58.820 Y66.462 E9.85583
G1 X59.024 Y66.151 E9.86181
G1 X59.229 Y65.839 E9.86837
G1 X59.434 Y65.527 E9.87549
G1 X60.164 Y65.269 F10800.000
G1 F1800
G1 X59.625 Y64.729 E9.88637
G1 X59.852 Y64.314 E9.89311
G1 X60.302 Y64.764 E9.90217
G1 X60.623 Y64.442 E9.90864
G1 X60.080 Y63.899 E9.91957
G1 X60.308 Y63.484 E9.92631
G1 X60.946 Y64.122 E9.93917
G1 X61.270 Y63.803 E9.94564
G1 X60.536 Y63.070 E9.96043
G1 X60.764 Y62.655 E9.96717
G1 X61.593 Y63.484 E9.98388
G1 X61.917 Y63.165 E9.99035
G1 X60.992 Y62.240 E10.00899
G1 X61.220 Y61.825 E10.01574
G1 X62.240 Y62.846 E10.03630
G1 X62.575 Y62.538 E10.04278
G1 X61.448 Y61.410 E10.06550
G1 X61.676 Y60.996 E10.07224
G1 X62.941 Y62.262 E10.09774
G1 X63.308 Y61.985 E10.10428
G1 X61.903 Y60.581 E10.13257
G1 X62.131 Y60.166 E10.13932
G1 X63.674 Y61.709 E10.17040
G1 X64.040 Y61.432 E10.17693
G1 X62.359 Y59.751 E10.21080
G1 X62.587 Y59.337 E10.21755
G1 X64.406 Y61.156 E10.25420
G1 X64.773 Y60.880 E10.26074
G1 X62.815 Y58.922 E10.30019
G1 X63.043 Y58.507 E10.30693
G1 X65.168 Y60.632 E10.34974
G1 X65.578 Y60.400 E10.35646
G1 X63.271 Y58.092 E10.40296
G1 X63.499 Y57.677 E10.40970
G1 X65.989 Y60.168 E10.45988
G1 X66.400 Y59.936 E10.46660
G1 X63.726 Y57.263 E10.52046
G1 X63.954 Y56.848 E10.52720
G1 X66.810 Y59.704 E10.58474
G1 X67.221 Y59.472 E10.59146
G1 X64.182 Y56.433 E10.65269
G1 X64.410 Y56.018 E10.65943
G1 X67.642 Y59.250 E10.72455
G1 X68.099 Y59.065 E10.73158
G1 X64.638 Y55.604 E10.80132
G1 X64.866 Y55.189 E10.80806
G1 X68.557 Y58.880 E10.88242
G1 X69.014 Y58.694 E10.88945
G1 X65.094 Y54.774 E10.96844
G1 X65.322 Y54.359 E10.97518
G1 X69.471 Y58.509 E11.05879
G1 X69.929 Y58.324 E11.06582
G1 X65.549 Y53.944 E11.15406
G1 X65.777 Y53.530 E11.16080
G1 X70.026 Y57.778 E11.24639
G1 X70.026 Y57.135 E11.25555
G1 X66.005 Y53.115 E11.33655
G1 X66.233 Y52.700 E11.34329
G1 X70.026 Y56.492 E11.41970
G1 X70.026 Y55.850 E11.42886
G1 X66.461 Y52.285 E11.50068
G1 X66.689 Y51.870 E11.50742
G1 X70.026 Y55.207 E11.57465
G1 X70.026 Y54.564 E11.58380
G1 X66.917 Y51.456 E11.64644
G1 X67.145 Y51.041 E11.65318
G1 X70.026 Y53.922 E11.71123
G1 X70.026 Y53.279 E11.72038
G1 X67.372 Y50.626 E11.77384
G1 X67.600 Y50.211 E11.78058
G1 X70.026 Y52.636 E11.82944
G1 X70.026 Y51.994 E11.83860
G1 X67.828 Y49.797 E11.88287
G1 X68.056 Y49.382 E11.88961
G1 X70.026 Y51.351 E11.92929
G1 X70.026 Y50.708 E11.93845
G1 X68.284 Y48.967 E11.97354
G1 X68.512 Y48.552 E11.98028
G1 X70.026 Y50.066 E12.01078
G1 X70.026 Y49.423 E12.01993
G1 X68.740 Y48.137 E12.04584
G1 X68.968 Y47.723 E12.05258
G1 X70.026 Y48.780 E12.07390
G1 X70.026 Y48.138 E12.08305
G1 X69.196 Y47.308 E12.09978
G1 X69.377 Y46.977 E12.10515
G1 X69.508 Y46.977 E12.10701
G1 X70.226 Y47.696 E12.12149
G1 E10.12149 F2400.00000
G92 E0
G1 X60.409 Y97.117 F10800.000
G1 E2.00000 F2400.00000
G1 F1800
G1 X70.226 Y106.934 E2.19519
G1 X70.226 Y107.568 F10800.000
G1 F1800
G1 X61.183 Y98.524 E2.37501
G1 X61.956 Y99.932 F10800.000
G1 F1800
G1 X70.226 Y108.202 E2.53945
G1 X70.226 Y108.836 F10800.000
G1 F1800
G1 X62.729 Y101.339 E2.68852
G1 X63.502 Y102.747 F10800.000
G1 F1800
G1 X70.226 Y109.471 E2.82221
G1 X70.226 Y110.105 F10800.000
G1 F1800
G1 X64.276 Y104.154 E2.94053
G1 X65.049 Y105.561 F10800.000
G1 F1800
G1 X70.226 Y110.739 E3.04348
G1 X70.226 Y111.373 F10800.000
G1 F1800
G1 X65.822 Y106.969 E3.13105
G1 X66.595 Y108.376 F10800.000
G1 F1800
G1 X70.226 Y112.007 E3.20325
G1 X70.226 Y112.642 F10800.000
G1 F1800
G1 X67.368 Y109.784 E3.26007
G1 X68.142 Y111.191 F10800.000
G1 F1800
G1 X70.174 Y113.223 E3.30048
G1 E1.30048 F2400.00000
G92 E0
G1 X81.807 Y112.446 F10800.000
G1 E2.00000 F2400.00000
G1 F1800
G1 X81.807 Y103.554 E2.12444
G1 X86.199 Y103.554 E2.18591
G1 X86.199 Y112.446 E2.31035
G1 X81.882 Y112.446 E2.37077
G1 X82.253 Y112.000 F10800.000
G1 F1800
G1 X82.253 Y104.000 E2.48272
G1 X85.753 Y104.000 E2.53169
G1 X85.753 Y112.000 E2.64364
G1 X82.328 Y112.000 E2.69157
G1 X81.790 Y112.188 F10800.000
G1 E0.69157 F2400.00000
G92 E0
G1 X81.807 Y47.554 F10800.000
G1 E2.00000 F2400.00000
G1 F1800
G1 X86.199 Y47.554 E2.06147
G1 X86.199 Y56.446 E2.18591
G1 X81.807 Y56.446 E2.24738
G1 X81.807 Y47.629 E2.37077
G1 X82.253 Y48.000 F10800.000
G1 F1800
G1 X85.753 Y48.000 E2.41975
G1 X85.753 Y56.000 E2.53169
G1 X82.253 Y56.000 E2.58067
G1 X82.253 Y48.075 E2.69157
G1 X82.184 Y47.505 F10800.000
G1 E0.69157 F2400.00000
G92 E0
G1 X100.860 Y57.357 F10800.000
G1 E2.00000 F2400.00000
G1 F1800
G1 X105.746 Y57.357 E2.06836
G1 X105.746 Y66.334 E2.19398
G1 X106.293 Y65.849 E2.20421
G1 X107.499 Y65.216 E2.22327
G1 X108.822 Y64.890 E2.24233
G1 X110.184 Y64.890 E2.26140
G1 X111.507 Y65.216 E2.28046
