; generated by Slic3r 1.2.9 on 2016-07-11 at 21:24:11

; external perimeters extrusion width = 0.50mm
; perimeters extrusion width = 0.50mm
; infill extrusion width = 0.50mm
; solid infill extrusion width = 0.50mm
; top infill extrusion width = 0.50mm

M107
M190 S60 ; set bed temperature
M104 S210 ; set temperature
G28 ; home all axes
M109 S210 ; wait for temperature to be reached
G21 ; set units to millimeters
G90 ; use absolute coordinates
M82 ; use absolute distances for extrusion
G92 E0
G1 Z0.350 F7800.000
G1 E-2.00000 F1920.00000
G92 E0
G1 X67.059 Y32.608 F7800.000
G1 E2.00000 F1920.00000
M204 S3000
G1 X67.448 Y31.934 E2.00591 F1800.000
G1 X67.528 Y31.829 E2.00691
G1 X68.079 Y31.278 E2.01283
G1 X68.184 Y31.198 E2.01384
G1 X68.856 Y30.809 E2.01973
G1 X75.834 Y28.217 E2.07628
G1 X76.481 Y28.057 E2.08135
G1 X77.000 Y28.015 E2.08531
G1 X93.000 Y28.015 E2.20686
G1 X93.389 Y28.040 E2.20982
G1 X94.166 Y28.217 E2.21588 F1800.000
G1 X101.142 Y30.809 E2.27242
G1 X101.817 Y31.198 E2.27834
G1 X101.922 Y31.279 E2.27934
G1 X102.471 Y31.828 E2.28525
G1 X102.551 Y31.933 E2.28625
G1 X102.941 Y32.607 E2.29217
G1 X103.141 Y33.197 E2.29689
G1 X107.891 Y53.697 E2.45676
G1 X107.960 Y54.113 E2.45997
G1 X107.985 Y54.500 E2.46292
G1 X107.985 Y88.500 E2.72122
G1 X107.960 Y88.890 E2.72419
G1 X107.943 Y89.019 E2.72518
G1 X107.741 Y89.772 E2.73110
G1 X107.691 Y89.893 E2.73210
G1 X107.302 Y90.567 E2.73801
G1 X107.220 Y90.674 E2.73904
G1 X106.671 Y91.222 E2.74493
G1 X106.567 Y91.301 E2.74592
G1 X105.894 Y91.690 E2.75183
G1 X105.772 Y91.741 E2.75283
G1 X105.019 Y91.943 E2.75875
G1 X104.500 Y91.985 E2.76271
G1 X65.500 Y91.985 E3.05900
G1 X64.981 Y91.943 E3.06296
G1 X64.228 Y91.741 E3.06888
G1 X64.107 Y91.691 E3.06987
G1 X63.433 Y91.302 E3.07579
G1 X63.329 Y91.222 E3.07678
G1 X62.778 Y90.671 E3.08270
G1 X62.699 Y90.567 E3.08370
G1 X62.309 Y89.892 E3.08962
G1 X62.259 Y89.772 E3.09061
G1 X62.058 Y89.022 E3.09651
G1 X62.015 Y88.500 E3.10049
G1 X62.015 Y54.500 E3.35879
G1 X62.040 Y54.110 E3.36176
G1 X62.109 Y53.697 E3.36495
G1 X66.859 Y33.197 E3.52482
G1 X67.030 Y32.677 E3.52897
G1 X67.286 Y32.702 F7800.000
G4 P31
G1 X67.643 Y32.084 E3.53440 F1800.000
G1 X67.723 Y31.979 E3.53540
G1 X68.229 Y31.473 E3.54083
G1 X68.334 Y31.393 E3.54183
G1 X68.951 Y31.037 E3.54724
G1 X75.919 Y28.448 E3.60372
G1 X76.513 Y28.301 E3.60837
G1 X77.000 Y28.261 E3.61208
G1 X93.000 Y28.261 E3.73364
G1 X93.356 Y28.284 E3.73635
G1 X94.081 Y28.448 E3.74199 F1800.000
G1 X101.048 Y31.036 E3.79846
G1 X101.667 Y31.394 E3.80389
G1 X101.772 Y31.474 E3.80489
G1 X102.276 Y31.978 E3.81031
G1 X102.356 Y32.083 E3.81131
G1 X102.714 Y32.702 E3.81674
G1 X102.901 Y33.252 E3.82116
G1 X107.651 Y53.752 E3.98103
G1 X107.716 Y54.145 E3.98405
G1 X107.739 Y54.500 E3.98676
G1 X107.739 Y88.500 E4.24506
G1 X107.716 Y88.857 E4.24778
G1 X107.699 Y88.987 E4.24878
G1 X107.513 Y89.678 E4.25421
G1 X107.464 Y89.797 E4.25519
G1 X107.106 Y90.417 E4.26063
G1 X107.024 Y90.524 E4.26165
G1 X106.521 Y91.027 E4.26706
G1 X106.417 Y91.106 E4.26805
G1 X105.800 Y91.463 E4.27347
G1 X105.678 Y91.514 E4.27447
G1 X104.987 Y91.699 E4.27991
G1 X104.500 Y91.739 E4.28362
G1 X65.500 Y91.739 E4.57991
G1 X65.013 Y91.699 E4.58362
G1 X64.322 Y91.513 E4.58905
G1 X64.202 Y91.464 E4.59005
G1 X63.583 Y91.106 E4.59548
G1 X63.479 Y91.027 E4.59647
G1 X62.973 Y90.521 E4.60190
G1 X62.894 Y90.417 E4.60289
G1 X62.536 Y89.798 E4.60833
G1 X62.486 Y89.678 E4.60932
G1 X62.302 Y88.989 E4.61473
G1 X62.261 Y88.500 E4.61846
G1 X62.261 Y54.500 E4.87677
G1 X62.284 Y54.143 E4.87949
G1 X62.349 Y53.752 E4.88250
G1 X67.099 Y33.252 E5.04237
G1 X67.258 Y32.771 E5.04622
G1 X67.514 Y32.796 F7800.000
G4 P31
G1 X67.839 Y32.233 E5.05115 F1800.000
G1 X67.919 Y32.129 E5.05215
G1 X68.379 Y31.669 E5.05710
G1 X68.483 Y31.589 E5.05810
G1 X69.045 Y31.265 E5.06302
G1 X76.005 Y28.680 E5.11943
G1 X76.545 Y28.546 E5.12365
G1 X77.000 Y28.507 E5.12712
G1 X93.000 Y28.507 E5.24868
G1 X93.324 Y28.528 E5.25115
G1 X93.995 Y28.680 E5.25637 F1800.000
G1 X100.954 Y31.264 E5.31277
G1 X101.517 Y31.589 E5.31771
G1 X101.622 Y31.669 E5.31871
G1 X102.081 Y32.128 E5.32364
G1 X102.161 Y32.233 E5.32464
G1 X102.486 Y32.796 E5.32958
G1 X102.661 Y33.308 E5.33369
G1 X107.411 Y53.808 E5.49356
G1 X107.472 Y54.177 E5.49641
G1 X107.493 Y54.500 E5.49886
G1 X107.493 Y88.500 E5.75717
G1 X107.454 Y88.955 E5.76064
G1 X107.286 Y89.583 E5.76558
G1 X107.235 Y89.705 E5.76659
G1 X106.911 Y90.267 E5.77152
G1 X106.829 Y90.374 E5.77253
G1 X106.371 Y90.831 E5.77745
G1 X106.267 Y90.911 E5.77844
G1 X105.705 Y91.235 E5.78338
G1 X105.583 Y91.286 E5.78438
G1 X104.955 Y91.454 E5.78932
G1 X104.500 Y91.493 E5.79279
G1 X65.500 Y91.493 E6.08908
G1 X65.045 Y91.454 E6.09255
G1 X64.417 Y91.286 E6.09750
G1 X64.296 Y91.236 E6.09849
G1 X63.733 Y90.911 E6.10343
G1 X63.629 Y90.831 E6.10442
G1 X63.169 Y90.371 E6.10937
G1 X63.089 Y90.267 E6.11036
G1 X62.764 Y89.704 E6.11530
G1 X62.714 Y89.583 E6.11629
G1 X62.546 Y88.957 E6.12122
G1 X62.507 Y88.500 E6.12470
G1 X62.507 Y54.500 E6.38301
G1 X62.529 Y54.175 E6.38549
G1 X62.589 Y53.808 E6.38831
G1 X67.339 Y33.308 E6.54818
G1 X67.485 Y32.865 E6.55172
G1 X67.742 Y32.890 F7800.000
G4 P31
G1 X68.034 Y32.383 E6.55617 F1800.000
G1 X68.114 Y32.279 E6.55717
G1 X68.529 Y31.864 E6.56163
G1 X68.633 Y31.784 E6.56263
G1 X69.139 Y31.492 E6.56706
G1 X76.090 Y28.911 E6.62340
G1 X76.577 Y28.790 E6.62721
G1 X77.000 Y28.754 E6.63043
G1 X93.000 Y28.754 E6.75199
G1 X93.292 Y28.773 E6.75421
G1 X93.910 Y28.911 E6.75902 F1800.000
G1 X100.860 Y31.492 E6.81534
G1 X101.367 Y31.785 E6.81980
G1 X101.472 Y31.865 E6.82080
G1 X101.885 Y32.278 E6.82524
G1 X101.965 Y32.383 E6.82624
G1 X102.258 Y32.890 E6.83069
G1 X102.421 Y33.364 E6.83449
G1 X107.171 Y53.864 E6.99436
G1 X107.227 Y54.209 E6.99702
G1 X107.246 Y54.500 E6.99924
G1 X107.246 Y88.500 E7.25755
G1 X107.210 Y88.923 E7.26077
G1 X107.058 Y89.489 E7.26522
G1 X107.008 Y89.611 E7.26622
G1 X106.715 Y90.117 E7.27067
G1 X106.634 Y90.223 E7.27168
G1 X106.221 Y90.636 E7.27612
G1 X106.117 Y90.715 E7.27711
G1 X105.611 Y91.008 E7.28155
G1 X105.489 Y91.058 E7.28256
G1 X104.923 Y91.210 E7.28701
G1 X104.500 Y91.246 E7.29023
G1 X65.500 Y91.246 E7.58653
G1 X65.077 Y91.210 E7.58975
G1 X64.511 Y91.058 E7.59420
G1 X64.390 Y91.008 E7.59520
G1 X63.883 Y90.715 E7.59965
G1 X63.779 Y90.636 E7.60064
G1 X63.364 Y90.221 E7.60510
G1 X63.285 Y90.117 E7.60609
G1 X62.992 Y89.610 E7.61054
G1 X62.942 Y89.489 E7.61154
G1 X62.790 Y88.925 E7.61598
G1 X62.754 Y88.500 E7.61921
G1 X62.754 Y54.500 E7.87752
G1 X62.773 Y54.207 E7.87975
G1 X62.829 Y53.864 E7.88239
G1 X67.579 Y33.364 E8.04226
G1 X67.713 Y32.960 E8.04550
G1 E6.04550 F1920.00000
G92 E0
G1 X95.893 Y47.643 F7800.000
G1 E2.00000 F1920.00000
G1 X95.893 Y39.958 E2.05838 F1800.000
G1 X95.859 Y39.703 E2.06034
G1 X95.744 Y39.426 E2.06262
G1 X95.562 Y39.188 E2.06489
G1 X95.324 Y39.006 E2.06717
G1 X95.047 Y38.891 E2.06945
G1 X94.792 Y38.857 E2.07140
G1 X93.615 Y38.857 E2.08034
G1 X93.310 Y38.939 E2.08274
G1 X93.066 Y39.127 E2.08508
G1 X92.886 Y39.438 E2.08781
G1 X92.857 Y39.658 E2.08950
G1 X92.857 Y41.357 E2.10241
G1 X92.716 Y41.357 E2.10348
G1 X90.476 Y39.080 E2.12775
G1 X90.393 Y38.970 E2.12880
G1 X90.360 Y38.889 E2.12946
G1 X90.343 Y38.757 E2.13047
G1 X90.343 Y34.243 E2.16477
G1 X90.360 Y34.111 E2.16578
G1 X90.394 Y34.027 E2.16647
G1 X90.475 Y33.921 E2.16748
G1 X92.716 Y31.643 E2.19176
G1 X92.857 Y31.643 E2.19283
G1 X92.857 Y33.385 E2.20607
G1 X92.939 Y33.690 E2.20847
G1 X93.127 Y33.934 E2.21081
G1 X93.476 Y34.136 E2.21387
G1 X99.607 Y34.143 E2.26045
G1 X99.607 Y53.542 E2.40784
G1 X99.641 Y53.797 E2.40979
G1 X99.756 Y54.074 E2.41207
G1 X99.938 Y54.312 E2.41435
G1 X100.176 Y54.494 E2.41662
G1 X100.453 Y54.609 E2.41890
G1 X100.708 Y54.643 E2.42085
G1 X104.357 Y54.643 E2.44858
G1 X104.357 Y56.357 E2.46161
G1 X65.643 Y56.357 E2.75573
G1 X65.643 Y54.643 E2.76876
G1 X69.292 Y54.643 E2.79648
G1 X69.547 Y54.609 E2.79844
G1 X69.824 Y54.494 E2.80072
G1 X70.062 Y54.312 E2.80299
G1 X70.244 Y54.074 E2.80527
G1 X70.359 Y53.797 E2.80755
G1 X70.393 Y53.542 E2.80950
G1 X70.393 Y34.143 E2.95689
G1 X76.524 Y34.136 E3.00347
G1 X76.873 Y33.934 E3.00653
G1 X77.061 Y33.690 E3.00887
G1 X77.143 Y33.385 E3.01127
G1 X77.143 Y31.648 E3.02446
G1 X77.295 Y31.654 E3.02562
G1 X79.525 Y33.921 E3.04978
G1 X79.606 Y34.027 E3.05079
G1 X79.640 Y34.111 E3.05148
G1 X79.657 Y34.243 E3.05249
G1 X79.657 Y38.757 E3.08679
G1 X79.640 Y38.889 E3.08780
G1 X79.606 Y38.973 E3.08849
G1 X79.525 Y39.079 E3.08950
G1 X77.284 Y41.357 E3.11378
G1 X77.143 Y41.357 E3.11485
G1 X77.143 Y39.658 E3.12776
G1 X77.114 Y39.438 E3.12945
G1 X76.934 Y39.127 E3.13218
G1 X76.690 Y38.939 E3.13452
G1 X76.385 Y38.857 E3.13692
G1 X75.208 Y38.857 E3.14586
G1 X74.953 Y38.891 E3.14781
G1 X74.676 Y39.006 E3.15009
G1 X74.438 Y39.188 E3.15237
G1 X74.256 Y39.426 E3.15465
G1 X74.141 Y39.703 E3.15692
G1 X74.107 Y39.958 E3.15888
G1 X74.107 Y47.643 E3.21726
G1 X95.818 Y47.643 E3.38220
G1 X95.646 Y47.396 F7800.000
G1 X95.646 Y39.974 E3.43859 F1800.000
G1 X95.619 Y39.767 E3.44018
G1 X95.529 Y39.550 E3.44196
G1 X95.386 Y39.364 E3.44375
G1 X95.200 Y39.221 E3.44553
G1 X94.983 Y39.131 E3.44731
G1 X94.776 Y39.104 E3.44890
G1 X93.648 Y39.104 E3.45747
G1 X93.421 Y39.164 E3.45925
G1 X93.255 Y39.292 E3.46085
G1 X93.124 Y39.518 E3.46283
G1 X93.104 Y39.674 E3.46402
G1 X93.097 Y41.526 E3.47809
G1 X93.071 Y41.571 E3.47849
G1 X93.026 Y41.597 E3.47888
G1 X92.683 Y41.604 E3.48149
G1 X92.630 Y41.597 E3.48189
G1 X92.564 Y41.554 E3.48249
G1 X90.288 Y39.241 E3.50714
G1 X90.177 Y39.092 E3.50856
G1 X90.120 Y38.952 E3.50970
G1 X90.096 Y38.773 E3.51108
G1 X90.096 Y34.227 E3.54561
G1 X90.120 Y34.048 E3.54699
G1 X90.179 Y33.904 E3.54817
G1 X90.288 Y33.760 E3.54954
G1 X92.564 Y31.446 E3.57420
G1 X92.629 Y31.404 E3.57479
G1 X93.026 Y31.403 E3.57780
G1 X93.071 Y31.429 E3.57820
G1 X93.097 Y31.474 E3.57859
G1 X93.104 Y33.352 E3.59286
G1 X93.164 Y33.579 E3.59464
G1 X93.292 Y33.745 E3.59624
G1 X93.542 Y33.889 E3.59843
G1 X99.724 Y33.896 E3.64539
G1 X99.800 Y33.913 E3.64599
G1 X99.837 Y33.950 E3.64638
G1 X99.854 Y34.026 E3.64698
G1 X99.854 Y53.526 E3.79512
G1 X99.881 Y53.733 E3.79671
G1 X99.971 Y53.950 E3.79849
G1 X100.114 Y54.136 E3.80028
G1 X100.300 Y54.279 E3.80206
G1 X100.517 Y54.369 E3.80384
G1 X100.724 Y54.396 E3.80543
G1 X104.474 Y54.396 E3.83392
G1 X104.550 Y54.413 E3.83451
G1 X104.587 Y54.450 E3.83491
G1 X104.604 Y54.526 E3.83550
G1 X104.604 Y56.474 E3.85030
G1 X104.571 Y56.571 E3.85108
G1 X104.474 Y56.604 E3.85185
G1 X65.526 Y56.604 E4.14775
G1 X65.450 Y56.587 E4.14834
G1 X65.403 Y56.526 E4.14893
G1 X65.396 Y54.526 E4.16412
G1 X65.413 Y54.450 E4.16471
G1 X65.450 Y54.413 E4.16511
G1 X65.526 Y54.396 E4.16570
G1 X69.276 Y54.396 E4.19419
G1 X69.483 Y54.369 E4.19577
G1 X69.700 Y54.279 E4.19756
G1 X69.886 Y54.136 E4.19934
G1 X70.029 Y53.950 E4.20113
G1 X70.119 Y53.733 E4.20291
G1 X70.146 Y53.526 E4.20450
G1 X70.146 Y34.026 E4.35264
G1 X70.163 Y33.950 E4.35324
G1 X70.200 Y33.913 E4.35363
G1 X70.276 Y33.896 E4.35422
G1 X76.458 Y33.889 E4.40119
G1 X76.708 Y33.745 E4.40338
G1 X76.836 Y33.579 E4.40497
G1 X76.896 Y33.352 E4.40676
G1 X76.896 Y31.526 E4.42063
G1 X76.913 Y31.450 E4.42122
G1 X76.974 Y31.403 E4.42181
G1 X77.391 Y31.411 E4.42497
G1 X77.436 Y31.446 E4.42541
G1 X79.712 Y33.760 E4.45007
G1 X79.821 Y33.904 E4.45144
G1 X79.880 Y34.048 E4.45262
G1 X79.904 Y34.227 E4.45399
G1 X79.904 Y38.773 E4.48853
G1 X79.880 Y38.952 E4.48991
G1 X79.821 Y39.096 E4.49108
G1 X79.712 Y39.240 E4.49246
G1 X77.436 Y41.554 E4.51712
G1 X77.394 Y41.586 E4.51752
G1 X77.317 Y41.604 E4.51812
G1 X76.974 Y41.597 E4.52073
G1 X76.929 Y41.571 E4.52112
G1 X76.903 Y41.526 E4.52151
G1 X76.896 Y39.674 E4.53558
G1 X76.876 Y39.518 E4.53678
G1 X76.745 Y39.292 E4.53876
G1 X76.579 Y39.164 E4.54036
G1 X76.352 Y39.104 E4.54214
G1 X75.224 Y39.104 E4.55071
G1 X75.017 Y39.131 E4.55229
G1 X74.800 Y39.221 E4.55408
G1 X74.614 Y39.364 E4.55586
G1 X74.471 Y39.550 E4.55765
G1 X74.381 Y39.767 E4.55943
G1 X74.354 Y39.974 E4.56102
G1 X74.354 Y47.396 E4.61741
G1 X95.571 Y47.396 E4.77860
G1 X95.400 Y47.150 F7800.000
G1 X95.400 Y39.990 E4.83300 F1800.000
G1 X95.379 Y39.831 E4.83422
G1 X95.314 Y39.674 E4.83551
G1 X95.211 Y39.539 E4.83680
G1 X95.076 Y39.436 E4.83809
G1 X94.919 Y39.371 E4.83938
G1 X94.760 Y39.350 E4.84060
G1 X93.680 Y39.350 E4.84880
G1 X93.532 Y39.390 E4.84996
G1 X93.444 Y39.458 E4.85081
G1 X93.362 Y39.599 E4.85205
G1 X93.350 Y39.690 E4.85275
G1 X93.337 Y41.590 E4.86719
G1 X93.247 Y41.747 E4.86856
G1 X93.090 Y41.837 E4.86993
G1 X92.666 Y41.850 E4.87315
G1 X92.565 Y41.837 E4.87393
G1 X92.480 Y41.801 E4.87463
G1 X92.400 Y41.738 E4.87540
G1 X90.101 Y39.402 E4.90030
G1 X89.961 Y39.214 E4.90208
G1 X89.880 Y39.016 E4.90371
G1 X89.850 Y38.789 E4.90545
G1 X89.850 Y34.211 E4.94023
G1 X89.880 Y33.984 E4.94197
G1 X89.963 Y33.781 E4.94364
G1 X90.101 Y33.598 E4.94538
G1 X92.400 Y31.262 E4.97028
G1 X92.480 Y31.199 E4.97105
G1 X92.563 Y31.164 E4.97174
G1 X92.667 Y31.150 E4.97253
G1 X93.090 Y31.163 E4.97575
G1 X93.247 Y31.253 E4.97712
G1 X93.302 Y31.326 E4.97781
G1 X93.350 Y31.510 E4.97926
G1 X93.350 Y33.320 E4.99301
G1 X93.390 Y33.468 E4.99417
G1 X93.458 Y33.556 E4.99502
G1 X93.608 Y33.643 E4.99634
G1 X99.740 Y33.650 E5.04293
G1 X99.924 Y33.698 E5.04437
G1 X100.052 Y33.826 E5.04575
G1 X100.100 Y34.010 E5.04719
G1 X100.100 Y53.510 E5.19534
G1 X100.121 Y53.669 E5.19655
G1 X100.186 Y53.826 E5.19785
G1 X100.289 Y53.961 E5.19914
G1 X100.424 Y54.064 E5.20043
G1 X100.581 Y54.129 E5.20172
G1 X100.740 Y54.150 E5.20294
G1 X104.490 Y54.150 E5.23143
G1 X104.674 Y54.198 E5.23287
G1 X104.802 Y54.326 E5.23424
G1 X104.850 Y54.510 E5.23569
G1 X104.850 Y56.490 E5.25074
G1 X104.837 Y56.590 E5.25150
G1 X104.747 Y56.747 E5.25287
G1 X104.590 Y56.837 E5.25425
G1 X104.490 Y56.850 E5.25501
G1 X65.510 Y56.850 E5.55116
G1 X65.326 Y56.802 E5.55260
G1 X65.253 Y56.747 E5.55329
G1 X65.163 Y56.590 E5.55467
G1 X65.150 Y56.490 E5.55543
G1 X65.150 Y54.510 E5.57048
G1 X65.198 Y54.326 E5.57192
G1 X65.326 Y54.198 E5.57329
G1 X65.510 Y54.150 E5.57474
G1 X69.260 Y54.150 E5.60323
G1 X69.419 Y54.129 E5.60445
G1 X69.576 Y54.064 E5.60574
G1 X69.711 Y53.961 E5.60703
G1 X69.814 Y53.826 E5.60832
G1 X69.879 Y53.669 E5.60961
G1 X69.900 Y53.510 E5.61083
G1 X69.900 Y34.010 E5.75898
G1 X69.948 Y33.826 E5.76042
G1 X70.076 Y33.698 E5.76179
G1 X70.160 Y33.663 E5.76249
G1 X70.260 Y33.650 E5.76325
G1 X76.392 Y33.643 E5.80984
G1 X76.542 Y33.556 E5.81116
G1 X76.610 Y33.468 E5.81201
G1 X76.650 Y33.320 E5.81317
G1 X76.663 Y31.410 E5.82768
G1 X76.753 Y31.253 E5.82905
G1 X76.910 Y31.163 E5.83043
G1 X77.007 Y31.150 E5.83117
G1 X77.439 Y31.166 E5.83446
G1 X77.520 Y31.199 E5.83512
G1 X77.600 Y31.262 E5.83589
G1 X79.899 Y33.598 E5.86079
G1 X80.037 Y33.781 E5.86254
G1 X80.120 Y33.984 E5.86420
G1 X80.150 Y34.211 E5.86594
G1 X80.150 Y38.789 E5.90072
G1 X80.120 Y39.016 E5.90246
G1 X80.037 Y39.219 E5.90413
G1 X79.899 Y39.402 E5.90587
G1 X77.600 Y41.738 E5.93077
G1 X77.520 Y41.801 E5.93155
G1 X77.435 Y41.837 E5.93225
G1 X77.334 Y41.850 E5.93302
G1 X76.910 Y41.837 E5.93624
G1 X76.753 Y41.747 E5.93761
G1 X76.663 Y41.590 E5.93899
G1 X76.650 Y39.690 E5.95342
G1 X76.638 Y39.599 E5.95412
G1 X76.556 Y39.458 E5.95536
G1 X76.468 Y39.390 E5.95621
G1 X76.320 Y39.350 E5.95737
G1 X75.240 Y39.350 E5.96557
G1 X75.081 Y39.371 E5.96679
G1 X74.924 Y39.436 E5.96808
G1 X74.789 Y39.539 E5.96937
G1 X74.686 Y39.674 E5.97067
G1 X74.621 Y39.831 E5.97196
G1 X74.600 Y39.990 E5.97317
G1 X74.600 Y47.150 E6.02757
G1 X95.325 Y47.150 E6.18502
G1 X95.900 Y47.150 F7800.000
G1 E4.18502 F1920.00000
G92 E0
G1 X96.007 Y39.717 F7800.000
G1 E2.00000 F1920.00000
G1 X99.470 Y43.181 E2.03741 F1800.000
G1 X99.470 Y43.531 E2.04009
G1 X96.030 Y40.091 E2.07725
G1 X96.030 Y40.441 E2.07993
G1 X99.470 Y43.881 E2.11709
G1 X99.470 Y44.231 E2.11977
G1 X96.030 Y40.791 E2.15693
G1 X96.030 Y41.141 E2.15960
G1 X99.470 Y44.582 E2.19677
G1 X99.470 Y44.932 E2.19944
G1 X96.030 Y41.492 E2.23660
G1 X96.030 Y41.842 E2.23928
G1 X99.470 Y45.282 E2.27644
G1 X99.470 Y45.632 E2.27912
G1 X96.030 Y42.192 E2.31628
G1 X96.030 Y42.542 E2.31896
G1 X99.470 Y45.983 E2.35612
G1 X99.470 Y46.333 E2.35879
G1 X96.030 Y42.893 E2.39596
