; generated by Slic3r 1.2.9 on 2016-07-16 at 00:12:25

; external perimeters extrusion width = 0.50mm
; perimeters extrusion width = 0.50mm
; infill extrusion width = 0.50mm
; solid infill extrusion width = 0.50mm
; top infill extrusion width = 0.50mm

M107
M190 S60 ; set bed temperature
M104 S210 ; set temperature
G28 ; home all axes
M109 S210 ; wait for temperature to be reached
G21 ; set units to millimeters
G90 ; use absolute coordinates
M82 ; use absolute distances for extrusion
G92 E0
G1 Z0.350 F7800.000
G1 E-2.00000 F1920.00000
G92 E0
G1 X22.727 Y27.298 F7800.000
G1 E2.00000 F1920.00000
M204 S3000
G1 X22.951 Y27.111 E2.00222 F1800.000
G1 X53.871 Y16.283 E2.25111
G1 X54.858 Y16.115 E2.25872
G1 X114.858 Y16.115 E2.71455
G1 X115.848 Y16.284 E2.72218
G1 X147.052 Y27.255 E2.97347 F1800.000
G1 X148.319 Y28.117 E2.98512
G1 X149.047 Y30.071 E3.00096
G1 X149.047 Y90.071 E3.45680
G1 X148.654 Y91.552 E3.46844
G1 X147.041 Y92.892 E3.48437
G1 X115.836 Y103.720 E3.73530
G1 X114.858 Y103.885 E3.74284
G1 X54.858 Y103.885 E4.19868
G1 X53.859 Y103.713 E4.20637
G1 X22.940 Y92.742 E4.45563
G1 X21.676 Y91.876 E4.46727
G1 X20.953 Y89.929 E4.48305
G1 X20.953 Y29.929 E4.93889
G1 X21.346 Y28.448 E4.95053
G1 X22.669 Y27.346 E4.96361
G1 X22.871 Y27.475 F7800.000
G4 P31
G1 X23.033 Y27.344 E4.96519 F1800.000
G1 X53.952 Y16.515 E5.21409
G1 X54.858 Y16.361 E5.22106
G1 X114.858 Y16.361 E5.67690
G1 X115.766 Y16.516 E5.68390
G1 X146.970 Y27.487 E5.93519 F1800.000
G1 X148.173 Y28.326 E5.94634
G1 X148.801 Y30.071 E5.96042
G1 X148.801 Y90.071 E6.41626
G1 X148.408 Y91.484 E6.42740
G1 X146.960 Y92.659 E6.44157
G1 X115.756 Y103.487 E6.69250
G1 X114.858 Y103.639 E6.69942
G1 X54.858 Y103.639 E7.15526
G1 X53.942 Y103.481 E7.16232
G1 X23.022 Y92.510 E7.41157
G1 X21.822 Y91.668 E7.42271
G1 X21.199 Y89.929 E7.43674
G1 X21.199 Y29.929 E7.89258
G1 X21.592 Y28.516 E7.90372
G1 X22.813 Y27.523 E7.91568
G1 X23.014 Y27.656 F7800.000
G4 P31
G1 X23.114 Y27.576 E7.91665 F1800.000
G1 X54.034 Y16.748 E8.16554
G1 X54.858 Y16.608 E8.17189
G1 X114.858 Y16.608 E8.62773
G1 X115.684 Y16.749 E8.63410
G1 X146.889 Y27.720 E8.88539 F1800.000
G1 X148.024 Y28.534 E8.89601
G1 X148.555 Y30.071 E8.90836
G1 X148.555 Y90.071 E9.36420
G1 X148.163 Y91.413 E9.37482
G1 X146.879 Y92.426 E9.38724
G1 X115.675 Y103.255 E9.63818
G1 X114.858 Y103.392 E9.64447
G1 X54.858 Y103.392 E10.10031
G1 X54.024 Y103.249 E10.10673
G1 X23.105 Y92.278 E10.35599
G1 X21.971 Y91.460 E10.36661
G1 X21.445 Y89.929 E10.37890
G1 X21.445 Y29.929 E10.83474
G1 X21.837 Y28.587 E10.84536
G1 X22.955 Y27.702 E10.85619
G1 X23.155 Y27.840 F7800.000
G4 P31
G1 X23.196 Y27.809 E10.85658 F1800.000
G1 X54.115 Y16.980 E11.10547
G1 X54.858 Y16.854 E11.11119
G1 X114.858 Y16.854 E11.56703
G1 X115.603 Y16.981 E11.57277
G1 X146.807 Y27.952 E11.82406 F1800.000
G1 X147.872 Y28.741 E11.83413
G1 X148.308 Y30.071 E11.84477
G1 X148.308 Y90.071 E12.30060
G1 X147.917 Y91.338 E12.31067
G1 X146.798 Y92.193 E12.32137
G1 X115.594 Y103.022 E12.57231
G1 X114.858 Y103.146 E12.57798
G1 X54.858 Y103.146 E13.03382
G1 X54.106 Y103.017 E13.03961
G1 X23.187 Y92.046 E13.28886
G1 X22.124 Y91.254 E13.29893
G1 X21.692 Y89.929 E13.30952
G1 X21.692 Y29.929 E13.76536
G1 X22.083 Y28.662 E13.77543
G1 X23.096 Y27.885 E13.78512
G1 E11.78512 F1920.00000
G92 E0
G1 X135.230 Y77.063 F7800.000
G1 E2.00000 F1920.00000
G1 X135.501 Y76.977 E2.00216 F1800.000
G1 X136.259 Y76.930 E2.00794 F1800.000
G1 X137.035 Y77.077 E2.01393
G1 X137.749 Y77.413 E2.01992
G1 X138.356 Y77.916 E2.02592
G1 X138.820 Y78.555 E2.03191
G1 X139.111 Y79.288 E2.03791
G1 X139.210 Y80.071 E2.04390
G1 X139.111 Y80.854 E2.04990
G1 X138.820 Y81.588 E2.05589
G1 X138.356 Y82.226 E2.06189
G1 X137.749 Y82.729 E2.06788
G1 X137.035 Y83.065 E2.07388
G1 X136.256 Y83.213 E2.07990
G1 X135.444 Y83.154 E2.08608
G1 X134.722 Y82.919 E2.09185
G1 X134.053 Y82.495 E2.09787
G1 X133.501 Y81.896 E2.10406
G1 X133.135 Y81.230 E2.10983
G1 X132.939 Y80.466 E2.11583
G1 X132.939 Y79.677 E2.12182
G1 X133.135 Y78.912 E2.12782
G1 X133.515 Y78.221 E2.13381
G1 X134.055 Y77.646 E2.13981
G1 X134.724 Y77.221 E2.14582
G1 X135.158 Y77.085 E2.14928
G1 X135.303 Y77.298 F7800.000
G4 P31
G1 X135.547 Y77.221 E2.15121 F1800.000
G1 X136.244 Y77.177 E2.15652 F1800.000
G4 P1
G1 X136.958 Y77.314 E2.16204
G1 X137.615 Y77.623 E2.16757
G1 X138.175 Y78.086 E2.17309
G1 X138.603 Y78.674 E2.17861
G1 X138.870 Y79.350 E2.18413
G1 X138.961 Y80.071 E2.18965
G1 X138.870 Y80.792 E2.19518
G1 X138.603 Y81.468 E2.20070
G1 X138.175 Y82.056 E2.20622
G1 X137.615 Y82.519 E2.21174
G1 X136.958 Y82.829 E2.21726
G1 X136.242 Y82.965 E2.22280
G1 X135.492 Y82.911 E2.22851
G1 X134.827 Y82.695 E2.23382
G1 X134.212 Y82.304 E2.23936
G1 X133.703 Y81.751 E2.24507
G1 X133.366 Y81.139 E2.25038
G1 X133.185 Y80.435 E2.25590
G1 X133.185 Y79.708 E2.26142
G1 X133.366 Y79.004 E2.26695
G1 X133.716 Y78.367 E2.27247
G1 X134.214 Y77.837 E2.27799
G1 X134.829 Y77.447 E2.28353
G1 X135.232 Y77.320 E2.28673
G1 X135.377 Y77.533 F7800.000
G4 P31
G1 X135.592 Y77.465 E2.28844 F1800.000
G1 X136.228 Y77.425 E2.29329 F1800.000
G4 P4
G1 X136.881 Y77.550 E2.29834
G1 X137.482 Y77.833 E2.30339
G1 X137.994 Y78.256 E2.30844
G1 X138.385 Y78.794 E2.31348
G1 X138.630 Y79.412 E2.31853
G1 X138.713 Y80.071 E2.32358
G1 X138.630 Y80.731 E2.32863
G1 X138.385 Y81.348 E2.33368
G1 X137.994 Y81.886 E2.33873
G1 X137.482 Y82.310 E2.34378
G1 X136.881 Y82.593 E2.34883
G1 X136.228 Y82.717 E2.35388
G1 X135.540 Y82.667 E2.35912
G1 X134.933 Y82.470 E2.36397
G1 X134.371 Y82.114 E2.36902
G1 X133.904 Y81.606 E2.37426
G1 X133.597 Y81.047 E2.37911
G1 X133.432 Y80.403 E2.38416
G1 X133.432 Y79.739 E2.38921
G1 X133.597 Y79.095 E2.39425
G1 X133.917 Y78.513 E2.39930
G1 X134.372 Y78.028 E2.40435
G1 X134.934 Y77.672 E2.40941
G1 X135.306 Y77.555 E2.41237
G1 X135.426 Y77.313 F7800.000
G1 E0.41237 F1920.00000
G92 E0
G1 X116.355 Y62.229 F7800.000
G1 E2.00000 F1920.00000
G1 X115.722 Y62.741 E2.00619 F1800.000
G1 X115.035 Y63.065 E2.01196
G1 X114.256 Y63.213 E2.01798
G1 X113.444 Y63.154 E2.02416
G1 X112.722 Y62.919 E2.02994
G1 X112.053 Y62.495 E2.03596
G1 X111.501 Y61.896 E2.04214
G1 X111.135 Y61.230 E2.04791
G1 X110.938 Y60.463 E2.05393
G1 X110.946 Y59.648 E2.06012
G1 X111.135 Y58.912 E2.06589
G1 X111.515 Y58.221 E2.07189
G1 X112.055 Y57.646 E2.07788
G1 X112.724 Y57.221 E2.08390
G1 X113.501 Y56.977 E2.09009
G1 X114.259 Y56.930 E2.09586 F1800.000
G1 X115.035 Y57.077 E2.10185
G1 X115.749 Y57.413 E2.10785
G1 X116.356 Y57.916 E2.11384
G1 X116.820 Y58.555 E2.11984
G1 X117.111 Y59.288 E2.12583
G1 X117.210 Y60.074 E2.13185
G1 X117.100 Y60.881 E2.13804
G1 X116.820 Y61.588 E2.14381
G1 X116.399 Y62.168 E2.14926
G1 X116.174 Y62.058 F7800.000
G4 P31
G1 X115.590 Y62.531 E2.15497 F1800.000
G1 X114.958 Y62.829 E2.16028
G1 X114.242 Y62.965 E2.16582
G1 X113.492 Y62.911 E2.17153
G1 X112.827 Y62.695 E2.17684
G1 X112.212 Y62.304 E2.18238
G1 X111.703 Y61.751 E2.18809
G1 X111.366 Y61.139 E2.19340
G1 X111.185 Y60.433 E2.19894
G1 X111.192 Y59.681 E2.20465
G1 X111.366 Y59.004 E2.20996
G1 X111.716 Y58.367 E2.21548
G1 X112.214 Y57.837 E2.22100
G1 X112.829 Y57.447 E2.22654
G1 X113.547 Y57.221 E2.23225
G1 X114.244 Y57.177 E2.23756 F1800.000
G1 X114.958 Y57.314 E2.24308
G1 X115.615 Y57.623 E2.24861
G1 X116.175 Y58.086 E2.25413
G1 X116.603 Y58.674 E2.25965
G1 X116.870 Y59.350 E2.26517
G1 X116.962 Y60.073 E2.27071
G1 X116.860 Y60.818 E2.27642
G1 X116.603 Y61.468 E2.28173
G1 X116.218 Y61.997 E2.28670
G1 X115.994 Y61.887 F7800.000
G4 P31
G1 X115.458 Y62.321 E2.29194 F1800.000
G1 X114.881 Y62.593 E2.29678
G1 X114.228 Y62.717 E2.30184
G1 X113.540 Y62.667 E2.30708
G1 X112.933 Y62.470 E2.31192
G1 X112.371 Y62.114 E2.31698
G1 X111.904 Y61.606 E2.32222
G1 X111.597 Y61.047 E2.32707
G1 X111.431 Y60.403 E2.33212
G1 X111.438 Y59.713 E2.33736
G1 X111.597 Y59.095 E2.34221
G1 X111.917 Y58.513 E2.34725
G1 X112.372 Y58.028 E2.35230
G1 X112.934 Y57.672 E2.35736
G1 X113.592 Y57.465 E2.36260
G1 X114.228 Y57.425 E2.36744 F1800.000
G1 X114.881 Y57.550 E2.37249
G1 X115.482 Y57.833 E2.37754
G1 X115.994 Y58.256 E2.38259
G1 X116.385 Y58.794 E2.38764
G1 X116.630 Y59.412 E2.39269
G1 X116.713 Y60.072 E2.39774
G1 X116.620 Y60.755 E2.40298
G1 X116.385 Y61.348 E2.40783
G1 X116.038 Y61.826 E2.41231
G1 X116.115 Y62.372 F7800.000
G1 E0.41231 F1920.00000
G92 E0
G1 X134.053 Y42.495 F7800.000
G1 E2.00000 F1920.00000
G1 X133.501 Y41.896 E2.00619 F1800.000
G1 X133.135 Y41.230 E2.01196
G1 X132.938 Y40.463 E2.01798
G1 X132.946 Y39.648 E2.02416
G1 X133.135 Y38.912 E2.02994
G1 X133.515 Y38.221 E2.03593
G1 X134.055 Y37.646 E2.04193
G1 X134.724 Y37.221 E2.04795
G1 X135.501 Y36.977 E2.05413
G1 X136.259 Y36.930 E2.05990 F1800.000
G1 X137.035 Y37.077 E2.06590
G1 X137.749 Y37.413 E2.07189
G1 X138.356 Y37.916 E2.07789
G1 X138.820 Y38.555 E2.08388
G1 X139.111 Y39.288 E2.08988
G1 X139.210 Y40.071 E2.09587
G1 X139.111 Y40.854 E2.10187
G1 X138.820 Y41.588 E2.10786
G1 X138.356 Y42.226 E2.11386
G1 X137.749 Y42.729 E2.11985
G1 X137.035 Y43.065 E2.12584
G1 X136.259 Y43.213 E2.13184
G1 X135.472 Y43.163 E2.13783
G1 X134.722 Y42.919 E2.14383
G1 X134.116 Y42.535 E2.14928
G1 X134.212 Y42.304 F7800.000
G4 P31
G1 X133.703 Y41.751 E2.15499 F1800.000
G1 X133.366 Y41.139 E2.16030
G1 X133.185 Y40.433 E2.16584
G1 X133.192 Y39.681 E2.17155
G1 X133.366 Y39.004 E2.17686
G1 X133.716 Y38.367 E2.18238
G1 X134.214 Y37.837 E2.18790
G1 X134.829 Y37.447 E2.19344
G1 X135.547 Y37.221 E2.19915
G1 X136.244 Y37.177 E2.20446 F1800.000
G1 X136.958 Y37.314 E2.20998
G1 X137.615 Y37.623 E2.21551
G1 X138.175 Y38.086 E2.22103
G1 X138.603 Y38.674 E2.22655
G1 X138.870 Y39.350 E2.23207
G1 X138.961 Y40.071 E2.23759
G1 X138.870 Y40.792 E2.24311
G1 X138.603 Y41.468 E2.24864
G1 X138.175 Y42.056 E2.25416
G1 X137.615 Y42.519 E2.25968
G1 X136.958 Y42.829 E2.26520
G1 X136.244 Y42.965 E2.27072
G1 X135.519 Y42.919 E2.27624
G1 X134.827 Y42.695 E2.28177
G1 X134.275 Y42.344 E2.28673
G1 X134.371 Y42.114 F7800.000
G4 P31
G1 X133.904 Y41.606 E2.29197 F1800.000
G1 X133.597 Y41.047 E2.29682
G1 X133.431 Y40.403 E2.30187
G1 X133.438 Y39.713 E2.30712
G1 X133.597 Y39.095 E2.31196
G1 X133.917 Y38.513 E2.31701
G1 X134.372 Y38.028 E2.32206
G1 X134.934 Y37.672 E2.32711
G1 X135.592 Y37.465 E2.33235
G1 X136.228 Y37.425 E2.33720 F1800.000
G1 X136.881 Y37.550 E2.34225
G1 X137.482 Y37.833 E2.34730
G1 X137.994 Y38.256 E2.35235
G1 X138.385 Y38.794 E2.35739
G1 X138.630 Y39.412 E2.36244
G1 X138.713 Y40.071 E2.36749
G1 X138.630 Y40.731 E2.37254
G1 X138.385 Y41.348 E2.37759
G1 X137.994 Y41.886 E2.38264
G1 X137.482 Y42.310 E2.38769
G1 X136.881 Y42.593 E2.39274
G1 X136.228 Y42.717 E2.39779
G1 X135.565 Y42.675 E2.40283
G1 X134.933 Y42.470 E2.40788
G1 X134.435 Y42.154 E2.41237
G1 X133.895 Y42.265 F7800.000
G1 E0.41237 F1920.00000
G92 E0
G4 P29
G1 X145.419 Y30.714 F7800.000
G1 E2.00000 F1920.00000
G1 X145.419 Y89.428 E2.44607 F1800.000
G1 X126.328 Y89.428 E2.59111
G1 X106.705 Y69.805 E2.80195
G1 X106.705 Y50.337 E2.94985
G1 X126.328 Y30.714 E3.16069
G1 X145.344 Y30.714 E3.30516
G1 X145.665 Y30.468 F7800.000
G1 X145.665 Y89.675 E3.75497 F1800.000
G1 X126.226 Y89.675 E3.90266
G1 X106.458 Y69.907 E4.11504
G1 X106.458 Y50.235 E4.26450
G1 X126.226 Y30.468 E4.47688
G1 X145.590 Y30.468 E4.62400
G1 X145.912 Y30.221 F7800.000
G1 X145.912 Y89.921 E5.07756 F1800.000
G1 X126.124 Y89.921 E5.22789
G1 X106.212 Y70.009 E5.44183
G1 X106.212 Y50.133 E5.59283
G1 X126.124 Y30.221 E5.80677
G1 X145.837 Y30.221 E5.95653
G1 X145.662 Y30.654 F7800.000
G1 X145.282 Y30.996 F7800.000
G4 P25
G1 X145.138 Y30.851 E5.95809 F1800.000
G1 X144.789 Y30.851 E5.96074
G4 P14
G1 X145.282 Y31.344 E5.96605
G1 X145.282 Y31.693 E5.96870
G1 X144.440 Y30.851 E5.97776
G1 X144.091 Y30.851 E5.98042
G1 X145.282 Y32.042 E5.99323
G1 X145.282 Y32.391 E5.99588
G1 X143.742 Y30.851 E6.01245
G1 X143.393 Y30.851 E6.01510
G1 X145.282 Y32.740 E6.03542
G1 X145.282 Y33.088 E6.03807
G1 X143.045 Y30.851 E6.06214
G1 X142.696 Y30.851 E6.06479
G1 X145.282 Y33.437 E6.09262
G1 X145.282 Y33.786 E6.09527
G1 X142.347 Y30.851 E6.12684
G1 X141.998 Y30.851 E6.12950
G1 X145.282 Y34.135 E6.16483
G1 X145.282 Y34.484 E6.16748
G1 X141.649 Y30.851 E6.20656
G1 X141.300 Y30.851 E6.20921
G1 X145.282 Y34.833 E6.25205
G1 X145.282 Y35.181 E6.25470
G1 X140.952 Y30.851 E6.30129
G1 X140.603 Y30.851 E6.30394
G1 X145.282 Y35.530 E6.35428
G1 X145.282 Y35.879 E6.35693
G1 X140.254 Y30.851 E6.41102
G1 X139.905 Y30.851 E6.41367
G1 X145.282 Y36.228 E6.47152
G1 X145.282 Y36.577 E6.47417
G1 X139.556 Y30.851 E6.53577
G1 X139.207 Y30.851 E6.53842
G1 X145.282 Y36.926 E6.60377
G1 X145.282 Y37.274 E6.60642
G1 X138.859 Y30.851 E6.67552
G1 X138.510 Y30.851 E6.67818
G1 X145.282 Y37.623 E6.75103
G1 X145.282 Y37.972 E6.75368
G1 X138.161 Y30.851 E6.83029
G1 X137.812 Y30.851 E6.83294
G1 X145.282 Y38.321 E6.91330
G1 X145.282 Y38.670 E6.91595
G1 X137.463 Y30.851 E7.00007
G1 X137.114 Y30.851 E7.00272
G1 X145.282 Y39.019 E7.09058
G1 X145.282 Y39.367 E7.09324
G1 X136.766 Y30.851 E7.18485
G1 X136.417 Y30.851 E7.18751
G1 X145.282 Y39.716 E7.28287
G1 X145.282 Y40.065 E7.28553
G1 X136.068 Y30.851 E7.38465
G1 X135.719 Y30.851 E7.38730
G1 X145.282 Y40.414 E7.49018
G1 X145.282 Y40.763 E7.49283
G1 X135.370 Y30.851 E7.59946
G1 X135.021 Y30.851 E7.60211
G1 X145.282 Y41.112 E7.71249
G1 X145.282 Y41.460 E7.71514
G1 X134.673 Y30.851 E7.82927
G1 X134.324 Y30.851 E7.83193
G1 X145.282 Y41.809 E7.94981
G1 X145.282 Y42.158 E7.95246
G1 X133.975 Y30.851 E8.07410
G1 X133.626 Y30.851 E8.07676
G1 X145.282 Y42.507 E8.20214
G1 X145.282 Y42.856 E8.20480
G1 X133.277 Y30.851 E8.33394
G1 X132.929 Y30.851 E8.33659
G1 X145.282 Y43.204 E8.46949
G1 X145.282 Y43.553 E8.47214
G1 X132.580 Y30.851 E8.60879
G1 X132.231 Y30.851 E8.61144
G1 X145.282 Y43.902 E8.75184
G1 X145.282 Y44.251 E8.75449
G1 X131.882 Y30.851 E8.89865
G1 X131.533 Y30.851 E8.90130
G1 X145.282 Y44.600 E9.04920
G1 X145.282 Y44.949 E9.05186
G1 X139.061 Y38.727 E9.11878
G1 X139.254 Y39.269 F7800.000
G1 X145.282 Y45.297 E9.18364 F1800.000
G1 X145.282 Y45.646 E9.18629
G1 X139.304 Y39.668 E9.25060
G1 X139.344 Y40.057 E9.25357
G1 X145.282 Y45.995 E9.31745
G1 X145.282 Y46.344 E9.32011
G1 X139.304 Y40.366 E9.38441
G1 X139.265 Y40.676 E9.38679
G1 X145.282 Y46.693 E9.45151
G1 X145.282 Y47.042 E9.45417
G1 X139.200 Y40.959 E9.51960
G1 X139.101 Y41.209 E9.52164
G1 X145.282 Y47.390 E9.58814
G1 X145.282 Y47.739 E9.59079
G1 X139.002 Y41.459 E9.65835
G1 X138.887 Y41.693 E9.66033
G1 X145.282 Y48.088 E9.72912
G1 X145.282 Y48.437 E9.73178
G1 X138.741 Y41.895 E9.80215
G1 X138.594 Y42.097 E9.80405
G1 X145.282 Y48.786 E9.87600
G1 X145.282 Y49.135 E9.87865
G1 X138.447 Y42.299 E9.95218
G1 X138.257 Y42.459 E9.95407
G1 X145.282 Y49.483 E10.02964
G1 X145.282 Y49.832 E10.03229
G1 X138.066 Y42.616 E10.10992
G1 X137.875 Y42.774 E10.11180
G1 X145.282 Y50.181 E10.19148
G1 X145.282 Y50.530 E10.19413
G1 X137.657 Y42.905 E10.27616
G1 X137.420 Y43.016 E10.27816
G1 X145.282 Y50.879 E10.36274
G1 X145.282 Y51.228 E10.36539
G1 X137.182 Y43.128 E10.45252
G1 X136.923 Y43.217 E10.45461
G1 X145.282 Y51.576 E10.54454
G1 X145.282 Y51.925 E10.54720
G1 X136.630 Y43.273 E10.64028
G1 X136.337 Y43.329 E10.64254
G1 X145.282 Y52.274 E10.73878
G1 X145.282 Y52.623 E10.74143
G1 X135.996 Y43.337 E10.84132
G1 X135.624 Y43.314 E10.84416
G1 X145.282 Y52.972 E10.94806
G1 X145.282 Y53.321 E10.95071
G1 X135.200 Y43.239 E11.05917
G1 X134.684 Y43.071 E11.06330
G1 X145.282 Y53.669 E11.17731
G1 X145.282 Y54.018 E11.17997
G1 X124.249 Y32.985 E11.40624
G1 X124.074 Y33.159 E11.40811
G1 X145.282 Y54.367 E11.63626
G1 X145.282 Y54.716 E11.63891
G1 X123.900 Y33.334 E11.86893
G1 X123.725 Y33.508 E11.87081
G1 X145.282 Y55.065 E12.10271
G1 X145.282 Y55.413 E12.10536
G1 X123.551 Y33.682 E12.33914
G1 X123.377 Y33.857 E12.34101
G1 X145.282 Y55.762 E12.57666
G1 X145.282 Y56.111 E12.57932
G1 X123.202 Y34.031 E12.81684
G1 X123.028 Y34.206 E12.81872
G1 X145.282 Y56.460 E13.05812
G1 X145.282 Y56.809 E13.06077
G1 X122.853 Y34.380 E13.30205
G1 X122.679 Y34.555 E13.30393
G1 X145.282 Y57.158 E13.54709
G1 X145.282 Y57.506 E13.54974
G1 X122.505 Y34.729 E13.79477
G1 X122.330 Y34.903 E13.79665
G1 X145.282 Y57.855 E14.04355
G1 X145.282 Y58.204 E14.04621
