; generated by Slic3r 1.2.9 on 2016-07-03 at 20:46:20

; external perimeters extrusion width = 0.50mm
; perimeters extrusion width = 0.50mm
; infill extrusion width = 0.50mm
; solid infill extrusion width = 0.50mm
; top infill extrusion width = 0.50mm

M107
M190 S70 ; set bed temperature
M104 S220 ; set temperature
G28 ; home all axes
M109 S220 ; wait for temperature to be reached
G21 ; set units to millimeters
G90 ; use absolute coordinates
M82 ; use absolute distances for extrusion
G92 E0
G1 Z0.350 F7800.000
G1 E-2.00000 F1920.00000
G92 E0
G1 X45.293 Y36.308 F7800.000
G1 E2.00000 F1920.00000
M204 S3000
G1 X46.983 Y35.173 E2.02786 F1800.000
G1 X49.000 Y34.768 E2.05601
G1 X121.000 Y34.768 E3.04126
G1 X122.997 Y35.164 E3.06912
G1 X124.692 Y36.293 E3.09698 F1800.000
G1 X125.827 Y37.983 E3.12485
G1 X126.232 Y40.000 E3.15300
G1 X126.232 Y80.000 E3.70036
G1 X125.836 Y81.997 E3.72822
G1 X124.707 Y83.692 E3.75608
G1 X123.017 Y84.827 E3.78394
G1 X121.000 Y85.232 E3.81209
G1 X49.000 Y85.232 E4.79734
G1 X47.003 Y84.836 E4.82520
G1 X45.308 Y83.707 E4.85307
G1 X44.173 Y82.017 E4.88093
G1 X43.768 Y80.000 E4.90908
G1 X43.768 Y40.000 E5.45644
G1 X44.164 Y38.003 E5.48430
G1 X45.251 Y36.371 E5.51114
G1 X45.679 Y36.580 F7800.000
G4 P29
G1 X45.732 Y36.504 E5.51241 F1800.000
G1 X47.395 Y35.492 E5.53905
G1 X49.000 Y35.215 E5.56134
G1 X121.000 Y35.215 E6.54659
G1 X122.906 Y35.610 E6.57322
G1 X124.496 Y36.732 E6.59986 F1800.000
G1 X125.508 Y38.395 E6.62649
G1 X125.785 Y40.000 E6.64878
G1 X125.785 Y80.000 E7.19614
G1 X125.390 Y81.906 E7.22277
G1 X124.268 Y83.496 E7.24941
G1 X122.605 Y84.508 E7.27604
G1 X121.000 Y84.785 E7.29833
G1 X49.000 Y84.785 E8.28358
G1 X47.094 Y84.390 E8.31022
G1 X45.504 Y83.268 E8.33685
G1 X44.492 Y81.605 E8.36348
G1 X44.215 Y80.000 E8.38577
G1 X44.215 Y40.000 E8.93313
G1 X44.610 Y38.094 E8.95977
G1 X45.635 Y36.642 E8.98410
G1 X46.055 Y36.864 F7800.000
G4 P29
G1 X46.170 Y36.710 E8.98672 F1800.000
G1 X47.800 Y35.830 E9.01207
G1 X49.000 Y35.661 E9.02865
G1 X121.000 Y35.661 E10.01390
G1 X122.810 Y36.056 E10.03925
G1 X124.290 Y37.170 E10.06460 F1800.000
G1 X125.170 Y38.800 E10.08994
G1 X125.339 Y40.000 E10.10652
G1 X125.339 Y80.000 E10.65389
G1 X124.944 Y81.810 E10.67923
G1 X123.830 Y83.290 E10.70458
G1 X122.200 Y84.170 E10.72993
G1 X121.000 Y84.339 E10.74651
G1 X49.000 Y84.339 E11.73176
G1 X47.190 Y83.944 E11.75711
G1 X45.710 Y82.830 E11.78245
G1 X44.830 Y81.200 E11.80780
G1 X44.661 Y80.000 E11.82438
G1 X44.661 Y40.000 E12.37174
G1 X45.056 Y38.190 E12.39709
G1 X46.010 Y36.924 E12.41879
G1 X46.420 Y37.160 F7800.000
G4 P29
G1 X46.607 Y36.930 E12.42284 F1800.000
G1 X49.000 Y36.107 E12.45747
G1 X121.000 Y36.107 E13.44272
G1 X122.708 Y36.502 E13.46671
G1 X124.070 Y37.607 E13.49071 F1800.000
G1 X124.893 Y40.000 E13.52534
G1 X124.893 Y80.000 E14.07270
G1 X124.498 Y81.708 E14.09669
G1 X123.393 Y83.070 E14.12068
G1 X121.000 Y83.893 E14.15532
G1 X49.000 Y83.893 E15.14057
G1 X47.292 Y83.498 E15.16456
G1 X45.930 Y82.393 E15.18855
G1 X45.107 Y80.000 E15.22318
G1 X45.107 Y40.000 E15.77055
G1 X45.502 Y38.292 E15.79454
G1 X46.373 Y37.218 E15.81345
G1 X46.771 Y37.470 F7800.000
G4 P29
G1 X47.040 Y37.165 E15.81902 F1800.000
G1 X49.000 Y36.554 E15.84712
G1 X121.000 Y36.554 E16.83237
G1 X122.601 Y36.948 E16.85492
G1 X123.835 Y38.040 E16.87748 F1800.000
G1 X124.446 Y40.000 E16.90557
G1 X124.446 Y80.000 E17.45293
G1 X124.052 Y81.601 E17.47549
G1 X122.960 Y82.835 E17.49804
G1 X121.000 Y83.446 E17.52614
G1 X49.000 Y83.446 E18.51139
G1 X47.399 Y83.052 E18.53394
G1 X46.165 Y81.960 E18.55650
G1 X45.554 Y80.000 E18.58459
G1 X45.554 Y40.000 E19.13195
G1 X45.948 Y38.399 E19.15451
G1 X46.721 Y37.526 E19.17047
G1 E17.17047 F1920.00000
G92 E0
G1 X95.771 Y74.143 F7800.000
G1 E2.00000 F1920.00000
G1 X66.974 Y74.143 E2.39406 F1800.000
G1 X65.695 Y74.084 E2.41157
G1 X64.401 Y73.903 E2.42945
G1 X63.129 Y73.604 E2.44733
G1 X61.891 Y73.189 E2.46521
G1 X60.696 Y72.661 E2.48308
G1 X59.554 Y72.025 E2.50096
G1 X58.476 Y71.287 E2.51884
G1 X57.471 Y70.452 E2.53671
G1 X56.548 Y69.529 E2.55459
G1 X55.713 Y68.524 E2.57247
G1 X54.975 Y67.446 E2.59035
G1 X54.339 Y66.304 E2.60822
G1 X53.811 Y65.109 E2.62610
G1 X53.396 Y63.871 E2.64398
G1 X53.097 Y62.599 E2.66185
G1 X52.927 Y61.382 E2.67866
G1 X52.856 Y60.003 E2.69756
G1 X52.916 Y58.695 E2.71548
G1 X53.097 Y57.401 E2.73336
G1 X53.396 Y56.129 E2.75124
G1 X53.811 Y54.891 E2.76911
G1 X54.339 Y53.696 E2.78699
G1 X54.975 Y52.554 E2.80487
G1 X55.713 Y51.476 E2.82275
G1 X56.550 Y50.469 E2.84067
G1 X57.531 Y49.498 E2.85957
G1 X58.476 Y48.713 E2.87637
G1 X59.554 Y47.975 E2.89425
G1 X60.696 Y47.339 E2.91213
G1 X61.891 Y46.811 E2.93001
G1 X63.129 Y46.396 E2.94788
G1 X64.401 Y46.097 E2.96576
G1 X65.695 Y45.916 E2.98364
G1 X66.974 Y45.857 E3.00115
G1 X103.026 Y45.857 E3.49450 F1800.000
G1 X104.305 Y45.916 E3.51202
G1 X105.599 Y46.097 E3.52989
G1 X106.871 Y46.396 E3.54777
G1 X108.109 Y46.811 E3.56565
G1 X109.304 Y47.339 E3.58353
G1 X110.446 Y47.975 E3.60140
G1 X111.524 Y48.713 E3.61928
G1 X112.529 Y49.548 E3.63716
G1 X113.452 Y50.471 E3.65503
G1 X114.287 Y51.476 E3.67291
G1 X115.025 Y52.554 E3.69079
G1 X115.661 Y53.696 E3.70867
G1 X116.157 Y54.819 E3.72547
G1 X116.603 Y56.126 E3.74437
G1 X116.903 Y57.401 E3.76229
G1 X117.084 Y58.695 E3.78017
G1 X117.144 Y60.000 E3.79805
G1 X117.084 Y61.305 E3.81593
G1 X116.903 Y62.599 E3.83380
G1 X116.604 Y63.871 E3.85168
G1 X116.189 Y65.109 E3.86956
G1 X115.661 Y66.304 E3.88743
G1 X115.063 Y67.378 E3.90424
G1 X114.289 Y68.521 E3.92314
G1 X113.452 Y69.529 E3.94106
G1 X112.529 Y70.452 E3.95894
G1 X111.524 Y71.287 E3.97682
G1 X110.446 Y72.025 E3.99469
G1 X109.304 Y72.661 E4.01257
G1 X108.109 Y73.189 E4.03045
G1 X106.871 Y73.604 E4.04833
G1 X105.599 Y73.903 E4.06620
G1 X104.305 Y74.084 E4.08408
G1 X103.026 Y74.143 E4.10160
G1 X95.846 Y74.143 E4.19986
G1 X95.771 Y73.696 F7800.000
G1 X66.984 Y73.696 E4.59378 F1800.000
G1 X65.736 Y73.639 E4.61087
G1 X64.483 Y73.464 E4.62818
G1 X63.252 Y73.174 E4.64549
G1 X62.052 Y72.772 E4.66281
G1 X60.895 Y72.261 E4.68012
G1 X59.789 Y71.646 E4.69743
G1 X58.746 Y70.931 E4.71474
G1 X57.772 Y70.122 E4.73205
G1 X56.878 Y69.228 E4.74937
G1 X56.069 Y68.254 E4.76668
G1 X55.354 Y67.211 E4.78399
G1 X54.739 Y66.105 E4.80130
G1 X54.228 Y64.948 E4.81862
G1 X53.826 Y63.748 E4.83593
G1 X53.536 Y62.517 E4.85324
G1 X53.372 Y61.340 E4.86950
G1 X53.303 Y60.002 E4.88784
G1 X53.361 Y58.736 E4.90518
G1 X53.536 Y57.483 E4.92249
G1 X53.826 Y56.252 E4.93980
G1 X54.228 Y55.052 E4.95711
G1 X54.739 Y53.895 E4.97443
G1 X55.354 Y52.789 E4.99174
G1 X56.069 Y51.746 E5.00905
G1 X56.879 Y50.771 E5.02639
G1 X57.832 Y49.829 E5.04472
G1 X58.746 Y49.069 E5.06098
G1 X59.789 Y48.354 E5.07830
G1 X60.895 Y47.739 E5.09561
G1 X62.052 Y47.228 E5.11292
G1 X63.252 Y46.826 E5.13023
G1 X64.483 Y46.536 E5.14755
G1 X65.736 Y46.361 E5.16486
G1 X66.984 Y46.304 E5.18195
G1 X103.016 Y46.304 E5.67502 F1800.000
G1 X104.264 Y46.361 E5.69211
G1 X105.517 Y46.536 E5.70942
G1 X106.748 Y46.826 E5.72673
G1 X107.948 Y47.228 E5.74405
G1 X109.105 Y47.739 E5.76136
G1 X110.211 Y48.354 E5.77867
G1 X111.254 Y49.069 E5.79598
G1 X112.228 Y49.878 E5.81330
G1 X113.122 Y50.772 E5.83061
G1 X113.931 Y51.746 E5.84792
G1 X114.646 Y52.789 E5.86523
G1 X115.261 Y53.895 E5.88255
G1 X115.741 Y54.982 E5.89881
G1 X116.174 Y56.250 E5.91714
G1 X116.464 Y57.483 E5.93448
G1 X116.639 Y58.736 E5.95179
G1 X116.697 Y60.000 E5.96910
G1 X116.639 Y61.264 E5.98642
G1 X116.464 Y62.517 E6.00373
G1 X116.174 Y63.748 E6.02104
G1 X115.772 Y64.948 E6.03835
G1 X115.261 Y66.105 E6.05567
G1 X114.683 Y67.143 E6.07193
G1 X113.932 Y68.253 E6.09026
G1 X113.122 Y69.228 E6.10760
G1 X112.228 Y70.122 E6.12491
G1 X111.254 Y70.931 E6.14222
G1 X110.211 Y71.646 E6.15954
G1 X109.105 Y72.261 E6.17685
G1 X107.948 Y72.772 E6.19416
G1 X106.748 Y73.174 E6.21147
G1 X105.517 Y73.464 E6.22879
G1 X104.264 Y73.639 E6.24610
G1 X103.016 Y73.696 E6.26319
G1 X95.846 Y73.696 E6.36131
G1 X95.771 Y73.250 F7800.000
G1 X66.994 Y73.250 E6.75509 F1800.000
G1 X65.777 Y73.194 E6.77176
G1 X64.565 Y73.025 E6.78851
G1 X63.374 Y72.744 E6.80525
G1 X62.213 Y72.356 E6.82200
G1 X61.094 Y71.861 E6.83875
G1 X60.025 Y71.266 E6.85550
G1 X59.015 Y70.574 E6.87224
G1 X58.073 Y69.792 E6.88899
G1 X57.208 Y68.927 E6.90574
G1 X56.426 Y67.985 E6.92249
G1 X55.734 Y66.975 E6.93924
G1 X55.139 Y65.906 E6.95598
G1 X54.644 Y64.787 E6.97273
G1 X54.256 Y63.626 E6.98948
G1 X53.975 Y62.435 E7.00623
G1 X53.817 Y61.298 E7.02194
G1 X53.750 Y60.001 E7.03971
G1 X53.806 Y58.777 E7.05646
G1 X53.975 Y57.565 E7.07321
G1 X54.256 Y56.374 E7.08996
G1 X54.644 Y55.213 E7.10671
G1 X55.139 Y54.094 E7.12346
G1 X55.734 Y53.025 E7.14020
G1 X56.426 Y52.015 E7.15695
G1 X57.208 Y51.073 E7.17371
G1 X58.132 Y50.160 E7.19148
G1 X59.015 Y49.426 E7.20719
G1 X60.025 Y48.734 E7.22394
G1 X61.094 Y48.139 E7.24069
G1 X62.213 Y47.644 E7.25743
G1 X63.374 Y47.256 E7.27418
G1 X64.565 Y46.975 E7.29093
G1 X65.777 Y46.806 E7.30768
G1 X66.994 Y46.750 E7.32435
G1 X103.006 Y46.750 E7.81713 F1800.000
G1 X104.223 Y46.806 E7.83380
G1 X105.435 Y46.975 E7.85054
G1 X106.626 Y47.256 E7.86729
G1 X107.787 Y47.644 E7.88404
G1 X108.906 Y48.139 E7.90079
G1 X109.975 Y48.734 E7.91754
G1 X110.985 Y49.426 E7.93428
G1 X111.927 Y50.208 E7.95103
G1 X112.792 Y51.073 E7.96778
G1 X113.574 Y52.015 E7.98453
G1 X114.266 Y53.025 E8.00127
G1 X114.861 Y54.094 E8.01802
G1 X115.325 Y55.144 E8.03373
G1 X115.744 Y56.373 E8.05150
G1 X116.025 Y57.565 E8.06826
G1 X116.194 Y58.777 E8.08501
G1 X116.250 Y60.000 E8.10176
G1 X116.194 Y61.223 E8.11850
G1 X116.025 Y62.435 E8.13525
G1 X115.744 Y63.626 E8.15200
G1 X115.356 Y64.787 E8.16875
G1 X114.861 Y65.906 E8.18549
G1 X114.302 Y66.909 E8.20121
G1 X113.574 Y67.985 E8.21898
G1 X112.792 Y68.927 E8.23573
G1 X111.927 Y69.792 E8.25248
G1 X110.985 Y70.574 E8.26923
G1 X109.975 Y71.266 E8.28598
G1 X108.906 Y71.861 E8.30272
G1 X107.787 Y72.356 E8.31947
G1 X106.626 Y72.744 E8.33622
G1 X105.435 Y73.025 E8.35297
G1 X104.223 Y73.194 E8.36972
G1 X103.006 Y73.250 E8.38638
G1 X95.846 Y73.250 E8.48437
G1 X95.521 Y73.683 F7800.000
G1 X119.857 Y78.857 F7800.000
G1 X50.143 Y78.857 E9.43834 F1800.000
G1 X50.143 Y41.143 E9.95443
G1 X119.857 Y41.143 E10.90841
G1 X119.857 Y78.782 E11.42347
G1 X120.304 Y79.304 F7800.000
G1 X49.696 Y79.304 E12.38966 F1800.000
G1 X49.696 Y40.696 E12.91797
G1 X120.304 Y40.696 E13.88416
G1 X120.304 Y79.229 E14.41144
G1 X120.750 Y79.750 F7800.000
G1 X49.250 Y79.750 E15.38985 F1800.000
G1 X49.250 Y40.250 E15.93036
G1 X120.750 Y40.250 E16.90877
G1 X120.750 Y79.675 E17.44827
G1 X120.317 Y79.500 F7800.000
G1 X119.593 Y56.223 F7800.000
G1 X114.212 Y50.843 E17.55288 F1800.000
G1 X115.528 Y52.793 F7800.000
G1 X119.593 Y56.858 E17.63191 F1800.000
G1 X119.593 Y57.492 E17.64063
G1 X116.163 Y54.062 E17.70731
G1 X116.572 Y55.106 F7800.000
G1 X119.593 Y58.126 E17.76604 F1800.000
G1 X119.593 Y58.760 E17.77476
G1 X116.882 Y56.050 E17.82746
G1 X117.077 Y56.879 E17.83917
G1 X119.593 Y59.394 E17.88808
G1 X119.593 Y60.029 E17.89680
G1 X117.220 Y57.656 E17.94293
G1 X117.323 Y58.393 E17.95316
G1 X119.593 Y60.663 E17.99729
G1 X119.593 Y61.297 E18.00601
G1 X117.371 Y59.075 E18.04922
G1 X117.401 Y59.740 E18.05837
G1 X119.593 Y61.931 E18.10097
G1 X119.593 Y62.565 E18.10969
G1 X117.388 Y60.361 E18.15256
G1 X117.360 Y60.967 E18.16090
G1 X119.593 Y63.200 E18.20431
G1 X119.593 Y63.834 E18.21303
G1 X117.305 Y61.546 E18.25751
G1 X117.227 Y62.103 E18.26524
G1 X119.593 Y64.468 E18.31123
G1 X119.593 Y65.102 E18.31995
G1 X117.143 Y62.652 E18.36758
G1 X117.022 Y63.166 E18.37483
G1 X119.593 Y65.736 E18.42481
G1 X119.593 Y66.371 E18.43353
G1 X116.901 Y63.679 E18.48586
G1 X116.757 Y64.169 E18.49288
G1 X119.593 Y67.005 E18.54802
G1 X119.593 Y67.639 E18.55674
G1 X116.597 Y64.644 E18.61497
G1 X116.438 Y65.119 E18.62186
G1 X119.593 Y68.273 E18.68319
G1 X119.593 Y68.907 E18.69191
G1 X116.246 Y65.561 E18.75698
G1 X116.052 Y66.001 E18.76359
G1 X119.593 Y69.542 E18.83244
G1 X119.593 Y70.176 E18.84116
G1 X115.852 Y66.435 E18.91389
G1 X115.625 Y66.843 E18.92030
G1 X119.593 Y70.810 E18.99744
G1 X119.593 Y71.444 E19.00616
G1 X115.398 Y67.250 E19.08770
G1 X115.158 Y67.644 E19.09405
G1 X119.593 Y72.078 E19.18027
G1 X119.593 Y72.713 E19.18899
G1 X114.902 Y68.022 E19.28019
G1 X114.646 Y68.400 E19.28646
G1 X119.593 Y73.347 E19.38264
G1 X119.593 Y73.981 E19.39136
G1 X114.379 Y68.767 E19.49273
G1 X114.091 Y69.114 E19.49893
G1 X119.593 Y74.615 E19.60590
G1 X119.593 Y75.249 E19.61462
G1 X113.803 Y69.460 E19.72718
G1 X113.504 Y69.796 E19.73335
G1 X119.593 Y75.884 E19.85173
G1 X119.593 Y76.518 E19.86045
G1 X113.187 Y70.113 E19.98498
G1 X112.870 Y70.430 E19.99115
G1 X119.593 Y77.152 E20.12185
G1 X119.593 Y77.786 E20.13057
G1 X112.542 Y70.735 E20.26766
G1 X112.195 Y71.023 E20.27386
G1 X119.593 Y78.421 E20.41768
G1 X119.131 Y78.593 E20.42446
G1 X111.849 Y71.311 E20.56604
G1 X111.490 Y71.586 E20.57226
G1 X118.496 Y78.593 E20.70849
G1 X117.862 Y78.593 E20.71721
G1 X111.114 Y71.844 E20.84842
G1 X110.737 Y72.102 E20.85469
G1 X117.228 Y78.593 E20.98089
G1 X116.594 Y78.593 E20.98961
G1 X110.346 Y72.345 E21.11109
G1 X109.939 Y72.572 E21.11750
G1 X115.959 Y78.593 E21.23456
G1 X115.325 Y78.593 E21.24328
G1 X109.531 Y72.799 E21.35593
G1 X109.104 Y73.006 E21.36246
G1 X114.691 Y78.593 E21.47108
G1 X114.057 Y78.593 E21.47980
G1 X108.664 Y73.200 E21.58465
G1 X108.224 Y73.394 E21.59126
G1 X113.423 Y78.593 E21.69233
G1 X112.788 Y78.593 E21.70105
G1 X107.756 Y73.560 E21.79890
G1 X107.281 Y73.719 E21.80579
G1 X112.154 Y78.593 E21.90054
G1 X111.520 Y78.593 E21.90926
G1 X106.800 Y73.873 E22.00103
G1 X106.287 Y73.994 E22.00828
G1 X110.886 Y78.593 E22.09771
G1 X110.252 Y78.593 E22.10642
G1 X105.773 Y74.114 E22.19350
G1 X105.234 Y74.209 E22.20103
G1 X109.617 Y78.593 E22.28626
G1 X108.983 Y78.593 E22.29498
G1 X104.677 Y74.287 E22.37870
G1 X104.110 Y74.353 E22.38656
G1 X108.349 Y78.593 E22.46898
G1 X107.715 Y78.593 E22.47770
G1 X103.504 Y74.381 E22.55958
G1 X102.895 Y74.407 E22.56795
G1 X107.081 Y78.593 E22.64932
G1 X106.446 Y78.593 E22.65804
G1 X102.261 Y74.407 E22.73942
G1 X101.627 Y74.407 E22.74814
G1 X105.812 Y78.593 E22.82951
G1 X105.178 Y78.593 E22.83823
G1 X100.993 Y74.407 E22.91960
G1 X100.359 Y74.407 E22.92832
G1 X104.544 Y78.593 E23.00970
G1 X103.910 Y78.593 E23.01842
G1 X99.724 Y74.407 E23.09979
G1 X99.090 Y74.407 E23.10851
G1 X103.275 Y78.593 E23.18988
G1 X102.641 Y78.593 E23.19860
G1 X98.456 Y74.407 E23.27998
G1 X97.822 Y74.407 E23.28870
G1 X102.007 Y78.593 E23.37007
G1 X101.373 Y78.593 E23.37879
G1 X97.188 Y74.407 E23.46016
G1 X96.553 Y74.407 E23.46888
G1 X100.739 Y78.593 E23.55026
G1 X100.104 Y78.593 E23.55898
G1 X95.919 Y74.407 E23.64035
G1 X95.285 Y74.407 E23.64907
G1 X99.470 Y78.593 E23.73044
G1 X98.836 Y78.593 E23.73916
G1 X94.651 Y74.407 E23.82054
G1 X94.017 Y74.407 E23.82926
G1 X98.202 Y78.593 E23.91063
G1 X97.568 Y78.593 E23.91935
G1 X93.382 Y74.407 E24.00072
G1 X92.748 Y74.407 E24.00944
G1 X96.933 Y78.593 E24.09082
G1 X96.299 Y78.593 E24.09954
G1 X92.114 Y74.407 E24.18091
G1 X91.480 Y74.407 E24.18963
G1 X95.665 Y78.593 E24.27100
G1 X95.031 Y78.593 E24.27972
G1 X90.846 Y74.407 E24.36110
G1 X90.211 Y74.407 E24.36982
G1 X94.397 Y78.593 E24.45119
G1 X93.762 Y78.593 E24.45991
G1 X89.577 Y74.407 E24.54128
G1 X88.943 Y74.407 E24.55000
G1 X93.128 Y78.593 E24.63138
G1 X92.494 Y78.593 E24.64009
G1 X88.309 Y74.407 E24.72147
G1 X87.675 Y74.407 E24.73019
G1 X91.860 Y78.593 E24.81156
G1 X91.226 Y78.593 E24.82028
G1 X87.040 Y74.407 E24.90165
G1 X86.406 Y74.407 E24.91037
G1 X90.591 Y78.593 E24.99175
G1 X89.957 Y78.593 E25.00047
G1 X85.772 Y74.407 E25.08184
G1 X85.138 Y74.407 E25.09056
G1 X89.323 Y78.593 E25.17193
G1 X88.689 Y78.593 E25.18065
G1 X84.504 Y74.407 E25.26203
G1 X83.869 Y74.407 E25.27075
G1 X88.055 Y78.593 E25.35212
G1 X87.420 Y78.593 E25.36084
G1 X83.235 Y74.407 E25.44221
G1 X82.601 Y74.407 E25.45093
G1 X86.786 Y78.593 E25.53231
G1 X86.152 Y78.593 E25.54103
G1 X81.967 Y74.407 E25.62240
G1 X81.333 Y74.407 E25.63112
G1 X85.518 Y78.593 E25.71249
G1 X84.884 Y78.593 E25.72121
G1 X80.698 Y74.407 E25.80259
G1 X80.064 Y74.407 E25.81131
G1 X84.249 Y78.593 E25.89268
G1 X83.615 Y78.593 E25.90140
G1 X79.430 Y74.407 E25.98277
