; generated by Slic3r 1.2.9 on 2016-07-20 at 22:59:53

; external perimeters extrusion width = 0.50mm
; perimeters extrusion width = 0.50mm
; infill extrusion width = 0.50mm
; solid infill extrusion width = 0.50mm
; top infill extrusion width = 0.50mm

M107
M190 S60 ; set bed temperature
M104 S210 ; set temperature
G28 ; home all axes
M109 S210 ; wait for temperature to be reached
G21 ; set units to millimeters
G90 ; use absolute coordinates
M82 ; use absolute distances for extrusion
G92 E0
G1 Z0.350 F7800.000
G1 E-2.00000 F1920.00000
G92 E0
G1 X54.666 Y38.843 F7800.000
G1 E2.00000 F1920.00000
M204 S3000
G1 X55.801 Y37.301 E2.01455 F1800.000
G1 X57.179 Y35.633 E2.03098
G1 X58.663 Y34.039 E2.04753
G1 X59.969 Y32.773 E2.06135
G1 X61.357 Y31.561 E2.07535
G1 X63.038 Y30.243 E2.09158
G1 X64.708 Y29.081 E2.10703
G1 X66.439 Y28.012 E2.12249
G1 X68.226 Y27.039 E2.13794
G1 X70.063 Y26.167 E2.15340
G1 X71.946 Y25.397 E2.16885
G1 X73.869 Y24.731 E2.18431
G1 X76.123 Y24.099 E2.20210
G1 X77.809 Y23.723 E2.21522
G1 X79.729 Y23.395 E2.23002
G1 X81.752 Y23.161 E2.24549
G1 X83.867 Y23.034 E2.26159
G1 X85.901 Y23.028 E2.27704
G1 X88.248 Y23.161 E2.29490 F1800.000
G1 X90.185 Y23.382 E2.30971
G1 X92.191 Y23.723 E2.32517
G1 X94.175 Y24.173 E2.34062
G1 X95.839 Y24.642 E2.35376
G1 X98.054 Y25.397 E2.37154
G1 X99.937 Y26.167 E2.38699
G1 X101.505 Y26.905 E2.40016
G1 X103.561 Y28.012 E2.41790
G1 X105.292 Y29.081 E2.43336
G1 X106.722 Y30.070 E2.44656
G1 X108.565 Y31.496 E2.46427
G1 X110.031 Y32.773 E2.47904
G1 X111.341 Y34.043 E2.49290
G1 X112.912 Y35.735 E2.51044
G1 X114.208 Y37.313 E2.52596
G1 X115.338 Y38.848 E2.54044
G1 X116.531 Y40.670 E2.55699
G1 X117.550 Y42.440 E2.57250
G1 X118.407 Y44.133 E2.58692
G1 X119.287 Y46.135 E2.60353
G1 X120.000 Y48.049 E2.61904
G1 X120.565 Y49.852 E2.63340
G1 X121.104 Y51.979 E2.65007
G1 X121.492 Y53.984 E2.66559
G1 X121.750 Y55.848 E2.67988
G1 X121.933 Y58.043 E2.69662
G1 X121.984 Y60.082 E2.71212
G1 X121.933 Y61.955 E2.72635
G1 X121.752 Y64.145 E2.74305
G1 X121.468 Y66.161 E2.75851
G1 X121.108 Y68.005 E2.77279
G1 X120.570 Y70.130 E2.78944
G1 X119.959 Y72.072 E2.80490
G1 X119.299 Y73.837 E2.81922
G1 X118.421 Y75.840 E2.83583
G1 X117.499 Y77.655 E2.85130
G1 X116.555 Y79.291 E2.86565
G1 X115.363 Y81.119 E2.88223
G1 X114.155 Y82.757 E2.89769
G1 X112.951 Y84.220 E2.91209
G1 X111.479 Y85.823 E2.92862
G1 X110.018 Y87.240 E2.94409
G1 X108.586 Y88.489 E2.95852
G1 X106.874 Y89.824 E2.97502
G1 X105.200 Y90.982 E2.99048
G1 X103.577 Y91.981 E3.00496
G1 X101.674 Y93.014 E3.02141
G1 X99.832 Y93.882 E3.03688
G1 X98.062 Y94.602 E3.05139
G1 X96.020 Y95.306 E3.06781
G1 X94.061 Y95.859 E3.08327
G1 X92.191 Y96.279 E3.09783
G1 X90.066 Y96.637 E3.11420
G1 X88.043 Y96.861 E3.12967
G1 X86.125 Y96.968 E3.14426
G1 X83.975 Y96.972 E3.16060
G1 X81.942 Y96.859 E3.17606
G1 X80.027 Y96.649 E3.19070
G1 X77.911 Y96.300 E3.20699
G1 X75.793 Y95.820 E3.22349
G1 X73.966 Y95.302 E3.23792
G1 X72.041 Y94.641 E3.25338
G1 X70.025 Y93.817 E3.26992
G1 X68.313 Y93.008 E3.28431
G1 X66.523 Y92.040 E3.29978
G1 X64.666 Y90.893 E3.31636
G1 X63.114 Y89.815 E3.33071
G1 X61.507 Y88.566 E3.34617
G1 X59.860 Y87.126 E3.36279
G1 X58.511 Y85.812 E3.37710
G1 X57.131 Y84.316 E3.39257
G1 X55.835 Y82.745 E3.40803
G1 X54.676 Y81.174 E3.42287
G1 X53.473 Y79.338 E3.43955
G1 X52.457 Y77.574 E3.45501
G1 X51.606 Y75.896 E3.46930
G1 X50.723 Y73.892 E3.48594
G1 X50.010 Y71.985 E3.50141
G1 X49.446 Y70.185 E3.51574
G1 X48.906 Y68.068 E3.53234
G1 X48.516 Y66.070 E3.54780
G1 X48.255 Y64.197 E3.56217
G1 X48.070 Y62.025 E3.57873
G1 X48.015 Y59.990 E3.59420
G1 X48.066 Y58.094 E3.60861
G1 X48.240 Y55.927 E3.62512
G1 X48.520 Y53.911 E3.64059
G1 X48.883 Y52.043 E3.65504
G1 X49.410 Y49.939 E3.67152
G1 X50.055 Y47.891 E3.68783
G1 X50.731 Y46.090 E3.70245
G1 X51.548 Y44.226 E3.71791
G1 X52.467 Y42.409 E3.73338
G1 X53.421 Y40.752 E3.74791
G1 X54.623 Y38.904 E3.76465
G1 X54.864 Y38.989 F7800.000
G4 P31
G1 X55.997 Y37.449 E3.77918 F1800.000
G1 X57.360 Y35.800 E3.79543
G1 X58.835 Y34.215 E3.81188
G1 X60.137 Y32.954 E3.82565
G1 X61.519 Y31.747 E3.83959
G1 X63.183 Y30.442 E3.85565
G1 X64.841 Y29.287 E3.87101
G1 X66.561 Y28.225 E3.88636
G1 X68.336 Y27.260 E3.90171
G1 X70.162 Y26.393 E3.91707
G1 X72.032 Y25.628 E3.93242
G1 X73.942 Y24.967 E3.94777
G1 X76.177 Y24.339 E3.96541
G1 X77.856 Y23.964 E3.97848
G1 X79.770 Y23.638 E3.99323
G1 X81.779 Y23.405 E4.00860
G1 X83.874 Y23.281 E4.02454
G1 X85.894 Y23.274 E4.03989
G1 X88.221 Y23.405 E4.05760 F1800.000
G1 X90.152 Y23.626 E4.07236
G1 X92.144 Y23.964 E4.08771
G1 X94.115 Y24.412 E4.10307
G1 X95.772 Y24.879 E4.11614
G1 X97.968 Y25.628 E4.13377
G1 X99.838 Y26.393 E4.14913
G1 X101.400 Y27.128 E4.16224
G1 X103.439 Y28.225 E4.17983
G1 X105.159 Y29.287 E4.19519
G1 X106.581 Y30.272 E4.20833
G1 X108.409 Y31.687 E4.22589
G1 X109.863 Y32.954 E4.24054
G1 X111.169 Y34.219 E4.25436
G1 X112.723 Y35.894 E4.27171
G1 X114.011 Y37.461 E4.28712
G1 X115.139 Y38.994 E4.30158
G1 X116.319 Y40.795 E4.31794
G1 X117.331 Y42.553 E4.33335
G1 X118.188 Y44.245 E4.34776
G1 X119.057 Y46.223 E4.36417
G1 X119.765 Y48.123 E4.37958
G1 X120.330 Y49.926 E4.39393
G1 X120.863 Y52.027 E4.41040
G1 X121.248 Y54.018 E4.42581
G1 X121.506 Y55.882 E4.44010
G1 X121.686 Y58.050 E4.45663
G1 X121.738 Y60.076 E4.47203
G1 X121.686 Y61.949 E4.48626
G1 X121.507 Y64.112 E4.50275
G1 X121.226 Y66.114 E4.51811
G1 X120.866 Y67.958 E4.53239
G1 X120.335 Y70.058 E4.54884
G1 X119.728 Y71.986 E4.56420
G1 X119.068 Y73.750 E4.57851
G1 X118.201 Y75.730 E4.59493
G1 X117.285 Y77.533 E4.61029
G1 X116.342 Y79.168 E4.62464
G1 X115.164 Y80.974 E4.64102
G1 X113.964 Y82.602 E4.65638
G1 X112.761 Y84.064 E4.67076
G1 X111.305 Y85.647 E4.68710
G1 X109.854 Y87.056 E4.70247
G1 X108.424 Y88.303 E4.71689
G1 X106.731 Y89.623 E4.73319
G1 X105.069 Y90.774 E4.74856
G1 X103.448 Y91.771 E4.76301
G1 X101.566 Y92.793 E4.77928
G1 X99.736 Y93.655 E4.79465
G1 X97.970 Y94.373 E4.80914
G1 X95.950 Y95.070 E4.82537
G1 X94.004 Y95.619 E4.84073
G1 X92.138 Y96.039 E4.85526
G1 X90.035 Y96.393 E4.87146
G1 X88.025 Y96.615 E4.88682
G1 X86.111 Y96.722 E4.90139
G1 X83.984 Y96.726 E4.91755
G1 X81.839 Y96.602 E4.93387
G1 X79.955 Y96.392 E4.94827
G1 X77.961 Y96.059 E4.96364
G1 X75.860 Y95.583 E4.98000
G1 X74.041 Y95.067 E4.99436
G1 X72.128 Y94.411 E5.00972
G1 X70.131 Y93.595 E5.02612
G1 X68.425 Y92.788 E5.04045
G1 X66.647 Y91.827 E5.05581
G1 X64.806 Y90.690 E5.07225
G1 X63.261 Y89.618 E5.08654
G1 X61.664 Y88.377 E5.10190
G1 X60.032 Y86.950 E5.11837
G1 X58.688 Y85.641 E5.13263
G1 X57.317 Y84.154 E5.14799
G1 X56.030 Y82.594 E5.16335
G1 X54.875 Y81.028 E5.17814
G1 X53.683 Y79.209 E5.19466
G1 X52.673 Y77.457 E5.21003
G1 X51.826 Y75.785 E5.22426
G1 X50.951 Y73.799 E5.24075
G1 X50.243 Y71.905 E5.25612
G1 X49.681 Y70.112 E5.27039
G1 X49.146 Y68.014 E5.28684
G1 X48.759 Y66.029 E5.30220
G1 X48.499 Y64.163 E5.31651
G1 X48.316 Y62.010 E5.33293
G1 X48.261 Y59.989 E5.34829
G1 X48.312 Y58.101 E5.36264
G1 X48.485 Y55.952 E5.37902
G1 X48.763 Y53.949 E5.39438
G1 X49.124 Y52.091 E5.40876
G1 X49.647 Y50.004 E5.42511
G1 X50.285 Y47.978 E5.44125
G1 X50.960 Y46.180 E5.45583
G1 X51.772 Y44.328 E5.47119
G1 X52.685 Y42.524 E5.48656
G1 X53.634 Y40.875 E5.50101
G1 X54.821 Y39.050 E5.51755
G1 X55.063 Y39.135 F7800.000
G4 P31
G1 X56.194 Y37.598 E5.53205 F1800.000
G1 X57.541 Y35.967 E5.54812
G1 X59.007 Y34.392 E5.56447
G1 X60.304 Y33.134 E5.57819
G1 X61.681 Y31.933 E5.59208
G1 X63.328 Y30.642 E5.60797
G1 X64.975 Y29.494 E5.62322
G1 X66.683 Y28.439 E5.63848
G1 X68.446 Y27.480 E5.65373
G1 X70.260 Y26.619 E5.66898
G1 X72.118 Y25.859 E5.68423
G1 X74.015 Y25.202 E5.69948
G1 X76.231 Y24.580 E5.71697
G1 X77.903 Y24.206 E5.72998
G1 X79.811 Y23.881 E5.74469
G1 X81.806 Y23.650 E5.75995
G1 X83.880 Y23.527 E5.77573
G1 X85.888 Y23.520 E5.79099
G1 X88.194 Y23.650 E5.80854 F1800.000
G1 X90.118 Y23.870 E5.82325
G1 X92.097 Y24.206 E5.83850
G1 X94.055 Y24.651 E5.85375
G1 X95.705 Y25.116 E5.86677
G1 X97.882 Y25.859 E5.88425
G1 X99.740 Y26.619 E5.89950
G1 X101.295 Y27.351 E5.91256
G1 X103.317 Y28.439 E5.93001
G1 X105.025 Y29.494 E5.94526
G1 X106.441 Y30.474 E5.95834
G1 X108.254 Y31.878 E5.97576
G1 X109.696 Y33.134 E5.99029
G1 X110.993 Y34.392 E6.00401
G1 X112.535 Y36.053 E6.02123
G1 X113.814 Y37.609 E6.03654
G1 X114.941 Y39.140 E6.05098
G1 X116.107 Y40.920 E6.06715
G1 X117.112 Y42.666 E6.08245
G1 X117.968 Y44.356 E6.09684
G1 X118.827 Y46.310 E6.11306
G1 X119.531 Y48.198 E6.12837
G1 X120.094 Y49.999 E6.14270
G1 X120.621 Y52.075 E6.15898
G1 X121.004 Y54.053 E6.17428
G1 X121.262 Y55.916 E6.18857
G1 X121.440 Y58.057 E6.20489
G1 X121.492 Y60.069 E6.22018
G1 X121.440 Y61.942 E6.23442
G1 X121.263 Y64.078 E6.25070
G1 X120.984 Y66.067 E6.26596
G1 X120.624 Y67.911 E6.28023
G1 X120.100 Y69.985 E6.29649
G1 X119.497 Y71.901 E6.31175
G1 X118.837 Y73.664 E6.32605
G1 X117.981 Y75.620 E6.34227
G1 X117.071 Y77.411 E6.35753
G1 X116.128 Y79.045 E6.37186
G1 X114.964 Y80.830 E6.38805
G1 X113.773 Y82.447 E6.40331
G1 X112.571 Y83.907 E6.41768
G1 X111.132 Y85.472 E6.43383
G1 X109.691 Y86.872 E6.44909
G1 X108.262 Y88.117 E6.46349
G1 X106.589 Y89.422 E6.47962
G1 X104.937 Y90.565 E6.49488
G1 X103.319 Y91.561 E6.50931
G1 X101.458 Y92.571 E6.52540
G1 X99.641 Y93.427 E6.54066
G1 X97.877 Y94.145 E6.55513
G1 X95.879 Y94.834 E6.57118
G1 X93.946 Y95.380 E6.58644
G1 X92.084 Y95.798 E6.60094
G1 X90.004 Y96.149 E6.61696
G1 X88.008 Y96.369 E6.63222
G1 X86.098 Y96.476 E6.64676
G1 X83.993 Y96.479 E6.66274
G1 X81.866 Y96.357 E6.67893
G1 X79.991 Y96.148 E6.69326
G1 X78.010 Y95.818 E6.70853
G1 X75.927 Y95.346 E6.72475
G1 X74.116 Y94.833 E6.73905
G1 X72.216 Y94.181 E6.75431
G1 X70.236 Y93.372 E6.77056
G1 X68.538 Y92.569 E6.78483
G1 X66.771 Y91.614 E6.80009
G1 X64.946 Y90.488 E6.81638
G1 X63.408 Y89.420 E6.83061
G1 X61.822 Y88.187 E6.84587
G1 X60.204 Y86.773 E6.86220
G1 X58.865 Y85.469 E6.87639
G1 X57.503 Y83.993 E6.89166
G1 X56.225 Y82.443 E6.90692
G1 X55.073 Y80.882 E6.92165
G1 X53.892 Y79.080 E6.93802
G1 X52.890 Y77.339 E6.95328
G1 X52.046 Y75.674 E6.96747
G1 X51.179 Y73.706 E6.98381
G1 X50.476 Y71.824 E6.99907
G1 X49.916 Y70.038 E7.01328
G1 X49.386 Y67.959 E7.02959
G1 X49.002 Y65.987 E7.04485
G1 X48.743 Y64.129 E7.05910
G1 X48.562 Y61.995 E7.07537
G1 X48.508 Y59.987 E7.09063
G1 X48.558 Y58.108 E7.10492
G1 X48.730 Y55.977 E7.12115
G1 X49.006 Y53.988 E7.13641
G1 X49.366 Y52.138 E7.15073
G1 X49.885 Y50.069 E7.16694
G1 X50.516 Y48.064 E7.18291
G1 X51.189 Y46.271 E7.19746
G1 X51.996 Y44.431 E7.21272
G1 X52.903 Y42.639 E7.22798
G1 X53.848 Y40.998 E7.24236
G1 X55.020 Y39.196 E7.25870
G1 X55.261 Y39.280 F7800.000
G4 P31
G1 X56.390 Y37.747 E7.27316 F1800.000
G1 X57.658 Y36.206 E7.28832
G1 X59.097 Y34.648 E7.30444
G1 X60.606 Y33.195 E7.32035
G1 X61.901 Y32.069 E7.33339
G1 X63.412 Y30.887 E7.34796
G1 X65.047 Y29.743 E7.36312
G1 X66.805 Y28.653 E7.37883
G1 X68.556 Y27.700 E7.39398
G1 X70.358 Y26.845 E7.40913
G1 X72.203 Y26.090 E7.42428
G1 X74.088 Y25.437 E7.43943
G1 X76.285 Y24.820 E7.45677
G1 X77.949 Y24.448 E7.46973
G1 X79.851 Y24.124 E7.48438
G1 X81.833 Y23.895 E7.49954
G1 X83.887 Y23.773 E7.51517
G1 X85.881 Y23.767 E7.53032
G1 X88.167 Y23.895 E7.54772 F1800.000
G1 X90.085 Y24.114 E7.56238
G1 X92.051 Y24.448 E7.57753
G1 X93.995 Y24.890 E7.59268
G1 X95.638 Y25.353 E7.60565
G1 X97.797 Y26.090 E7.62298
G1 X99.642 Y26.845 E7.63813
G1 X101.189 Y27.574 E7.65112
G1 X103.195 Y28.653 E7.66843
G1 X104.891 Y29.701 E7.68357
G1 X106.300 Y30.677 E7.69659
G1 X108.099 Y32.069 E7.71387
G1 X109.528 Y33.315 E7.72828
G1 X110.821 Y34.568 E7.74196
G1 X112.346 Y36.211 E7.75899
G1 X113.617 Y37.757 E7.77419
G1 X114.742 Y39.286 E7.78861
G1 X115.894 Y41.045 E7.80459
G1 X116.893 Y42.779 E7.81979
G1 X117.748 Y44.467 E7.83417
G1 X118.597 Y46.398 E7.85019
G1 X119.296 Y48.273 E7.86539
G1 X119.859 Y50.073 E7.87972
G1 X120.379 Y52.123 E7.89579
G1 X120.760 Y54.087 E7.91099
G1 X121.018 Y55.950 E7.92528
G1 X121.194 Y58.064 E7.94139
G1 X121.246 Y60.062 E7.95658
G1 X121.194 Y61.935 E7.97081
G1 X121.019 Y64.045 E7.98690
G1 X120.742 Y66.021 E8.00206
G1 X120.382 Y67.863 E8.01632
G1 X119.864 Y69.912 E8.03237
G1 X119.266 Y71.816 E8.04753
G1 X118.607 Y73.578 E8.06183
G1 X117.760 Y75.510 E8.07785
G1 X116.857 Y77.289 E8.09301
G1 X115.915 Y78.922 E8.10733
G1 X114.765 Y80.685 E8.12333
G1 X113.581 Y82.291 E8.13849
G1 X112.381 Y83.750 E8.15284
G1 X110.959 Y85.297 E8.16880
G1 X109.527 Y86.687 E8.18396
G1 X108.100 Y87.932 E8.19835
G1 X106.446 Y89.221 E8.21428
G1 X104.806 Y90.357 E8.22944
G1 X103.190 Y91.351 E8.24385
G1 X101.350 Y92.350 E8.25976
G1 X99.545 Y93.200 E8.27492
G1 X97.784 Y93.917 E8.28936
G1 X95.809 Y94.598 E8.30523
G1 X93.889 Y95.140 E8.32039
G1 X92.030 Y95.558 E8.33487
G1 X89.974 Y95.904 E8.35071
G1 X87.990 Y96.123 E8.36587
G1 X86.084 Y96.230 E8.38037
G1 X84.003 Y96.233 E8.39619
G1 X81.893 Y96.112 E8.41224
G1 X80.027 Y95.904 E8.42650
G1 X78.059 Y95.576 E8.44166
G1 X75.994 Y95.109 E8.45774
G1 X74.192 Y94.598 E8.47198
G1 X72.304 Y93.951 E8.48714
G1 X70.341 Y93.149 E8.50325
G1 X68.650 Y92.350 E8.51746
G1 X66.895 Y91.401 E8.53261
G1 X65.087 Y90.286 E8.54876
G1 X63.554 Y89.222 E8.56293
G1 X61.979 Y87.997 E8.57809
G1 X60.375 Y86.597 E8.59426
G1 X59.042 Y85.298 E8.60841
G1 X57.689 Y83.831 E8.62357
G1 X56.419 Y82.292 E8.63872
G1 X55.272 Y80.736 E8.65341
G1 X54.102 Y78.951 E8.66963
G1 X53.106 Y77.222 E8.68479
G1 X52.266 Y75.562 E8.69892
G1 X51.407 Y73.612 E8.71511
G1 X50.709 Y71.743 E8.73026
G1 X50.151 Y69.965 E8.74442
G1 X49.626 Y67.904 E8.76058
G1 X49.245 Y65.945 E8.77574
G1 X48.987 Y64.095 E8.78993
G1 X48.808 Y61.980 E8.80606
G1 X48.754 Y59.986 E8.82122
G1 X48.804 Y58.114 E8.83544
G1 X48.975 Y56.003 E8.85153
G1 X49.250 Y54.026 E8.86669
G1 X49.608 Y52.185 E8.88094
G1 X50.123 Y50.134 E8.89701
G1 X50.719 Y48.230 E8.91217
G1 X51.376 Y46.469 E8.92645
G1 X52.220 Y44.534 E8.94249
G1 X53.121 Y42.753 E8.95764
G1 X54.061 Y41.121 E8.97196
G1 X55.218 Y39.342 E8.98808
G1 E6.98808 F1920.00000
G92 E0
G1 X73.035 Y73.442 F7800.000
G1 E2.00000 F1920.00000
G1 X73.106 Y74.001 E2.00428 F1800.000
G1 X73.035 Y74.560 E2.00856
G1 X72.835 Y75.065 E2.01269
G1 X72.499 Y75.538 E2.01709
G1 X72.062 Y75.899 E2.02140
G1 X71.552 Y76.139 E2.02568
G1 X70.999 Y76.244 E2.02996
G1 X70.437 Y76.209 E2.03424
G1 X69.901 Y76.035 E2.03852
G1 X69.425 Y75.733 E2.04280
G1 X69.039 Y75.322 E2.04708
G1 X68.778 Y74.846 E2.05121
G1 X68.628 Y74.286 E2.05562
G1 X68.628 Y73.719 E2.05992
G1 X68.763 Y73.193 E2.06405
G1 X69.037 Y72.682 E2.06845
G1 X69.425 Y72.269 E2.07276
G1 X69.904 Y71.965 E2.07707
G1 X70.457 Y71.792 E2.08147
G1 X70.999 Y71.758 E2.08560 F1800.000
G1 X71.552 Y71.863 E2.08988
G1 X72.062 Y72.103 E2.09416
G1 X72.496 Y72.462 E2.09844
G1 X72.828 Y72.918 E2.10272
G1 X73.007 Y73.372 E2.10643
G1 X72.795 Y73.504 F7800.000
G4 P31
G1 X72.857 Y74.001 E2.11024 F1800.000
G4 P16
G1 X72.795 Y74.498 E2.11405
G1 X72.617 Y74.947 E2.11771
G1 X72.317 Y75.368 E2.12164
G1 X71.929 Y75.689 E2.12547
G1 X71.476 Y75.903 E2.12928
G1 X70.983 Y75.996 E2.13308
G1 X70.483 Y75.965 E2.13689
G1 X70.007 Y75.810 E2.14070
G1 X69.583 Y75.542 E2.14451
G1 X69.240 Y75.176 E2.14831
G1 X69.008 Y74.753 E2.15198
G1 X68.874 Y74.254 E2.15591
G1 X68.874 Y73.750 E2.15973
G1 X68.994 Y73.283 E2.16340
G1 X69.239 Y72.827 E2.16733
G1 X69.583 Y72.460 E2.17115
G1 X70.008 Y72.191 E2.17498
G1 X70.502 Y72.036 E2.17891
G1 X70.983 Y72.005 E2.18257 F1800.000
G1 X71.476 Y72.099 E2.18638
G1 X71.929 Y72.313 E2.19019
G1 X72.315 Y72.632 E2.19400
G1 X72.610 Y73.038 E2.19780
G1 X72.767 Y73.434 E2.20104
G1 X72.554 Y73.565 F7800.000
G4 P31
G1 X72.609 Y74.001 E2.20438 F1800.000
G4 P18
G1 X72.554 Y74.436 E2.20771
G1 X72.399 Y74.828 E2.21091
G1 X72.135 Y75.199 E2.21437
G1 X71.796 Y75.480 E2.21771
G1 X71.399 Y75.666 E2.22105
G1 X70.968 Y75.749 E2.22438
G1 X70.530 Y75.721 E2.22772
G1 X70.112 Y75.585 E2.23105
G1 X69.742 Y75.350 E2.23439
G1 X69.441 Y75.030 E2.23772
G1 X69.238 Y74.661 E2.24092
G1 X69.120 Y74.221 E2.24438
G1 X69.120 Y73.781 E2.24772
G1 X69.225 Y73.373 E2.25093
G1 X69.441 Y72.972 E2.25438
G1 X69.742 Y72.652 E2.25772
G1 X70.113 Y72.416 E2.26107
G1 X70.547 Y72.280 E2.26452
G1 X70.968 Y72.253 E2.26773 F1800.000
G1 X71.399 Y72.335 E2.27106
G1 X71.796 Y72.522 E2.27440
