; generated by PrusaSlicer 2.0.0+linux64 on 2019-11-18 at 20:39:55

; 

; external perimeters extrusion width = 0.56mm
; perimeters extrusion width = 0.56mm
; infill extrusion width = 0.56mm
; solid infill extrusion width = 0.40mm
; top infill extrusion width = 0.50mm
; first layer extrusion width = 0.50mm

M201 X9000 Y9000 Z100 E10000 ; sets maximum accelerations, mm/sec^2
M203 X300 Y300 Z5 E120 ; sets maximum feedrates, mm/sec
M204 P1500 R1500 T1500 ; sets acceleration (P, T) and retract acceleration (R), mm/sec^2
M205 X10.00 Y10.00 Z0.20 E2.50 ; sets the jerk limits, mm/sec
M205 S0 T0 ; sets the minimum extruding and travel feed rate, mm/sec
M107
M190 S70 ; set bed temperature and wait for it to be reached
M104 S230 ; set temperature
G28 ; home all axes
G1 Z5 F100 ; lift nozzle
; Filament gcode
M109 S230 ; set temperature and wait for it to be reached
G21 ; set units to millimeters
G90 ; use absolute coordinates
M82 ; use absolute distances for extrusion
G92 E0
G1 Z0.450 F10800.000
G1 E-2.00000 F2400.00000
G92 E0
G1 X67.651 Y62.220 F10800.000
G1 E2.00000 F2400.00000
G1 F1800
G1 X68.260 Y60.573 E2.02457
G1 X68.890 Y59.552 E2.04136
G1 X69.353 Y58.984 E2.05161
G1 X70.103 Y58.240 E2.06640
G1 X70.689 Y57.800 E2.07665
G1 X71.728 Y57.182 E2.09357
G1 X72.891 Y56.747 E2.11093
G1 X73.639 Y56.566 E2.12170
G1 X74.873 Y56.440 E2.13907
G1 X85.005 Y56.438 E2.28085
G1 X86.065 Y56.528 E2.29573
G1 X86.799 Y56.697 E2.30628
G1 X87.768 Y57.051 E2.32071
G1 X88.787 Y57.641 E2.33719
G1 X99.633 Y65.462 E2.52430
G1 X100.847 Y66.643 E2.54801
G1 X101.545 Y67.659 E2.56526
G1 X101.877 Y68.301 E2.57537
G1 X102.365 Y69.727 E2.59646
G1 X102.562 Y71.364 E2.61953
G1 X102.562 Y96.037 E2.96479
G1 X102.349 Y97.780 E2.98937
G1 X101.952 Y98.962 E3.00681
G1 X101.619 Y99.638 E3.01736
G1 X100.925 Y100.698 E3.03509
G1 X100.040 Y101.627 E3.05305
G1 X99.443 Y102.113 E3.06381
G1 X98.362 Y102.774 E3.08155
G1 X96.523 Y103.406 E3.10876
G1 X95.042 Y103.561 E3.12959
G1 X74.990 Y103.562 E3.41020
G1 X73.220 Y103.349 E3.43514
G1 X72.023 Y102.947 E3.45281
G1 X71.334 Y102.605 E3.46357
G1 X70.277 Y101.905 E3.48131
G1 X69.318 Y100.982 E3.49993
G1 X68.852 Y100.391 E3.51048
G1 X68.178 Y99.262 E3.52887
G1 X67.722 Y98.034 E3.54720
G1 X67.554 Y97.278 E3.55804
G1 X67.439 Y96.026 E3.57563
G1 X67.438 Y63.990 E4.02393
G1 X67.642 Y62.294 E4.04783
G1 X68.083 Y62.347 F10800.000
G1 F1800
G1 X68.656 Y60.779 E4.07120
G1 X69.258 Y59.806 E4.08720
G1 X69.688 Y59.279 E4.09673
G1 X70.548 Y58.449 E4.11345
G1 X71.513 Y57.809 E4.12965
G1 X72.108 Y57.501 E4.13904
G1 X73.073 Y57.157 E4.15336
G1 X73.726 Y57.004 E4.16275
G1 X74.894 Y56.886 E4.17917
G1 X85.005 Y56.884 E4.32066
G1 X85.995 Y56.969 E4.33456
G1 X86.663 Y57.122 E4.34416
G1 X87.575 Y57.453 E4.35774
G1 X88.534 Y58.010 E4.37325
G1 X99.346 Y65.803 E4.55976
G1 X100.496 Y66.919 E4.58219
G1 X101.165 Y67.893 E4.59873
G1 X101.472 Y68.490 E4.60811
G1 X101.929 Y69.823 E4.62783
G1 X102.115 Y71.374 E4.64968
G1 X102.116 Y96.030 E4.99471
G1 X101.914 Y97.680 E5.01798
G1 X101.537 Y98.797 E5.03447
G1 X101.232 Y99.416 E5.04414
G1 X100.572 Y100.424 E5.06099
G1 X99.723 Y101.313 E5.07819
G1 X99.182 Y101.751 E5.08792
G1 X98.147 Y102.382 E5.10490
G1 X96.407 Y102.974 E5.13061
G1 X95.036 Y103.115 E5.14989
G1 X74.990 Y103.116 E5.43041
G1 X73.320 Y102.914 E5.45395
G1 X72.184 Y102.530 E5.47073
G1 X71.557 Y102.218 E5.48054
G1 X70.557 Y101.557 E5.49730
G1 X69.643 Y100.676 E5.51508
G1 X69.221 Y100.141 E5.52460
G1 X68.578 Y99.065 E5.54213
G1 X68.148 Y97.899 E5.55954
G1 X67.993 Y97.194 E5.56963
G1 X67.885 Y96.026 E5.58605
G1 X67.884 Y63.990 E6.03434
G1 X68.074 Y62.422 E6.05644
G1 X68.514 Y62.475 F10800.000
G1 F1800
G1 X68.521 Y62.419 E6.05724
G1 X69.051 Y60.988 E6.07859
G1 X69.625 Y60.060 E6.09387
G1 X70.021 Y59.577 E6.10260
G1 X70.832 Y58.793 E6.11838
G1 X71.762 Y58.180 E6.13398
G1 X72.305 Y57.902 E6.14251
G1 X73.251 Y57.569 E6.15654
G1 X74.914 Y57.332 E6.18005
G1 X85.004 Y57.330 E6.32125
G1 X85.930 Y57.410 E6.33426
G1 X86.529 Y57.547 E6.34285
G1 X87.379 Y57.854 E6.35550
G1 X88.282 Y58.378 E6.37010
G1 X99.056 Y66.143 E6.55594
G1 X100.141 Y67.190 E6.57704
G1 X100.786 Y68.128 E6.59298
G1 X101.066 Y68.675 E6.60158
G1 X101.494 Y69.921 E6.62001
G1 X101.669 Y71.380 E6.64057
G1 X101.669 Y96.028 E6.98549
G1 X101.479 Y97.581 E7.00737
G1 X101.121 Y98.637 E7.02298
G1 X100.843 Y99.196 E7.03171
G1 X100.219 Y100.151 E7.04767
G1 X99.407 Y100.998 E7.06410
G1 X98.921 Y101.389 E7.07283
G1 X97.932 Y101.990 E7.08902
G1 X96.299 Y102.540 E7.11314
G1 X95.034 Y102.668 E7.13092
G1 X74.991 Y102.670 E7.41140
G1 X73.419 Y102.479 E7.43355
G1 X72.353 Y102.117 E7.44930
G1 X71.786 Y101.835 E7.45816
G1 X70.836 Y101.208 E7.47410
G1 X69.967 Y100.369 E7.49101
G1 X69.590 Y99.889 E7.49954
G1 X68.977 Y98.864 E7.51626
G1 X68.570 Y97.754 E7.53280
G1 X68.433 Y97.111 E7.54199
G1 X68.332 Y96.020 E7.55733
G1 X68.330 Y63.991 E8.00553
G1 X68.505 Y62.550 E8.02584
G1 X69.446 Y61.195 F10800.000
G1 F1800
G1 X70.351 Y59.878 E8.04820
G1 X71.116 Y59.137 E8.06311
G1 X72.006 Y58.554 E8.07800
G1 X73.420 Y57.984 E8.09933
G1 X74.930 Y57.779 E8.12065
G1 X85.004 Y57.777 E8.26162
G1 X86.393 Y57.973 E8.28126
G1 X87.185 Y58.256 E8.29303
G1 X88.027 Y58.744 E8.30664
G1 X98.768 Y66.484 E8.49190
G1 X99.790 Y67.466 E8.51174
G1 X100.659 Y68.861 E8.53474
G1 X101.059 Y70.021 E8.55191
G1 X101.223 Y71.392 E8.57122
G1 X101.223 Y96.022 E8.91589
G1 X101.045 Y97.477 E8.93640
G1 X100.459 Y98.969 E8.95882
G1 X99.871 Y99.871 E8.97389
G1 X99.097 Y100.676 E8.98952
G1 X97.726 Y101.594 E9.01261
G1 X96.196 Y102.104 E9.03519
G1 X95.026 Y102.222 E9.05164
G1 X74.991 Y102.223 E9.33199
G1 X73.523 Y102.045 E9.35269
G1 X72.014 Y101.451 E9.37538
G1 X71.117 Y100.861 E9.39040
G1 X70.291 Y100.062 E9.40649
G1 X69.379 Y98.670 E9.42977
G1 X68.997 Y97.623 E9.44538
G1 X68.873 Y97.038 E9.45375
G1 X68.778 Y96.017 E9.46809
G1 X68.777 Y63.991 E9.91624
G1 X68.955 Y62.523 E9.93694
G1 X69.420 Y61.265 E9.95570
G1 E7.95570 F2400.00000
G92 E0
G1 X96.405 Y75.245 F10800.000
G1 E2.00000 F2400.00000
G1 F1800
G1 X96.066 Y75.545 E2.00633
G1 X95.666 Y75.755 E2.01266
G1 X95.226 Y75.863 E2.01899
G1 X94.774 Y75.863 E2.02533
G1 X94.332 Y75.754 E2.03170
G1 X93.902 Y75.516 E2.03858
G1 X93.595 Y75.245 E2.04431
G1 X93.338 Y74.872 E2.05064
G1 X93.178 Y74.449 E2.05697
G1 X93.123 Y74.000 E2.06330
G1 X93.178 Y73.551 E2.06963
G1 X93.338 Y73.128 E2.07596
G1 X93.595 Y72.755 E2.08229
G1 X93.934 Y72.455 E2.08863
G1 X94.334 Y72.245 E2.09496
G1 X94.777 Y72.136 E2.10133
G1 X95.268 Y72.147 E2.10821
G1 X95.666 Y72.245 E2.11394
G1 X96.066 Y72.455 E2.12027
G1 X96.405 Y72.755 E2.12660
G1 X96.662 Y73.128 E2.13293
G1 X96.822 Y73.551 E2.13926
G1 X96.877 Y74.000 E2.14559
G1 X96.822 Y74.449 E2.15192
G1 X96.662 Y74.872 E2.15826
G1 X96.447 Y75.183 E2.16354
G1 X96.548 Y75.674 F10800.000
G1 E0.16354 F2400.00000
G92 E0
G1 X79.179 Y62.366 F10800.000
G1 E2.00000 F2400.00000
G1 F1800
G1 X78.796 Y62.500 E2.00568
G1 X78.270 Y62.830 E2.01437
G1 X78.099 Y63.001 E2.01775
G1 X77.901 Y62.478 E2.02558
G1 X77.670 Y62.143 E2.03127
G1 X79.141 Y62.143 E2.05186
G1 X79.166 Y62.292 E2.05397
G1 E0.05397 F2400.00000
G92 E0
G1 X77.838 Y64.097 F10800.000
G1 E2.00000 F2400.00000
G1 F1800
G1 X77.744 Y63.324 E2.01090
G1 X77.503 Y62.686 E2.02043
G1 X77.116 Y62.126 E2.02997
G1 X76.631 Y61.696 E2.03902
G1 X84.970 Y61.697 E2.15572
G1 X85.268 Y61.728 E2.15991
G1 X85.525 Y61.811 E2.16369
G1 X85.791 Y61.963 E2.16798
G1 X86.585 Y62.535 E2.18166
G1 X86.511 Y62.727 E2.18454
G1 X86.048 Y62.679 E2.19105
G1 X79.961 Y62.679 E2.27624
G1 X79.482 Y62.733 E2.28297
G1 X78.991 Y62.905 E2.29026
G1 X78.550 Y63.182 E2.29755
G1 X78.182 Y63.550 E2.30484
G1 X77.878 Y64.033 E2.31282
G1 X78.309 Y64.186 F10800.000
G1 F1800
G1 X78.533 Y63.830 E2.31870
G1 X78.830 Y63.533 E2.32458
G1 X79.186 Y63.309 E2.33046
G1 X79.582 Y63.170 E2.33634
G1 X79.986 Y63.125 E2.34203
G1 X86.025 Y63.125 E2.42653
G1 X86.399 Y63.164 E2.43180
G1 X86.770 Y63.284 E2.43725
G1 X87.097 Y63.471 E2.44252
G1 X90.608 Y65.999 E2.50306
G1 X90.923 Y66.289 E2.50906
G1 X91.170 Y66.657 E2.51526
G1 X91.324 Y67.072 E2.52146
G1 X91.375 Y67.497 E2.52745
G1 X91.375 Y73.014 E2.60465
G1 X91.330 Y73.418 E2.61033
G1 X91.191 Y73.814 E2.61621
G1 X90.967 Y74.170 E2.62209
G1 X90.670 Y74.467 E2.62797
G1 X90.314 Y74.691 E2.63385
G1 X89.955 Y74.816 E2.63917
G1 X89.517 Y74.875 E2.64537
G1 X79.986 Y74.875 E2.77873
G1 X79.582 Y74.830 E2.78442
G1 X79.186 Y74.691 E2.79030
G1 X78.830 Y74.467 E2.79618
G1 X78.533 Y74.170 E2.80206
G1 X78.309 Y73.814 E2.80794
G1 X78.170 Y73.418 E2.81382
G1 X78.125 Y73.014 E2.81950
G1 X78.125 Y64.986 E2.93184
G1 X78.170 Y64.582 E2.93752
G1 X78.284 Y64.257 E2.94235
G1 X78.073 Y63.838 F10800.000
G1 E0.94235 F2400.00000
G92 E0
G1 X77.714 Y74.614 F10800.000
G1 E2.00000 F2400.00000
G1 F1800
G1 X78.270 Y75.170 E2.01099
G1 X78.796 Y75.500 E2.01969
G1 X79.180 Y75.634 E2.02537
G1 X79.142 Y75.857 E2.02854
G1 X77.067 Y75.857 E2.05758
G1 X77.458 Y75.290 E2.06722
G1 X77.688 Y74.684 E2.07629
G1 E0.07629 F2400.00000
G92 E0
G1 X77.232 Y72.296 F10800.000
G1 E2.00000 F2400.00000
G1 F1800
G1 X76.577 Y71.715 E2.01225
G1 X75.984 Y71.404 E2.02162
G1 X75.386 Y71.257 E2.03024
G1 X74.678 Y71.241 E2.04015
G1 X74.016 Y71.404 E2.04970
G1 X73.423 Y71.715 E2.05906
G1 X73.143 Y71.964 E2.06430
G1 X73.143 Y66.698 E2.13799
G1 X73.838 Y67.063 E2.14898
G1 X74.605 Y67.252 E2.16003
G1 X75.395 Y67.252 E2.17108
G1 X76.162 Y67.063 E2.18213
G1 X76.861 Y66.696 E2.19319
G1 X77.232 Y66.367 E2.20013
G1 X77.232 Y72.221 E2.28204
G1 E0.28204 F2400.00000
G92 E0
G1 X90.320 Y75.634 F10800.000
G1 E2.00000 F2400.00000
G1 F1800
G1 X90.704 Y75.500 E2.00569
G1 X91.230 Y75.170 E2.01438
G1 X91.670 Y74.730 E2.02308
G1 X92.208 Y73.872 E2.03725
G1 X92.305 Y74.664 E2.04841
G1 X92.542 Y75.290 E2.05778
G1 X92.933 Y75.857 E2.06742
G1 X90.358 Y75.857 E2.10346
G1 X90.333 Y75.708 E2.10557
G1 E0.10557 F2400.00000
G92 E0
G1 X92.268 Y72.814 F10800.000
G1 E2.00000 F2400.00000
G1 F1800
G1 X92.268 Y67.178 E2.07887
G1 X96.031 Y69.888 E2.14376
G1 X96.402 Y70.229 E2.15082
G1 X96.646 Y70.591 E2.15693
G1 X96.798 Y71.001 E2.16304
G1 X96.857 Y71.502 E2.17010
G1 X96.857 Y71.964 E2.17656
G1 X96.577 Y71.715 E2.18180
G1 X95.984 Y71.404 E2.19117
G1 X95.386 Y71.257 E2.19979
G1 X94.678 Y71.241 E2.20970
G1 X94.016 Y71.404 E2.21925
G1 X93.423 Y71.715 E2.22862
G1 X92.922 Y72.159 E2.23798
G1 X92.542 Y72.710 E2.24735
G1 X92.487 Y72.854 E2.24950
G1 X92.341 Y72.827 E2.25158
G1 E0.25158 F2400.00000
G92 E0
G1 X91.500 Y66.346 F10800.000
G1 E2.00000 F2400.00000
G1 F1800
G1 X91.661 Y66.190 E2.00314
G1 X96.313 Y69.541 E2.08336
G1 X96.743 Y69.936 E2.09154
G1 X97.046 Y70.386 E2.09913
G1 X97.235 Y70.895 E2.10673
G1 X97.304 Y71.476 E2.11490
G1 X97.304 Y72.941 E2.13541
G1 X97.116 Y72.999 E2.13816
G1 X96.741 Y72.457 E2.14738
G1 X96.322 Y72.085 E2.15523
G1 X95.825 Y71.825 E2.16308
G1 X95.327 Y71.702 E2.17025
G1 X94.727 Y71.689 E2.17865
G1 X94.175 Y71.825 E2.18661
G1 X93.678 Y72.085 E2.19445
G1 X93.259 Y72.457 E2.20230
G1 X92.940 Y72.919 E2.21015
G1 X92.741 Y73.443 E2.21800
G1 X92.674 Y74.000 E2.22585
G1 X92.741 Y74.557 E2.23370
G1 X92.940 Y75.081 E2.24154
G1 X93.259 Y75.543 E2.24939
G1 X93.642 Y75.883 E2.25657
G1 X94.040 Y76.103 E2.26293
G1 X93.988 Y76.304 E2.26583
G1 X76.019 Y76.304 E2.51728
G1 X75.969 Y76.100 E2.52022
G1 X76.322 Y75.915 E2.52580
G1 X76.741 Y75.543 E2.53364
G1 X77.060 Y75.081 E2.54149
G1 X77.259 Y74.557 E2.54934
G1 X77.326 Y74.000 E2.55719
G1 X77.259 Y73.443 E2.56504
G1 X77.060 Y72.919 E2.57289
G1 X76.741 Y72.457 E2.58073
G1 X76.322 Y72.085 E2.58858
G1 X75.825 Y71.825 E2.59643
G1 X75.327 Y71.702 E2.60361
G1 X74.727 Y71.689 E2.61200
G1 X74.175 Y71.825 E2.61996
G1 X73.678 Y72.085 E2.62781
G1 X73.259 Y72.457 E2.63566
G1 X72.884 Y72.999 E2.64487
G1 X72.696 Y72.941 E2.64763
G1 X72.696 Y65.708 E2.74884
G1 X73.394 Y66.326 E2.76189
G1 X73.998 Y66.643 E2.77143
G1 X74.659 Y66.806 E2.78096
G1 X75.341 Y66.806 E2.79050
G1 X76.002 Y66.643 E2.80003
G1 X76.606 Y66.326 E2.80957
G1 X77.116 Y65.874 E2.81910
G1 X77.491 Y65.331 E2.82834
G1 X77.679 Y65.390 E2.83110
G1 X77.679 Y73.039 E2.93814
G1 X77.733 Y73.518 E2.94487
G1 X77.905 Y74.009 E2.95216
G1 X78.182 Y74.450 E2.95945
G1 X78.550 Y74.818 E2.96674
G1 X78.991 Y75.095 E2.97403
G1 X79.482 Y75.267 E2.98131
G1 X79.961 Y75.321 E2.98805
G1 X89.546 Y75.321 E3.12218
G1 X90.060 Y75.253 E3.12943
G1 X90.509 Y75.095 E3.13609
G1 X90.950 Y74.818 E3.14338
G1 X91.318 Y74.450 E3.15067
G1 X91.595 Y74.009 E3.15796
G1 X91.767 Y73.518 E3.16525
G1 X91.821 Y73.039 E3.17198
G1 X91.821 Y67.471 E3.24990
G1 X91.761 Y66.967 E3.25701
G1 X91.541 Y66.408 E3.26540
G1 E1.26540 F2400.00000
G92 E0
G1 X77.308 Y64.569 F10800.000
G1 E2.00000 F2400.00000
G1 F1800
G1 X77.105 Y65.105 E2.00802
G1 X76.779 Y65.576 E2.01604
G1 X76.350 Y65.956 E2.02405
G1 X75.843 Y66.222 E2.03207
G1 X75.286 Y66.360 E2.04009
G1 X74.714 Y66.360 E2.04811
G1 X74.157 Y66.222 E2.05613
G1 X73.650 Y65.956 E2.06415
G1 X73.221 Y65.576 E2.07216
G1 X72.895 Y65.105 E2.08018
G1 X72.692 Y64.569 E2.08820
G1 X72.623 Y64.000 E2.09622
G1 X72.692 Y63.431 E2.10424
G1 X72.895 Y62.895 E2.11225
G1 X73.221 Y62.424 E2.12027
G1 X73.650 Y62.044 E2.12829
G1 X74.157 Y61.778 E2.13631
G1 X74.714 Y61.640 E2.14433
G1 X75.286 Y61.640 E2.15234
G1 X75.843 Y61.778 E2.16036
G1 X76.350 Y62.044 E2.16838
G1 X76.779 Y62.424 E2.17640
G1 X77.105 Y62.895 E2.18442
G1 X77.308 Y63.431 E2.19244
G1 X77.377 Y64.000 E2.20045
G1 X77.317 Y64.494 E2.20742
G1 X77.668 Y64.915 F10800.000
G1 E0.20742 F2400.00000
G92 E0
G1 X75.430 Y72.187 F10800.000
G1 E2.00000 F2400.00000
G1 F1800
G1 X75.666 Y72.245 E2.00339
G1 X76.066 Y72.455 E2.00973
G1 X76.405 Y72.755 E2.01606
G1 X76.662 Y73.128 E2.02239
G1 X76.822 Y73.551 E2.02872
G1 X76.877 Y74.000 E2.03505
G1 X76.822 Y74.449 E2.04138
G1 X76.662 Y74.872 E2.04771
G1 X76.405 Y75.245 E2.05405
G1 X76.066 Y75.545 E2.06038
G1 X75.666 Y75.755 E2.06671
G1 X75.226 Y75.863 E2.07304
G1 X74.774 Y75.863 E2.07937
G1 X74.332 Y75.754 E2.08574
G1 X73.902 Y75.516 E2.09262
G1 X73.595 Y75.245 E2.09835
G1 X73.338 Y74.872 E2.10468
G1 X73.178 Y74.449 E2.11101
G1 X73.123 Y74.000 E2.11735
G1 X73.178 Y73.551 E2.12368
G1 X73.338 Y73.128 E2.13001
G1 X73.595 Y72.755 E2.13634
G1 X73.934 Y72.455 E2.14267
G1 X74.334 Y72.245 E2.14900
G1 X74.777 Y72.136 E2.15537
G1 X75.268 Y72.147 E2.16225
G1 X75.357 Y72.169 E2.16354
G1 X75.588 Y72.003 F10800.000
G1 E0.16354 F2400.00000
G92 E0
G1 X72.320 Y74.612 F10800.000
G1 E2.00000 F2400.00000
G1 F1800
G1 X72.250 Y73.986 E2.00881
G1 X72.250 Y64.014 E2.14835
G1 X72.320 Y63.388 E2.15716
G1 X72.524 Y62.808 E2.16577
G1 X72.851 Y62.286 E2.17439
G1 X73.286 Y61.851 E2.18300
G1 X73.808 Y61.524 E2.19161
G1 X74.388 Y61.320 E2.20022
G1 X75.014 Y61.250 E2.20903
G1 X84.993 Y61.251 E2.34868
G1 X85.361 Y61.289 E2.35385
G1 X85.707 Y61.401 E2.35894
G1 X86.033 Y61.588 E2.36420
G1 X96.595 Y69.194 E2.54634
G1 X97.084 Y69.643 E2.55563
G1 X97.446 Y70.182 E2.56471
G1 X97.672 Y70.790 E2.57379
G1 X97.750 Y71.449 E2.58308
G1 X97.750 Y73.986 E2.61857
G1 X97.680 Y74.612 E2.62738
G1 X97.476 Y75.192 E2.63600
G1 X97.149 Y75.714 E2.64461
G1 X96.714 Y76.149 E2.65322
G1 X96.192 Y76.476 E2.66183
G1 X95.612 Y76.680 E2.67045
G1 X94.986 Y76.750 E2.67926
G1 X75.014 Y76.750 E2.95873
G1 X74.388 Y76.680 E2.96754
G1 X73.808 Y76.476 E2.97615
G1 X73.286 Y76.149 E2.98477
G1 X72.851 Y75.714 E2.99338
G1 X72.524 Y75.192 E3.00199
G1 X72.345 Y74.682 E3.00955
G1 X72.687 Y74.271 F10800.000
G1 X72.751 Y74.528
G1 F1800
G1 X72.944 Y75.051 E3.01690
G1 X73.257 Y75.511 E3.02417
G1 X73.633 Y75.856 E3.03079
G1 X74.000 Y76.076 E3.03634
G1 X74.150 Y76.143 E3.03847
G1 X74.487 Y76.247 E3.04299
G1 X74.698 Y76.284 E3.04574
G1 X75.253 Y76.307 E3.05285
G1 X75.775 Y76.247 E3.05957
G1 X76.565 Y76.080 F10800.000
G1 F1800
G1 X76.764 Y75.856 E3.06058
G1 X77.675 Y75.347 F10800.000
G1 F1800
G1 X78.492 Y75.634 E3.06978
G1 X79.381 Y75.781 F10800.000
G1 F1800
G1 X79.948 Y75.812 E3.07935
G1 X89.561 Y75.812 E3.24088
G1 X89.597 Y75.811 E3.24148
G1 X90.118 Y75.777 E3.25081
G1 X91.008 Y75.634 F10800.000
G1 F1800
G1 X92.266 Y75.192 E3.26497
G1 X92.469 Y75.634 F10800.000
G1 F1800
G1 X91.605 Y75.110 E3.27616
G1 X91.886 Y75.634 F10800.000
G1 F1800
G1 X92.062 Y74.525 E3.29011
G1 X91.901 Y73.892 F10800.000
