; generated by Slic3r 1.2.9 on 2016-07-19 at 23:21:12

; external perimeters extrusion width = 0.50mm
; perimeters extrusion width = 0.50mm
; infill extrusion width = 0.50mm
; solid infill extrusion width = 0.50mm
; top infill extrusion width = 0.50mm

M107
M190 S70 ; set bed temperature
M104 S220 ; set temperature
G28 ; home all axes
G1 Z5 F5000 ; lift nozzle

M109 S220 ; wait for temperature to be reached
G21 ; set units to millimeters
G90 ; use absolute coordinates
M82 ; use absolute distances for extrusion
G92 E0
G1 Z0.250 F7800.000
G1 E-2.00000 F2400.00000
G92 E0
G1 Z0.350 F7800.000
G1 X42.997 Y91.685 F7800.000
G1 Z0.250 F7800.000
G1 E2.00000 F2400.00000
M204 S3000
G1 X43.480 Y91.485 E2.02058 F1800.000
G1 X44.799 Y91.131 E2.07436
G1 X45.726 Y91.025 E2.11110
G1 X93.426 Y88.525 E3.99213
G1 X153.044 Y88.518 E6.33990
G1 X153.733 Y88.564 E6.36712
G1 X153.865 Y88.581 E6.37235 F1800.000
G1 X155.196 Y88.942 E6.42665
G1 X155.320 Y88.994 E6.43197
G1 X156.509 Y89.689 E6.48619
G1 X157.129 Y90.230 E6.51860
G1 X159.442 Y92.581 E6.64846
G1 X160.041 Y93.299 E6.68529
G1 X160.710 Y94.474 E6.73853
G1 X160.808 Y94.713 E6.74870
G1 X161.155 Y96.019 E6.80193
G1 X161.188 Y96.275 E6.81211
G1 X161.232 Y96.951 E6.83878
G1 X161.232 Y101.549 E7.01982
G1 X161.154 Y102.481 E7.05667
G1 X160.808 Y103.787 E7.10988
G1 X160.710 Y104.026 E7.12006
G1 X160.041 Y105.201 E7.17330
G1 X159.885 Y105.407 E7.18348
G1 X159.442 Y105.919 E7.21014
G1 X157.129 Y108.270 E7.34001
G1 X156.509 Y108.811 E7.37242
G1 X155.318 Y109.507 E7.42676
G1 X155.196 Y109.558 E7.43195
G1 X153.864 Y109.919 E7.48628
G1 X153.216 Y109.979 E7.51193
G1 X107.672 Y111.479 E9.30643
G1 X46.000 Y111.482 E11.73512
G1 X45.317 Y111.437 E11.76207
G1 X44.799 Y111.369 E11.78263
G1 X43.480 Y111.015 E11.83642
G1 X42.998 Y110.815 E11.85699
G1 X41.815 Y110.133 E11.91076
G1 X41.401 Y109.815 E11.93132
G1 X40.435 Y108.849 E11.98511
G1 X40.117 Y108.435 E12.00568
G1 X39.434 Y107.252 E12.05945
G1 X39.235 Y106.770 E12.08001
G1 X38.881 Y105.451 E12.13379
G1 X38.813 Y104.933 E12.15436
G1 X38.768 Y104.250 E12.18131
G1 X38.768 Y98.250 E12.41759
G1 X38.813 Y97.567 E12.44454
G1 X38.881 Y97.049 E12.46510
G1 X39.235 Y95.730 E12.51889
G1 X39.435 Y95.247 E12.53947
G1 X40.117 Y94.065 E12.59323
G1 X40.435 Y93.651 E12.61379
G1 X41.401 Y92.685 E12.66758
G1 X41.815 Y92.367 E12.68816
G1 X42.932 Y91.722 E12.73895
G1 X43.168 Y92.097 F7800.000
G1 X43.651 Y91.897 E12.75953 F1800.000
G1 X44.858 Y91.574 E12.80872
G1 X45.750 Y91.471 E12.84408
G1 X93.450 Y88.971 E14.72511
G1 X153.044 Y88.965 E17.07196
G1 X153.675 Y89.006 E17.09686
G1 X153.806 Y89.024 E17.10209 F1800.000
G1 X155.023 Y89.354 E17.15175
G1 X155.148 Y89.406 E17.15706
G1 X156.235 Y90.042 E17.20665
G1 X156.811 Y90.543 E17.23674
G1 X159.124 Y92.894 E17.36661
G1 X159.685 Y93.569 E17.40116
G1 X160.297 Y94.643 E17.44985
G1 X160.395 Y94.882 E17.46003
G1 X160.712 Y96.077 E17.50871
G1 X160.745 Y96.333 E17.51889
G1 X160.785 Y96.951 E17.54329
G1 X160.785 Y101.549 E17.72433
G1 X160.712 Y102.423 E17.75890
G1 X160.395 Y103.618 E17.80758
G1 X160.297 Y103.857 E17.81775
G1 X159.685 Y104.931 E17.86645
G1 X159.124 Y105.606 E17.90100
G1 X156.811 Y107.957 E18.03086
G1 X156.339 Y108.377 E18.05577
G1 X156.235 Y108.458 E18.06096
G1 X155.145 Y109.095 E18.11067
G1 X155.023 Y109.146 E18.11586
G1 X153.805 Y109.476 E18.16556
G1 X153.201 Y109.533 E18.18946
G1 X107.658 Y111.033 E19.98396
G1 X46.000 Y111.035 E22.41207
G1 X45.375 Y110.994 E22.43672
G1 X44.858 Y110.926 E22.45728
G1 X43.651 Y110.603 E22.50648
G1 X43.168 Y110.403 E22.52705
G1 X42.087 Y109.779 E22.57624
G1 X41.673 Y109.461 E22.59680
G1 X40.789 Y108.577 E22.64599
G1 X40.471 Y108.163 E22.66656
G1 X39.847 Y107.081 E22.71575
G1 X39.647 Y106.599 E22.73631
G1 X39.324 Y105.392 E22.78550
G1 X39.256 Y104.875 E22.80607
G1 X39.215 Y104.250 E22.83072
G1 X39.215 Y98.250 E23.06700
G1 X39.256 Y97.625 E23.09165
G1 X39.324 Y97.108 E23.11221
G1 X39.647 Y95.901 E23.16141
G1 X39.847 Y95.418 E23.18199
G1 X40.471 Y94.337 E23.23117
G1 X40.789 Y93.923 E23.25173
G1 X41.673 Y93.039 E23.30092
G1 X42.087 Y92.721 E23.32150
G1 X43.103 Y92.134 E23.36771
G1 X43.339 Y92.509 F7800.000
G1 X43.822 Y92.309 E23.38828 F1800.000
G1 X44.916 Y92.016 E23.43289
G1 X45.773 Y91.917 E23.46686
G1 X93.473 Y89.417 E25.34789
G1 X153.044 Y89.411 E27.69382
G1 X153.616 Y89.449 E27.71640
G1 X153.747 Y89.466 E27.72163 F1800.000
G1 X154.851 Y89.765 E27.76666
G1 X154.975 Y89.817 E27.77196
G1 X155.961 Y90.394 E27.81692
G1 X156.493 Y90.856 E27.84469
G1 X158.806 Y93.207 E27.97455
G1 X159.329 Y93.838 E28.00683
G1 X159.884 Y94.812 E28.05099
G1 X159.982 Y95.051 E28.06116
G1 X160.269 Y96.135 E28.10531
G1 X160.303 Y96.391 E28.11548
G1 X160.339 Y96.951 E28.13760
G1 X160.339 Y101.549 E28.31865
G1 X160.269 Y102.366 E28.35094
G1 X159.982 Y103.449 E28.39508
G1 X159.884 Y103.688 E28.40525
G1 X159.329 Y104.662 E28.44940
G1 X158.806 Y105.293 E28.48168
G1 X156.493 Y107.644 E28.61155
G1 X156.065 Y108.025 E28.63413
G1 X155.961 Y108.106 E28.63932
G1 X154.973 Y108.684 E28.68439
G1 X154.851 Y108.735 E28.68958
G1 X153.747 Y109.034 E28.73464
G1 X153.186 Y109.087 E28.75680
G1 X107.643 Y110.587 E30.55131
G1 X46.000 Y110.589 E32.97884
G1 X45.434 Y110.552 E33.00119
G1 X44.916 Y110.484 E33.02175
G1 X43.822 Y110.191 E33.06636
G1 X43.339 Y109.991 E33.08693
G1 X42.359 Y109.424 E33.13152
G1 X41.944 Y109.107 E33.15209
G1 X41.143 Y108.306 E33.19669
G1 X40.825 Y107.891 E33.21726
G1 X40.259 Y106.910 E33.26186
G1 X40.059 Y106.428 E33.28242
G1 X39.766 Y105.334 E33.32702
G1 X39.698 Y104.816 E33.34759
G1 X39.661 Y104.250 E33.36994
G1 X39.661 Y98.250 E33.60622
G1 X39.698 Y97.684 E33.62858
G1 X39.766 Y97.166 E33.64914
G1 X40.059 Y96.072 E33.69374
G1 X40.259 Y95.589 E33.71432
G1 X40.826 Y94.609 E33.75891
G1 X41.143 Y94.194 E33.77947
G1 X41.944 Y93.393 E33.82408
G1 X42.359 Y93.075 E33.84466
G1 X43.274 Y92.547 E33.88628
G1 X43.510 Y92.922 F7800.000
G1 X43.993 Y92.722 E33.90685 F1800.000
G1 X44.974 Y92.459 E33.94687
G1 X45.796 Y92.363 E33.97946
G1 X93.496 Y89.863 E35.86050
G1 X153.044 Y89.857 E38.20550
G1 X153.557 Y89.891 E38.22576
G1 X153.688 Y89.909 E38.23098 F1800.000
G1 X154.679 Y90.177 E38.27138
G1 X154.802 Y90.229 E38.27667
G1 X155.686 Y90.746 E38.31701
G1 X156.175 Y91.169 E38.34245
G1 X158.488 Y93.520 E38.47232
G1 X158.973 Y94.107 E38.50232
G1 X159.471 Y94.981 E38.54193
G1 X159.569 Y95.220 E38.55211
G1 X159.827 Y96.192 E38.59171
G1 X159.860 Y96.448 E38.60189
G1 X159.893 Y96.951 E38.62173
G1 X159.893 Y101.549 E38.80278
G1 X159.827 Y102.308 E38.83280
G1 X159.569 Y103.280 E38.87239
G1 X159.471 Y103.519 E38.88257
G1 X158.973 Y104.393 E38.92217
G1 X158.488 Y104.980 E38.95218
G1 X156.175 Y107.331 E39.08204
G1 X155.686 Y107.754 E39.10749
G1 X154.800 Y108.272 E39.14792
G1 X154.679 Y108.323 E39.15311
G1 X153.688 Y108.591 E39.19354
G1 X153.172 Y108.641 E39.21395
G1 X107.628 Y110.141 E41.00845
G1 X46.000 Y110.143 E43.43541
G1 X45.492 Y110.109 E43.45546
G1 X44.974 Y110.041 E43.47602
G1 X43.993 Y109.778 E43.51604
G1 X43.510 Y109.578 E43.53661
G1 X42.630 Y109.070 E43.57662
G1 X42.216 Y108.752 E43.59718
G1 X41.498 Y108.034 E43.63720
G1 X41.180 Y107.620 E43.65776
G1 X40.672 Y106.740 E43.69778
G1 X40.472 Y106.257 E43.71834
G1 X40.209 Y105.276 E43.75835
G1 X40.141 Y104.758 E43.77892
G1 X40.107 Y104.250 E43.79897
G1 X40.107 Y98.250 E44.03525
G1 X40.141 Y97.742 E44.05530
G1 X40.209 Y97.224 E44.07586
G1 X40.472 Y96.243 E44.11588
G1 X40.672 Y95.760 E44.13646
G1 X41.180 Y94.880 E44.17646
G1 X41.498 Y94.466 E44.19702
G1 X42.216 Y93.748 E44.23704
G1 X42.631 Y93.429 E44.25762
G1 X43.445 Y92.959 E44.29465
G1 X43.681 Y93.334 F7800.000
G1 X44.164 Y93.134 E44.31523 F1800.000
G1 X45.032 Y92.901 E44.35065
G1 X45.820 Y92.808 E44.38187
G1 X93.520 Y90.308 E46.26290
G1 X153.044 Y90.304 E48.60699
G1 X153.498 Y90.334 E48.62492
G1 X153.629 Y90.351 E48.63014 F1800.000
G1 X154.506 Y90.589 E48.66591
G1 X154.630 Y90.640 E48.67118
G1 X155.412 Y91.098 E48.70690
G1 X155.857 Y91.482 E48.73002
G1 X158.169 Y93.833 E48.85989
G1 X158.617 Y94.377 E48.88761
G1 X159.058 Y95.150 E48.92268
G1 X159.156 Y95.389 E48.93286
G1 X159.384 Y96.250 E48.96792
G1 X159.446 Y96.951 E48.99565
G1 X159.446 Y101.549 E49.17670
G1 X159.384 Y102.250 E49.20444
G1 X159.156 Y103.111 E49.23949
G1 X159.058 Y103.350 E49.24967
G1 X158.617 Y104.123 E49.28474
G1 X158.169 Y104.667 E49.31247
G1 X155.857 Y107.018 E49.44233
G1 X155.412 Y107.402 E49.46545
G1 X154.628 Y107.860 E49.50125
G1 X154.506 Y107.911 E49.50644
G1 X153.629 Y108.149 E49.54223
G1 X153.157 Y108.194 E49.56090
G1 X107.613 Y109.694 E51.35540
G1 X46.000 Y109.696 E53.78178
G1 X45.550 Y109.667 E53.79953
G1 X45.033 Y109.599 E53.82009
G1 X44.163 Y109.366 E53.85552
G1 X43.681 Y109.166 E53.87609
G1 X42.902 Y108.716 E53.91151
G1 X42.488 Y108.398 E53.93207
G1 X41.852 Y107.762 E53.96750
G1 X41.534 Y107.348 E53.98807
G1 X41.084 Y106.569 E54.02349
G1 X40.884 Y106.086 E54.04405
G1 X40.651 Y105.218 E54.07948
G1 X40.583 Y104.700 E54.10004
G1 X40.554 Y104.250 E54.11780
G1 X40.554 Y98.250 E54.35408
G1 X40.583 Y97.800 E54.37183
G1 X40.651 Y97.283 E54.39239
G1 X40.884 Y96.414 E54.42782
G1 X41.080 Y95.941 E54.44795
G1 X41.534 Y95.152 E54.48381
G1 X41.852 Y94.738 E54.50437
G1 X42.488 Y94.102 E54.53980
G1 X42.902 Y93.784 E54.56037
G1 X43.616 Y93.372 E54.59282
G1 E52.59282 F2400.00000
G92 E0
G1 Z0.350 F7800.000
G1 X75.479 Y101.039 F7800.000
G1 Z0.250 F7800.000
G1 E2.00000 F2400.00000
G1 X75.016 Y101.100 E2.01839 F1800.000
G1 X49.984 Y101.100 E3.00420
G1 X49.521 Y101.039 E3.02259
G1 X49.074 Y100.854 E3.04163
G1 X48.690 Y100.560 E3.06067
G1 X48.396 Y100.176 E3.07971
G1 X48.211 Y99.729 E3.09875
G1 X48.148 Y99.250 E3.11779
G1 X48.211 Y98.771 E3.13683
G1 X48.396 Y98.324 E3.15587
G1 X48.690 Y97.940 E3.17491
G1 X49.074 Y97.646 E3.19395
G1 X49.521 Y97.461 E3.21299
G1 X49.984 Y97.400 E3.23138
G1 X75.017 Y97.400 E4.21722 F1800.000
G1 X75.488 Y97.465 E4.23594
G1 X75.926 Y97.646 E4.25461
G1 X76.310 Y97.940 E4.27365
G1 X76.604 Y98.324 E4.29269
G1 X76.789 Y98.771 E4.31173
G1 X76.852 Y99.250 E4.33077
G1 X76.789 Y99.729 E4.34981
G1 X76.604 Y100.176 E4.36885
G1 X76.310 Y100.560 E4.38790
G1 X75.926 Y100.854 E4.40694
G1 X75.549 Y101.010 E4.42302
G1 X75.339 Y101.484 F7800.000
G1 X48.890 Y101.744 F7800.000
G1 X48.527 Y102.107 E4.44325 F1800.000
G1 X47.425 Y102.107 E4.48663
G1 X47.072 Y102.154 E4.50065
G1 X46.674 Y102.319 E4.51764
G1 X46.331 Y102.581 E4.53463
G1 X46.069 Y102.924 E4.55161
G1 X45.904 Y103.322 E4.56860
G1 X45.857 Y103.675 E4.58262
G1 X45.857 Y104.435 E4.61256
G1 X45.905 Y104.793 E4.62676
G1 X46.035 Y105.102 E4.63997
G1 X45.781 Y105.069 E4.65007
G1 X45.576 Y104.984 E4.65878
G1 X45.401 Y104.849 E4.66749
G1 X45.266 Y104.674 E4.67620
G1 X45.181 Y104.469 E4.68491
G1 X45.143 Y104.175 E4.69660
G1 X45.143 Y98.325 E4.92698
G1 X45.181 Y98.031 E4.93867
G1 X45.266 Y97.826 E4.94738
G1 X45.401 Y97.651 E4.95610
G1 X45.576 Y97.516 E4.96481
G1 X45.781 Y97.431 E4.97352
G1 X46.075 Y97.393 E4.98521
G1 X47.985 Y97.393 E5.06044
G1 X47.616 Y97.874 E5.08432
G1 X47.341 Y98.538 E5.11261
G1 X47.247 Y99.250 E5.14091
G1 X47.341 Y99.962 E5.16921
G1 X47.616 Y100.626 E5.19751
G1 X48.054 Y101.196 E5.22580
G1 X48.624 Y101.634 E5.25410
G1 X48.821 Y101.715 E5.26250
G1 X49.838 Y101.531 F7800.000
G1 X49.393 Y101.872 E5.28454 F1800.000
G1 X48.712 Y102.554 E5.32252
G1 X47.454 Y102.554 E5.37203
G1 X47.189 Y102.589 E5.38257
G1 X46.899 Y102.709 E5.39493
G1 X46.650 Y102.900 E5.40730
G1 X46.459 Y103.149 E5.41966
G1 X46.339 Y103.439 E5.43202
G1 X46.304 Y103.704 E5.44257
G1 X46.304 Y104.406 E5.47019
G1 X46.340 Y104.675 E5.48087
G1 X46.463 Y104.968 E5.49339
G1 X46.658 Y105.218 E5.50591
G1 X46.861 Y105.370 E5.51590
G1 X46.800 Y105.554 E5.52350
G1 X46.046 Y105.554 E5.55322
G1 X45.664 Y105.503 E5.56838
G1 X45.351 Y105.374 E5.58172
G1 X45.082 Y105.168 E5.59506
G1 X44.876 Y104.899 E5.60840
G1 X44.747 Y104.586 E5.62174
G1 X44.696 Y104.204 E5.63689
G1 X44.696 Y98.296 E5.86958
G1 X44.747 Y97.914 E5.88473
G1 X44.876 Y97.601 E5.89807
G1 X45.082 Y97.332 E5.91141
G1 X45.351 Y97.126 E5.92475
G1 X45.664 Y96.997 E5.93809
G1 X46.046 Y96.946 E5.95325
G1 X49.033 Y96.946 E6.07090
G1 X49.076 Y97.162 E6.07956
G1 X48.849 Y97.256 E6.08925
G1 X48.372 Y97.622 E6.11292
G1 X48.006 Y98.099 E6.13659
G1 X47.776 Y98.654 E6.16026
G1 X47.698 Y99.250 E6.18393
G1 X47.776 Y99.846 E6.20760
G1 X48.006 Y100.401 E6.23127
G1 X48.372 Y100.878 E6.25493
G1 X48.849 Y101.244 E6.27860
G1 X49.404 Y101.474 E6.30227
G1 X49.763 Y101.521 E6.31654
G1 X77.038 Y101.077 F7800.000
G1 X77.384 Y100.626 E6.33891 F1800.000
G1 X77.659 Y99.962 E6.36721
G1 X77.753 Y99.250 E6.39551
G1 X77.659 Y98.538 E6.42380
G1 X77.384 Y97.874 E6.45210
G1 X77.015 Y97.393 E6.47598
G1 X93.150 Y97.393 E7.11141
G1 X93.615 Y97.268 E7.13037
G1 X93.956 Y97.006 E7.14730
G1 X94.218 Y96.665 E7.16423
G1 X94.343 Y96.200 E7.18318
G1 X94.343 Y95.470 E7.21193
G1 X95.857 Y97.010 E7.29698
G1 X95.857 Y101.490 E7.47342
G1 X94.343 Y103.030 E7.55846
G1 X94.343 Y102.300 E7.58721
G1 X94.218 Y101.835 E7.60617
G1 X93.956 Y101.494 E7.62310
G1 X93.615 Y101.232 E7.64003
G1 X93.150 Y101.107 E7.65898
G1 X85.532 Y101.107 E7.95899
G1 X85.179 Y101.154 E7.97301
G1 X84.781 Y101.319 E7.99000
G1 X84.499 Y101.535 E8.00401
G1 X83.927 Y102.107 E8.03586
G1 X78.873 Y102.107 E8.23486
G1 X78.301 Y101.535 E8.26671
G1 X78.019 Y101.319 E8.28072
G1 X77.621 Y101.154 E8.29771
G1 X77.112 Y101.087 E8.31790
G1 X75.967 Y101.554 F7800.000
G1 X75.924 Y101.338 E8.32656 F1800.000
G1 X76.151 Y101.244 E8.33625
G1 X76.628 Y100.878 E8.35992
G1 X76.994 Y100.401 E8.38359
G1 X77.224 Y99.846 E8.40726
G1 X77.302 Y99.250 E8.43093
G1 X77.224 Y98.654 E8.45460
G1 X76.994 Y98.099 E8.47826
G1 X76.628 Y97.622 E8.50193
G1 X76.151 Y97.256 E8.52560
G1 X75.924 Y97.162 E8.53530
G1 X75.967 Y96.946 E8.54395
G1 X93.092 Y96.946 E9.21834
G1 X93.414 Y96.860 E9.23149
G1 X93.638 Y96.688 E9.24261
G1 X93.810 Y96.464 E9.25373
G1 X93.896 Y96.142 E9.26687
G1 X93.896 Y94.380 E9.33623
G1 X96.185 Y96.706 E9.46473
G1 X96.288 Y96.875 E9.47252
G1 X96.304 Y96.997 E9.47734
G1 X96.304 Y101.503 E9.65483
G1 X96.288 Y101.625 E9.65965
G1 X96.185 Y101.794 E9.66744
G1 X93.896 Y104.120 E9.79594
G1 X93.896 Y102.358 E9.86530
G1 X93.810 Y102.036 E9.87844
G1 X93.638 Y101.812 E9.88956
G1 X93.414 Y101.640 E9.90069
G1 X93.092 Y101.554 E9.91383
G1 X85.561 Y101.554 E10.21037
G1 X85.296 Y101.589 E10.22092
G1 X85.006 Y101.709 E10.23328
G1 X84.793 Y101.872 E10.24383
G1 X84.112 Y102.554 E10.28180
G1 X78.688 Y102.554 E10.49537
G1 X78.007 Y101.872 E10.53334
G1 X77.794 Y101.709 E10.54389
G1 X77.504 Y101.589 E10.55625
G1 X77.239 Y101.554 E10.56680
G1 X76.042 Y101.554 E10.61393
G1 E8.61393 F2400.00000
G92 E0
G1 Z0.350 F7800.000
G1 X46.851 Y104.740 F7800.000
G1 Z0.250 F7800.000
G1 E2.00000 F2400.00000
G1 X46.974 Y104.897 E2.00783 F1800.000
G1 X47.133 Y105.016 E2.01566
G1 X47.302 Y105.083 E2.02284
G1 X48.621 Y105.424 E2.07649
G1 X48.673 Y105.463 E2.07907
G1 X48.739 Y105.575 E2.08418
G1 X48.736 Y105.821 E2.09386
G1 X48.715 Y105.874 E2.09611
G1 X48.624 Y105.965 E2.10116
G1 X48.484 Y106.000 E2.10686
G1 X46.016 Y106.000 E2.20402
G1 X45.548 Y105.938 E2.22264
G1 X45.126 Y105.764 E2.24061
G1 X44.764 Y105.486 E2.25857
G1 X44.486 Y105.124 E2.27654
G1 X44.312 Y104.702 E2.29451
G1 X44.250 Y104.234 E2.31313
G1 X44.250 Y98.266 E2.54812
G1 X44.312 Y97.798 E2.56674
G1 X44.486 Y97.376 E2.58471
G1 X44.764 Y97.014 E2.60268
G1 X45.126 Y96.736 E2.62065
G1 X45.548 Y96.562 E2.63862
G1 X46.016 Y96.500 E2.65724
G1 X93.033 Y96.500 E4.50877
G1 X93.213 Y96.452 E4.51611
G1 X93.320 Y96.370 E4.52142
G1 X93.402 Y96.263 E4.52673
G1 X93.450 Y96.083 E4.53406
G1 X93.461 Y94.186 E4.60877
G1 X93.485 Y94.126 E4.61131
G1 X93.576 Y94.035 E4.61637
G1 X93.712 Y94.001 E4.62189
G1 X94.118 Y94.015 E4.63788
G1 X94.233 Y94.086 E4.64323
G1 X96.523 Y96.414 E4.77180
G1 X96.650 Y96.581 E4.78006
G1 X96.723 Y96.760 E4.78767
G1 X96.750 Y96.968 E4.79592
G1 X96.750 Y101.532 E4.97569
G1 X96.723 Y101.740 E4.98394
G1 X96.650 Y101.919 E4.99155
G1 X96.523 Y102.086 E4.99981
G1 X94.233 Y104.414 E5.12838
G1 X94.108 Y104.489 E5.13414
G1 X93.625 Y104.485 E5.15319
G1 X93.526 Y104.426 E5.15768
G1 X93.485 Y104.373 E5.16034
G1 X93.450 Y104.234 E5.16601
G1 X93.450 Y102.417 E5.23754
