; generated by PrusaSlicer 2.0.0+linux64 on 2019-11-16 at 18:16:07

; 

; external perimeters extrusion width = 0.56mm
; perimeters extrusion width = 0.56mm
; infill extrusion width = 0.56mm
; solid infill extrusion width = 0.40mm
; top infill extrusion width = 0.50mm
; first layer extrusion width = 0.50mm

M201 X9000 Y9000 Z100 E10000 ; sets maximum accelerations, mm/sec^2
M203 X300 Y300 Z5 E120 ; sets maximum feedrates, mm/sec
M204 P1500 R1500 T1500 ; sets acceleration (P, T) and retract acceleration (R), mm/sec^2
M205 X10.00 Y10.00 Z0.20 E2.50 ; sets the jerk limits, mm/sec
M205 S0 T0 ; sets the minimum extruding and travel feed rate, mm/sec
M107
M190 S70 ; set bed temperature and wait for it to be reached
M104 S230 ; set temperature
G28 ; home all axes
G1 Z5 F100 ; lift nozzle
; Filament gcode
M109 S230 ; set temperature and wait for it to be reached
G21 ; set units to millimeters
G90 ; use absolute coordinates
M82 ; use absolute distances for extrusion
G92 E0
G1 Z0.250 F10800.000
G1 E-2.00000 F2400.00000
G92 E0
G1 X43.932 Y47.611 F10800.000
G1 E2.00000 F2400.00000
G1 F1800
G1 X45.480 Y46.585 E2.02598
G1 X46.264 Y46.210 E2.03815
G1 X47.934 Y45.664 E2.06274
G1 X49.868 Y45.440 E2.08998
G1 X120.005 Y45.438 E3.07144
G1 X122.045 Y45.659 E3.10016
G1 X123.775 Y46.225 E3.12563
G1 X124.420 Y46.527 E3.13559
G1 X125.549 Y47.231 E3.15421
G1 X126.276 Y47.798 E3.16711
G1 X127.531 Y49.109 E3.19251
G1 X128.615 Y50.851 E3.22122
G1 X129.303 Y52.790 E3.25001
G1 X129.544 Y54.589 E3.27541
G1 X129.554 Y105.274 E3.98467
G1 X129.307 Y107.195 E4.01176
G1 X128.601 Y109.177 E4.04121
G1 X127.492 Y110.941 E4.07037
G1 X126.068 Y112.389 E4.09879
G1 X124.520 Y113.415 E4.12477
G1 X123.736 Y113.790 E4.13694
G1 X122.066 Y114.336 E4.16153
G1 X120.132 Y114.560 E4.18877
G1 X49.926 Y114.562 E5.17119
G1 X47.857 Y114.319 E5.20035
G1 X45.865 Y113.622 E5.22987
G1 X44.067 Y112.499 E5.25954
G1 X42.611 Y111.068 E5.28811
G1 X41.585 Y109.520 E5.31409
G1 X41.214 Y108.746 E5.32611
G1 X40.666 Y107.076 E5.35070
G1 X40.441 Y105.174 E5.37750
G1 X40.439 Y54.905 E6.08094
G1 X40.682 Y52.852 E6.10988
G1 X41.380 Y50.861 E6.13940
G1 X42.504 Y49.063 E6.16907
G1 X43.879 Y47.665 E6.19652
G1 X44.197 Y47.977 F10800.000
G1 F1800
G1 X45.713 Y46.966 E6.22203
G1 X46.423 Y46.628 E6.23302
G1 X48.025 Y46.101 E6.25662
G1 X49.889 Y45.886 E6.28288
G1 X120.005 Y45.884 E7.26405
G1 X121.959 Y46.098 E7.29156
G1 X123.618 Y46.643 E7.31600
G1 X124.208 Y46.919 E7.32510
G1 X125.311 Y47.609 E7.34331
G1 X125.973 Y48.127 E7.35508
G1 X127.176 Y49.379 E7.37937
G1 X128.215 Y51.049 E7.40689
G1 X128.871 Y52.903 E7.43441
G1 X129.100 Y54.644 E7.45899
G1 X129.109 Y105.240 E8.16701
G1 X128.875 Y107.081 E8.19298
G1 X128.200 Y108.982 E8.22120
G1 X127.137 Y110.671 E8.24913
G1 X125.769 Y112.057 E8.27637
G1 X124.287 Y113.034 E8.30123
G1 X123.577 Y113.372 E8.31222
G1 X121.975 Y113.899 E8.33582
G1 X120.111 Y114.114 E8.36208
G1 X49.935 Y114.115 E9.34409
G1 X47.962 Y113.885 E9.37188
G1 X46.054 Y113.218 E9.40016
G1 X44.337 Y112.143 E9.42852
G1 X42.943 Y110.769 E9.45590
G1 X41.966 Y109.287 E9.48075
G1 X41.629 Y108.582 E9.49168
G1 X41.103 Y106.985 E9.51521
G1 X40.887 Y105.151 E9.54105
G1 X40.885 Y54.915 E10.24403
G1 X41.117 Y52.953 E10.27168
G1 X41.784 Y51.050 E10.29989
G1 X42.857 Y49.337 E10.32818
G1 X44.144 Y48.031 E10.35384
G1 X44.461 Y48.344 F10800.000
G1 F1800
G1 X44.529 Y48.276 E10.35518
G1 X45.943 Y47.348 E10.37885
G1 X46.583 Y47.044 E10.38876
G1 X48.117 Y46.538 E10.41137
G1 X49.905 Y46.332 E10.43656
G1 X120.005 Y46.330 E11.41750
G1 X121.869 Y46.535 E11.44374
G1 X123.457 Y47.059 E11.46714
G1 X125.074 Y47.986 E11.49322
G1 X125.668 Y48.453 E11.50380
G1 X126.819 Y49.647 E11.52700
G1 X127.815 Y51.247 E11.55338
G1 X128.439 Y53.016 E11.57962
G1 X128.657 Y54.693 E11.60329
G1 X128.664 Y105.203 E12.31011
G1 X128.441 Y106.975 E12.33510
G1 X127.801 Y108.783 E12.36193
G1 X126.787 Y110.394 E12.38857
G1 X125.471 Y111.724 E12.41475
G1 X124.057 Y112.652 E12.43841
G1 X123.417 Y112.956 E12.44833
G1 X121.883 Y113.462 E12.47094
G1 X120.095 Y113.668 E12.49613
G1 X49.943 Y113.669 E13.47779
G1 X48.062 Y113.450 E13.50430
G1 X46.243 Y112.813 E13.53127
G1 X44.609 Y111.790 E13.55824
G1 X43.276 Y110.471 E13.58448
G1 X42.348 Y109.057 E13.60815
G1 X42.046 Y108.421 E13.61800
G1 X41.539 Y106.888 E13.64061
G1 X41.333 Y105.128 E13.66540
G1 X41.331 Y54.924 E14.36792
G1 X41.551 Y53.057 E14.39423
G1 X42.189 Y51.238 E14.42120
G1 X43.210 Y49.609 E14.44810
G1 X44.408 Y48.397 E14.47195
G1 E12.47195 F2400.00000
G92 E0
G1 X42.590 Y51.434 F10800.000
G1 E2.00000 F2400.00000
G1 F1800
G1 X43.564 Y49.882 E2.02564
G1 X44.823 Y48.612 E2.05067
G1 X46.172 Y47.731 E2.07322
G1 X46.741 Y47.462 E2.08202
G1 X48.211 Y46.974 E2.10370
G1 X49.922 Y46.778 E2.12780
G1 X120.004 Y46.777 E3.10849
G1 X121.780 Y46.972 E3.13349
G1 X123.297 Y47.475 E3.15585
G1 X124.836 Y48.364 E3.18072
G1 X125.362 Y48.777 E3.19008
G1 X126.463 Y49.916 E3.21225
G1 X127.414 Y51.442 E3.23740
G1 X128.007 Y53.129 E3.26243
G1 X128.213 Y54.741 E3.28517
G1 X128.219 Y105.173 E3.99089
G1 X128.008 Y106.866 E4.01477
G1 X127.400 Y108.586 E4.04029
G1 X126.433 Y110.122 E4.06569
G1 X125.177 Y111.388 E4.09065
G1 X123.828 Y112.269 E4.11320
G1 X123.259 Y112.538 E4.12200
G1 X121.789 Y113.026 E4.14368
G1 X120.078 Y113.222 E4.16778
G1 X49.951 Y113.223 E5.14909
G1 X48.160 Y113.015 E5.17433
G1 X46.434 Y112.410 E5.19992
G1 X44.882 Y111.436 E5.22556
G1 X43.612 Y110.177 E5.25059
G1 X42.731 Y108.828 E5.27314
G1 X42.463 Y108.264 E5.28187
G1 X41.976 Y106.797 E5.30349
G1 X41.779 Y105.109 E5.32728
G1 X41.777 Y54.938 E6.02935
G1 X41.985 Y53.159 E6.05440
G1 X42.565 Y51.505 E6.07894
G1 E4.07894 F2400.00000
G92 E0
G1 X117.349 Y105.000 F10800.000
G1 E2.00000 F2400.00000
G1 F1800
G1 X117.426 Y104.366 E2.00894
G1 X117.653 Y103.768 E2.01789
G1 X118.016 Y103.242 E2.02683
G1 X118.494 Y102.818 E2.03577
G1 X119.060 Y102.521 E2.04472
G1 X119.680 Y102.368 E2.05366
G1 X120.320 Y102.368 E2.06260
G1 X120.920 Y102.516 E2.07126
G1 X121.502 Y102.815 E2.08041
G1 X121.984 Y103.242 E2.08943
G1 X122.347 Y103.768 E2.09837
G1 X122.574 Y104.366 E2.10731
G1 X122.651 Y105.000 E2.11626
G1 X122.574 Y105.634 E2.12520
G1 X122.347 Y106.232 E2.13414
G1 X121.984 Y106.758 E2.14309
G1 X121.506 Y107.182 E2.15203
G1 X120.940 Y107.479 E2.16097
G1 X120.320 Y107.632 E2.16992
G1 X119.680 Y107.632 E2.17886
G1 X119.080 Y107.484 E2.18752
G1 X118.498 Y107.185 E2.19666
G1 X118.016 Y106.758 E2.20569
G1 X117.653 Y106.232 E2.21463
G1 X117.426 Y105.634 E2.22357
G1 X117.358 Y105.074 E2.23147
G1 X117.799 Y105.000 F10800.000
G1 F1800
G1 X117.863 Y104.473 E2.23889
G1 X118.051 Y103.977 E2.24632
G1 X118.352 Y103.540 E2.25375
G1 X118.749 Y103.188 E2.26117
G1 X119.219 Y102.942 E2.26860
G1 X119.735 Y102.815 E2.27603
G1 X120.265 Y102.815 E2.28345
G1 X120.763 Y102.937 E2.29062
G1 X121.248 Y103.186 E2.29825
G1 X121.648 Y103.540 E2.30573
G1 X121.949 Y103.977 E2.31315
G1 X122.137 Y104.473 E2.32058
G1 X122.201 Y105.000 E2.32800
G1 X122.137 Y105.527 E2.33543
G1 X121.949 Y106.023 E2.34286
G1 X121.648 Y106.460 E2.35028
G1 X121.251 Y106.812 E2.35771
G1 X120.781 Y107.058 E2.36514
G1 X120.265 Y107.185 E2.37256
G1 X119.735 Y107.185 E2.37999
G1 X119.237 Y107.063 E2.38716
G1 X118.752 Y106.814 E2.39479
G1 X118.352 Y106.460 E2.40226
G1 X118.051 Y106.023 E2.40969
G1 X117.863 Y105.527 E2.41712
G1 X117.808 Y105.074 E2.42349
G1 X118.248 Y105.000 F10800.000
G1 F1800
G1 X118.299 Y104.581 E2.42940
G1 X118.449 Y104.186 E2.43531
G1 X118.689 Y103.838 E2.44122
G1 X119.005 Y103.558 E2.44713
G1 X119.379 Y103.362 E2.45304
G1 X119.789 Y103.261 E2.45895
G1 X120.211 Y103.261 E2.46486
G1 X120.605 Y103.358 E2.47054
G1 X120.994 Y103.557 E2.47666
G1 X121.311 Y103.838 E2.48259
G1 X121.551 Y104.186 E2.48850
G1 X121.701 Y104.581 E2.49441
G1 X121.752 Y105.000 E2.50032
G1 X121.701 Y105.419 E2.50623
G1 X121.551 Y105.814 E2.51213
G1 X121.311 Y106.162 E2.51804
G1 X120.995 Y106.442 E2.52395
G1 X120.621 Y106.638 E2.52986
G1 X120.211 Y106.739 E2.53577
G1 X119.789 Y106.739 E2.54168
G1 X119.395 Y106.642 E2.54737
G1 X119.006 Y106.443 E2.55348
G1 X118.689 Y106.162 E2.55941
G1 X118.449 Y105.814 E2.56532
G1 X118.299 Y105.419 E2.57123
G1 X118.257 Y105.074 E2.57609
G1 X117.882 Y104.789 F10800.000
G1 E0.57609 F2400.00000
G92 E0
G1 X119.680 Y57.632 F10800.000
G1 E2.00000 F2400.00000
G1 F1800
G1 X119.080 Y57.484 E2.00865
G1 X118.498 Y57.185 E2.01780
G1 X118.016 Y56.758 E2.02682
G1 X117.653 Y56.232 E2.03577
G1 X117.426 Y55.634 E2.04471
G1 X117.349 Y55.000 E2.05365
G1 X117.426 Y54.366 E2.06260
G1 X117.653 Y53.768 E2.07154
G1 X118.016 Y53.242 E2.08048
G1 X118.494 Y52.818 E2.08943
G1 X119.060 Y52.521 E2.09837
G1 X119.680 Y52.368 E2.10731
G1 X120.320 Y52.368 E2.11626
G1 X120.920 Y52.516 E2.12491
G1 X121.502 Y52.815 E2.13406
G1 X121.984 Y53.242 E2.14308
G1 X122.347 Y53.768 E2.15203
G1 X122.574 Y54.366 E2.16097
G1 X122.651 Y55.000 E2.16991
G1 X122.574 Y55.634 E2.17886
G1 X122.347 Y56.232 E2.18780
G1 X121.984 Y56.758 E2.19674
G1 X121.506 Y57.182 E2.20569
G1 X120.940 Y57.479 E2.21463
G1 X120.320 Y57.632 E2.22357
G1 X119.755 Y57.632 E2.23147
G1 X119.735 Y57.185 F10800.000
G1 F1800
G1 X119.237 Y57.063 E2.23863
G1 X118.752 Y56.814 E2.24627
G1 X118.352 Y56.460 E2.25374
G1 X118.051 Y56.023 E2.26117
G1 X117.863 Y55.527 E2.26859
G1 X117.799 Y55.000 E2.27602
G1 X117.863 Y54.473 E2.28345
G1 X118.051 Y53.977 E2.29087
G1 X118.352 Y53.540 E2.29830
G1 X118.749 Y53.188 E2.30573
G1 X119.219 Y52.942 E2.31315
G1 X119.735 Y52.815 E2.32058
G1 X120.265 Y52.815 E2.32800
G1 X120.763 Y52.937 E2.33517
G1 X121.248 Y53.186 E2.34280
G1 X121.648 Y53.540 E2.35028
G1 X121.949 Y53.977 E2.35771
G1 X122.137 Y54.473 E2.36513
G1 X122.201 Y55.000 E2.37256
G1 X122.137 Y55.527 E2.37998
G1 X121.949 Y56.023 E2.38741
G1 X121.648 Y56.460 E2.39484
G1 X121.251 Y56.812 E2.40226
G1 X120.781 Y57.058 E2.40969
G1 X120.265 Y57.185 E2.41712
G1 X119.810 Y57.185 E2.42349
G1 X119.789 Y56.739 F10800.000
G1 F1800
G1 X119.395 Y56.642 E2.42918
G1 X119.006 Y56.443 E2.43529
G1 X118.689 Y56.162 E2.44122
G1 X118.449 Y55.814 E2.44713
G1 X118.299 Y55.419 E2.45304
G1 X118.248 Y55.000 E2.45895
G1 X118.299 Y54.581 E2.46486
G1 X118.449 Y54.186 E2.47077
G1 X118.689 Y53.838 E2.47668
G1 X119.005 Y53.558 E2.48259
G1 X119.379 Y53.362 E2.48850
G1 X119.789 Y53.261 E2.49441
G1 X120.211 Y53.261 E2.50032
G1 X120.605 Y53.358 E2.50600
G1 X120.994 Y53.557 E2.51211
G1 X121.311 Y53.838 E2.51804
G1 X121.551 Y54.186 E2.52395
G1 X121.701 Y54.581 E2.52986
G1 X121.752 Y55.000 E2.53577
G1 X121.701 Y55.419 E2.54168
G1 X121.551 Y55.814 E2.54759
G1 X121.311 Y56.162 E2.55350
G1 X120.995 Y56.442 E2.55941
G1 X120.621 Y56.638 E2.56532
G1 X120.211 Y56.739 E2.57123
G1 X119.864 Y56.739 E2.57609
G1 X119.545 Y57.064 F10800.000
G1 E0.57609 F2400.00000
G92 E0
G1 X112.394 Y64.626 F10800.000
G1 E2.00000 F2400.00000
G1 F1800
G1 X112.426 Y64.366 E2.00367
G1 X112.653 Y63.768 E2.01261
G1 X113.016 Y63.242 E2.02156
G1 X113.494 Y62.818 E2.03050
G1 X114.060 Y62.521 E2.03944
G1 X114.680 Y62.368 E2.04839
G1 X115.320 Y62.368 E2.05733
G1 X115.920 Y62.516 E2.06598
G1 X116.502 Y62.815 E2.07513
G1 X116.984 Y63.242 E2.08415
G1 X117.347 Y63.768 E2.09310
G1 X117.574 Y64.366 E2.10204
G1 X117.651 Y65.000 E2.11098
G1 X117.574 Y65.634 E2.11993
G1 X117.347 Y66.232 E2.12887
G1 X116.984 Y66.758 E2.13781
G1 X116.506 Y67.182 E2.14676
G1 X115.940 Y67.479 E2.15570
G1 X115.320 Y67.632 E2.16464
G1 X114.680 Y67.632 E2.17359
G1 X114.060 Y67.479 E2.18253
G1 X113.494 Y67.182 E2.19147
G1 X113.016 Y66.758 E2.20042
G1 X112.653 Y66.232 E2.20936
G1 X112.426 Y65.634 E2.21830
G1 X112.394 Y65.374 E2.22197
G1 X112.143 Y65.389 E2.22550
G1 X112.143 Y94.611 E2.63441
G1 X112.394 Y94.626 E2.63794
G1 X112.426 Y94.366 E2.64161
G1 X112.653 Y93.768 E2.65055
G1 X113.016 Y93.242 E2.65949
G1 X113.494 Y92.818 E2.66844
G1 X114.060 Y92.521 E2.67738
G1 X114.680 Y92.368 E2.68632
G1 X115.320 Y92.368 E2.69526
G1 X115.920 Y92.516 E2.70392
G1 X116.502 Y92.815 E2.71307
G1 X116.984 Y93.242 E2.72209
G1 X117.347 Y93.768 E2.73103
G1 X117.574 Y94.366 E2.73998
G1 X117.651 Y95.000 E2.74892
G1 X117.574 Y95.634 E2.75786
G1 X117.347 Y96.232 E2.76681
G1 X116.984 Y96.758 E2.77575
G1 X116.506 Y97.182 E2.78469
G1 X115.940 Y97.479 E2.79364
G1 X115.320 Y97.632 E2.80258
G1 X114.680 Y97.632 E2.81152
G1 X114.080 Y97.484 E2.82018
G1 X113.498 Y97.185 E2.82933
G1 X113.016 Y96.758 E2.83835
G1 X112.653 Y96.232 E2.84729
G1 X112.426 Y95.634 E2.85623
G1 X112.394 Y95.374 E2.85990
G1 X112.143 Y95.389 E2.86343
G1 X112.143 Y103.064 E2.97083
G1 X112.071 Y103.701 E2.97979
G1 X111.838 Y104.367 E2.98967
G1 X111.463 Y104.964 E2.99954
G1 X110.964 Y105.463 E3.00941
G1 X110.367 Y105.838 E3.01928
G1 X109.723 Y106.063 E3.02881
G1 X109.069 Y106.143 E3.03803
G1 X60.936 Y106.143 E3.71159
G1 X60.299 Y106.071 E3.72056
G1 X59.633 Y105.838 E3.73043
G1 X59.036 Y105.463 E3.74030
G1 X58.537 Y104.964 E3.75017
G1 X58.162 Y104.367 E3.76004
G1 X57.937 Y103.723 E3.76957
G1 X57.857 Y103.069 E3.77880
G1 X57.857 Y95.389 E3.88626
G1 X57.606 Y95.374 E3.88979
G1 X57.574 Y95.634 E3.89346
G1 X57.347 Y96.232 E3.90241
G1 X56.984 Y96.758 E3.91135
G1 X56.506 Y97.182 E3.92029
G1 X55.940 Y97.479 E3.92924
G1 X55.320 Y97.632 E3.93818
G1 X54.680 Y97.632 E3.94712
G1 X54.080 Y97.484 E3.95578
G1 X53.498 Y97.185 E3.96493
G1 X53.016 Y96.758 E3.97395
G1 X52.653 Y96.232 E3.98289
G1 X52.426 Y95.634 E3.99183
G1 X52.349 Y95.000 E4.00078
G1 X52.426 Y94.366 E4.00972
G1 X52.653 Y93.768 E4.01866
G1 X53.016 Y93.242 E4.02761
G1 X53.494 Y92.818 E4.03655
G1 X54.060 Y92.521 E4.04549
G1 X54.680 Y92.368 E4.05444
G1 X55.320 Y92.368 E4.06338
G1 X55.940 Y92.521 E4.07232
G1 X56.506 Y92.818 E4.08127
G1 X56.984 Y93.242 E4.09021
G1 X57.347 Y93.768 E4.09915
G1 X57.574 Y94.366 E4.10810
G1 X57.606 Y94.626 E4.11177
G1 X57.857 Y94.611 E4.11529
G1 X57.857 Y65.389 E4.52420
G1 X57.606 Y65.374 E4.52773
G1 X57.574 Y65.634 E4.53140
G1 X57.347 Y66.232 E4.54034
G1 X56.984 Y66.758 E4.54929
G1 X56.506 Y67.182 E4.55823
G1 X55.940 Y67.479 E4.56717
G1 X55.320 Y67.632 E4.57612
G1 X54.680 Y67.632 E4.58506
G1 X54.060 Y67.479 E4.59400
G1 X53.494 Y67.182 E4.60295
G1 X53.016 Y66.758 E4.61189
G1 X52.653 Y66.232 E4.62083
G1 X52.426 Y65.634 E4.62978
G1 X52.349 Y65.000 E4.63872
G1 X52.426 Y64.366 E4.64766
G1 X52.653 Y63.768 E4.65661
G1 X53.016 Y63.242 E4.66555
G1 X53.494 Y62.818 E4.67449
G1 X54.060 Y62.521 E4.68344
G1 X54.680 Y62.368 E4.69238
G1 X55.320 Y62.368 E4.70132
G1 X55.920 Y62.516 E4.70998
G1 X56.502 Y62.815 E4.71913
G1 X56.984 Y63.242 E4.72815
G1 X57.347 Y63.768 E4.73709
G1 X57.574 Y64.366 E4.74603
G1 X57.606 Y64.626 E4.74970
G1 X57.857 Y64.611 E4.75323
G1 X57.857 Y56.936 E4.86063
G1 X57.929 Y56.299 E4.86960
G1 X58.162 Y55.633 E4.87947
G1 X58.537 Y55.036 E4.88934
G1 X59.036 Y54.537 E4.89921
G1 X59.633 Y54.162 E4.90908
G1 X60.277 Y53.937 E4.91861
G1 X60.931 Y53.857 E4.92784
G1 X109.064 Y53.857 E5.60139
G1 X109.701 Y53.929 E5.61036
G1 X110.367 Y54.162 E5.62023
G1 X110.964 Y54.537 E5.63010
G1 X111.463 Y55.036 E5.63997
G1 X111.838 Y55.633 E5.64984
G1 X112.063 Y56.277 E5.65938
G1 X112.143 Y56.931 E5.66860
G1 X112.143 Y64.611 E5.77606
G1 X112.319 Y64.621 E5.77854
G1 E3.77854 F2400.00000
G92 E0
G1 X111.433 Y55.828 F10800.000
G1 E2.00000 F2400.00000
G1 F1800
G1 X111.626 Y56.378 E2.00816
G1 X111.696 Y56.958 E2.01632
G1 X111.696 Y103.039 E2.66116
G1 X111.633 Y103.601 E2.66907
G1 X111.433 Y104.172 E2.67754
G1 X111.112 Y104.684 E2.68600
G1 X110.684 Y105.112 E2.69446
G1 X110.172 Y105.433 E2.70293
G1 X109.622 Y105.626 E2.71108
G1 X109.042 Y105.696 E2.71925
G1 X60.961 Y105.696 E3.39208
G1 X60.399 Y105.633 E3.39999
G1 X59.828 Y105.433 E3.40845
G1 X59.316 Y105.112 E3.41691
G1 X58.888 Y104.684 E3.42538
G1 X58.567 Y104.172 E3.43384
G1 X58.374 Y103.622 E3.44200
G1 X58.304 Y103.042 E3.45016
G1 X58.304 Y56.961 E4.09500
G1 X58.367 Y56.399 E4.10291
G1 X58.567 Y55.828 E4.11138
G1 X58.888 Y55.316 E4.11984
G1 X59.316 Y54.888 E4.12830
G1 X59.828 Y54.567 E4.13677
G1 X60.378 Y54.374 E4.14492
G1 X60.958 Y54.304 E4.15309
G1 X109.039 Y54.304 E4.82592
G1 X109.601 Y54.367 E4.83383
G1 X110.172 Y54.567 E4.84229
G1 X110.684 Y54.888 E4.85075
G1 X111.112 Y55.316 E4.85922
G1 X111.393 Y55.765 E4.86663
G1 X111.029 Y56.023 F10800.000
G1 F1800
