; generated by Slic3r 1.2.9 on 2016-07-03 at 20:38:45

; external perimeters extrusion width = 0.50mm
; perimeters extrusion width = 0.50mm
; infill extrusion width = 0.50mm
; solid infill extrusion width = 0.50mm
; top infill extrusion width = 0.50mm

M107
M190 S70 ; set bed temperature
M104 S220 ; set temperature
G28 ; home all axes
M109 S220 ; wait for temperature to be reached
G21 ; set units to millimeters
G90 ; use absolute coordinates
M82 ; use absolute distances for extrusion
G92 E0
G1 Z0.350 F7800.000
G1 E-2.00000 F1920.00000
G92 E0
G1 X59.288 Y19.333 F7800.000
G1 E2.00000 F1920.00000
M204 S3000
G1 X60.094 Y16.860 E2.03559 F1800.000
G1 X60.435 Y15.997 E2.04828
G1 X61.117 Y14.815 E2.06697
G1 X61.435 Y14.401 E2.07411
G1 X62.401 Y13.435 E2.09280
G1 X62.815 Y13.117 E2.09994
G1 X63.998 Y12.434 E2.11863
G1 X64.480 Y12.235 E2.12578
G1 X65.799 Y11.881 E2.14447
G1 X66.317 Y11.813 E2.15161
G1 X67.000 Y11.768 E2.16098
G1 X103.000 Y11.768 E2.65360
G1 X103.683 Y11.813 E2.66296
G1 X104.201 Y11.881 E2.67011 F1800.000
G1 X105.519 Y12.235 E2.68880
G1 X106.002 Y12.434 E2.69594
G1 X107.185 Y13.117 E2.71463
G1 X107.599 Y13.435 E2.72178
G1 X108.565 Y14.401 E2.74047
G1 X108.883 Y14.815 E2.74761
G1 X109.566 Y15.998 E2.76630
G1 X109.765 Y16.480 E2.77344
G1 X109.906 Y16.860 E2.77899
G1 X124.906 Y62.860 E3.44108
G1 X125.119 Y63.799 E3.45425
G1 X125.187 Y64.317 E3.46140
G1 X125.232 Y65.000 E3.47076
G1 X125.232 Y101.000 E3.96339
G1 X125.187 Y101.683 E3.97275
G1 X125.119 Y102.201 E3.97990
G1 X124.765 Y103.520 E3.99859
G1 X124.566 Y104.002 E4.00573
G1 X123.883 Y105.185 E4.02442
G1 X123.565 Y105.599 E4.03156
G1 X122.599 Y106.565 E4.05025
G1 X122.185 Y106.883 E4.05740
G1 X121.003 Y107.565 E4.07608
G1 X120.520 Y107.765 E4.08323
G1 X119.200 Y108.119 E4.10192
G1 X118.683 Y108.187 E4.10907
G1 X118.000 Y108.232 E4.11843
G1 X52.000 Y108.232 E5.02158
G1 X51.317 Y108.187 E5.03094
G1 X50.799 Y108.119 E5.03809
G1 X49.480 Y107.765 E5.05678
G1 X48.998 Y107.565 E5.06392
G1 X47.815 Y106.883 E5.08261
G1 X47.401 Y106.565 E5.08975
G1 X46.435 Y105.599 E5.10844
G1 X46.117 Y105.185 E5.11559
G1 X45.434 Y104.002 E5.13428
G1 X45.235 Y103.520 E5.14142
G1 X44.881 Y102.201 E5.16011
G1 X44.813 Y101.683 E5.16725
G1 X44.768 Y101.000 E5.17662
G1 X44.768 Y65.000 E5.66924
G1 X44.813 Y64.317 E5.67860
G1 X44.881 Y63.799 E5.68575
G1 X45.094 Y62.860 E5.69893
G1 X59.265 Y19.404 E6.32440
G1 X59.712 Y19.471 F7800.000
G4 P29
G1 X60.519 Y16.999 E6.35999 F1800.000
G1 X60.847 Y16.168 E6.37221
G1 X61.471 Y15.087 E6.38930
G1 X61.789 Y14.673 E6.39645
G1 X62.690 Y13.776 E6.41383
G1 X63.087 Y13.471 E6.42068
G1 X64.169 Y12.847 E6.43778
G1 X64.651 Y12.647 E6.44492
G1 X65.858 Y12.324 E6.46201
G1 X66.375 Y12.256 E6.46916
G1 X67.000 Y12.215 E6.47773
G1 X103.000 Y12.215 E6.97035
G1 X103.624 Y12.256 E6.97891
G1 X104.142 Y12.324 E6.98606 F1800.000
G1 X105.349 Y12.647 E7.00315
G1 X105.831 Y12.847 E7.01030
G1 X106.913 Y13.471 E7.02739
G1 X107.327 Y13.789 E7.03454
G1 X108.211 Y14.673 E7.05163
G1 X108.529 Y15.087 E7.05878
G1 X109.153 Y16.169 E7.07587
G1 X109.353 Y16.651 E7.08302
G1 X109.481 Y16.999 E7.08809
G1 X124.481 Y62.999 E7.75018
G1 X124.676 Y63.857 E7.76222
G1 X124.744 Y64.375 E7.76937
G1 X124.785 Y65.000 E7.77794
G1 X124.785 Y101.000 E8.27056
G1 X124.744 Y101.625 E8.27913
G1 X124.676 Y102.142 E8.28628
G1 X124.353 Y103.349 E8.30337
G1 X124.153 Y103.831 E8.31051
G1 X123.529 Y104.913 E8.32761
G1 X123.211 Y105.327 E8.33475
G1 X122.328 Y106.211 E8.35185
G1 X121.913 Y106.529 E8.35899
G1 X120.832 Y107.153 E8.37608
G1 X120.349 Y107.353 E8.38323
G1 X119.142 Y107.676 E8.40033
G1 X118.625 Y107.744 E8.40747
G1 X118.000 Y107.785 E8.41604
G1 X52.000 Y107.785 E9.31918
G1 X51.375 Y107.744 E9.32775
G1 X50.858 Y107.676 E9.33489
G1 X49.651 Y107.353 E9.35199
G1 X49.169 Y107.153 E9.35913
G1 X48.087 Y106.529 E9.37623
G1 X47.673 Y106.211 E9.38337
G1 X46.789 Y105.327 E9.40047
G1 X46.471 Y104.913 E9.40761
G1 X45.847 Y103.831 E9.42471
G1 X45.647 Y103.349 E9.43185
G1 X45.324 Y102.142 E9.44894
G1 X45.256 Y101.625 E9.45609
G1 X45.215 Y101.000 E9.46465
G1 X45.215 Y65.000 E9.95728
G1 X45.256 Y64.376 E9.96584
G1 X45.324 Y63.858 E9.97299
G1 X45.519 Y62.999 E9.98504
G1 X59.689 Y19.543 E10.61051
G1 X60.137 Y19.610 F7800.000
G4 P29
G1 X60.943 Y17.137 E10.64610 F1800.000
G1 X61.259 Y16.339 E10.65785
G1 X61.826 Y15.359 E10.67335
G1 X62.143 Y14.944 E10.68049
G1 X62.962 Y14.130 E10.69628
G1 X63.359 Y13.826 E10.70313
G1 X64.339 Y13.259 E10.71863
G1 X64.822 Y13.059 E10.72578
G1 X65.916 Y12.766 E10.74128
G1 X66.434 Y12.698 E10.74842
G1 X67.000 Y12.661 E10.75619
G1 X103.000 Y12.661 E11.24881
G1 X103.566 Y12.698 E11.25658
G1 X104.084 Y12.766 E11.26372 F1800.000
G1 X105.178 Y13.059 E11.27922
G1 X105.661 Y13.259 E11.28637
G1 X106.641 Y13.826 E11.30187
G1 X107.056 Y14.143 E11.30901
G1 X107.857 Y14.944 E11.32451
G1 X108.174 Y15.359 E11.33166
G1 X108.741 Y16.339 E11.34716
G1 X108.941 Y16.822 E11.35430
G1 X109.057 Y17.137 E11.35890
G1 X124.057 Y63.137 E12.02099
G1 X124.234 Y63.916 E12.03191
G1 X124.302 Y64.434 E12.03906
G1 X124.339 Y65.000 E12.04683
G1 X124.339 Y101.000 E12.53945
G1 X124.302 Y101.566 E12.54722
G1 X124.234 Y102.084 E12.55437
G1 X123.941 Y103.178 E12.56987
G1 X123.741 Y103.660 E12.57701
G1 X123.174 Y104.641 E12.59251
G1 X122.857 Y105.056 E12.59966
G1 X122.056 Y105.857 E12.61515
G1 X121.641 Y106.174 E12.62230
G1 X120.661 Y106.741 E12.63779
G1 X120.178 Y106.941 E12.64494
G1 X119.084 Y107.234 E12.66045
G1 X118.566 Y107.302 E12.66759
G1 X118.000 Y107.339 E12.67536
G1 X52.000 Y107.339 E13.57850
G1 X51.434 Y107.302 E13.58627
G1 X50.916 Y107.234 E13.59342
G1 X49.822 Y106.941 E13.60891
G1 X49.339 Y106.741 E13.61606
G1 X48.359 Y106.174 E13.63156
G1 X47.944 Y105.857 E13.63870
G1 X47.143 Y105.056 E13.65420
G1 X46.826 Y104.641 E13.66135
G1 X46.259 Y103.660 E13.67685
G1 X46.059 Y103.178 E13.68399
G1 X45.766 Y102.084 E13.69949
G1 X45.698 Y101.566 E13.70664
G1 X45.661 Y101.000 E13.71440
G1 X45.661 Y65.000 E14.20703
G1 X45.698 Y64.434 E14.21479
G1 X45.766 Y63.916 E14.22194
G1 X45.943 Y63.137 E14.23287
G1 X60.113 Y19.681 E14.85834
G1 X60.561 Y19.748 F7800.000
G4 P29
G1 X61.367 Y17.276 E14.89393 F1800.000
G1 X61.672 Y16.510 E14.90520
G1 X62.180 Y15.630 E14.91910
G1 X62.498 Y15.216 E14.92625
G1 X63.216 Y14.498 E14.94015
G1 X63.630 Y14.180 E14.94730
G1 X64.510 Y13.672 E14.96120
G1 X64.993 Y13.472 E14.96835
G1 X65.974 Y13.209 E14.98225
G1 X66.492 Y13.141 E14.98940
G1 X67.000 Y13.107 E14.99637
G1 X103.000 Y13.107 E15.48899
G1 X103.508 Y13.141 E15.49596
G1 X104.026 Y13.209 E15.50310 F1800.000
G1 X105.007 Y13.472 E15.51701
G1 X105.490 Y13.672 E15.52416
G1 X106.370 Y14.180 E15.53806
G1 X106.784 Y14.497 E15.54520
G1 X107.503 Y15.216 E15.55911
G1 X107.820 Y15.630 E15.56626
G1 X108.328 Y16.510 E15.58016
G1 X108.528 Y16.993 E15.58730
G1 X123.633 Y63.276 E16.25352
G1 X123.791 Y63.974 E16.26331
G1 X123.859 Y64.492 E16.27046
G1 X123.893 Y65.000 E16.27743
G1 X123.893 Y101.000 E16.77006
G1 X123.859 Y101.508 E16.77702
G1 X123.791 Y102.026 E16.78417
G1 X123.528 Y103.007 E16.79808
G1 X123.328 Y103.490 E16.80522
G1 X122.820 Y104.370 E16.81913
G1 X122.502 Y104.784 E16.82627
G1 X121.784 Y105.502 E16.84017
G1 X121.370 Y105.820 E16.84732
G1 X120.490 Y106.328 E16.86122
G1 X120.007 Y106.528 E16.86837
G1 X119.026 Y106.791 E16.88228
G1 X118.508 Y106.859 E16.88942
G1 X118.000 Y106.893 E16.89639
G1 X52.000 Y106.893 E17.79953
G1 X51.492 Y106.859 E17.80650
G1 X50.974 Y106.791 E17.81365
G1 X49.993 Y106.528 E17.82755
G1 X49.510 Y106.328 E17.83470
G1 X48.630 Y105.820 E17.84860
G1 X48.216 Y105.503 E17.85575
G1 X47.497 Y104.784 E17.86965
G1 X47.180 Y104.370 E17.87680
G1 X46.672 Y103.490 E17.89070
G1 X46.472 Y103.007 E17.89785
G1 X46.209 Y102.026 E17.91175
G1 X46.141 Y101.508 E17.91890
G1 X46.107 Y101.000 E17.92587
G1 X46.107 Y65.000 E18.41849
G1 X46.141 Y64.492 E18.42546
G1 X46.209 Y63.974 E18.43260
G1 X46.367 Y63.276 E18.44241
G1 X60.538 Y19.819 E19.06788
G1 X60.985 Y19.887 F7800.000
G4 P29
G1 X61.792 Y17.414 E19.10347 F1800.000
G1 X62.084 Y16.681 E19.11427
G1 X62.534 Y15.902 E19.12658
G1 X62.852 Y15.488 E19.13372
G1 X63.505 Y14.838 E19.14633
G1 X63.902 Y14.534 E19.15317
G1 X64.681 Y14.084 E19.16548
G1 X65.164 Y13.884 E19.17263
G1 X66.032 Y13.651 E19.18494
G1 X66.550 Y13.583 E19.19208
G1 X67.000 Y13.554 E19.19825
G1 X103.000 Y13.554 E19.69088
G1 X103.450 Y13.583 E19.69704
G1 X103.967 Y13.651 E19.70419 F1800.000
G1 X104.836 Y13.884 E19.71650
G1 X105.319 Y14.084 E19.72365
G1 X106.098 Y14.534 E19.73596
G1 X106.512 Y14.852 E19.74310
G1 X107.148 Y15.488 E19.75542
G1 X107.466 Y15.902 E19.76256
G1 X107.916 Y16.681 E19.77487
G1 X108.116 Y17.163 E19.78201
G1 X123.208 Y63.414 E20.44775
G1 X123.349 Y64.032 E20.45643
G1 X123.417 Y64.550 E20.46358
G1 X123.446 Y65.000 E20.46975
G1 X123.446 Y101.000 E20.96237
G1 X123.417 Y101.450 E20.96854
G1 X123.349 Y101.968 E20.97569
G1 X123.116 Y102.837 E20.98800
G1 X122.916 Y103.319 E20.99514
G1 X122.466 Y104.098 E21.00745
G1 X122.148 Y104.512 E21.01460
G1 X121.502 Y105.156 E21.02708
G1 X121.098 Y105.466 E21.03405
G1 X120.319 Y105.916 E21.04636
G1 X119.837 Y106.116 E21.05351
G1 X118.967 Y106.349 E21.06582
G1 X118.450 Y106.417 E21.07296
G1 X118.000 Y106.446 E21.07913
G1 X52.000 Y106.446 E21.98228
G1 X51.550 Y106.417 E21.98845
G1 X51.032 Y106.349 E21.99559
G1 X50.163 Y106.116 E22.00790
G1 X49.681 Y105.916 E22.01505
G1 X48.902 Y105.466 E22.02736
G1 X48.488 Y105.148 E22.03450
G1 X47.852 Y104.512 E22.04681
G1 X47.534 Y104.098 E22.05396
G1 X47.084 Y103.319 E22.06627
G1 X46.884 Y102.836 E22.07341
G1 X46.651 Y101.968 E22.08572
G1 X46.583 Y101.450 E22.09287
G1 X46.554 Y101.000 E22.09904
G1 X46.554 Y65.000 E22.59166
G1 X46.583 Y64.550 E22.59783
G1 X46.651 Y64.033 E22.60498
G1 X46.792 Y63.414 E22.61366
G1 X60.962 Y19.958 E23.23913
G1 E21.23913 F1920.00000
G92 E0
G1 X103.718 Y51.079 F7800.000
G1 E2.00000 F1920.00000
G1 X103.891 Y51.515 E2.00641 F1800.000
G1 X103.952 Y52.000 E2.01310
G1 X103.891 Y52.485 E2.01980
G1 X103.711 Y52.940 E2.02649
G1 X103.423 Y53.336 E2.03319
G1 X103.046 Y53.648 E2.03988
G1 X102.622 Y53.847 E2.04629
G1 X102.124 Y53.948 E2.05325
G1 X101.634 Y53.917 E2.05996
G1 X101.169 Y53.766 E2.06666
G1 X100.756 Y53.504 E2.07335
G1 X100.421 Y53.147 E2.08005
G1 X100.185 Y52.719 E2.08674
G1 X100.063 Y52.245 E2.09344
G1 X100.063 Y51.755 E2.10014
G1 X100.180 Y51.302 E2.10654
G1 X100.420 Y50.854 E2.11350
G1 X100.756 Y50.496 E2.12021
G1 X101.169 Y50.234 E2.12691
G1 X101.634 Y50.083 E2.13361
G1 X102.101 Y50.053 E2.14001 F1800.000
G1 X102.602 Y50.143 E2.14697
G1 X103.046 Y50.352 E2.15368
G1 X103.424 Y50.665 E2.16040
G1 X103.675 Y51.018 E2.16633
G1 X104.185 Y51.110 F7800.000
G1 X102.123 Y23.948 F7800.000
G1 X101.634 Y23.917 E2.17303 F1800.000
G1 X101.169 Y23.766 E2.17972
G1 X100.756 Y23.504 E2.18642
G1 X100.421 Y23.147 E2.19311
G1 X100.185 Y22.719 E2.19981
G1 X100.063 Y22.245 E2.20650
G1 X100.063 Y21.755 E2.21320
G1 X100.180 Y21.302 E2.21961
G1 X100.420 Y20.854 E2.22656
G1 X100.756 Y20.496 E2.23328
G1 X101.169 Y20.234 E2.23997
G1 X101.634 Y20.083 E2.24667
G1 X102.101 Y20.053 E2.25307 F1800.000
G1 X102.602 Y20.143 E2.26003
G1 X103.046 Y20.352 E2.26675
G1 X103.424 Y20.665 E2.27346
G1 X103.718 Y21.079 E2.28042
G1 X103.891 Y21.515 E2.28683
G1 X103.952 Y22.000 E2.29352
G1 X103.891 Y22.485 E2.30022
G1 X103.718 Y22.921 E2.30662
G1 X103.424 Y23.335 E2.31358
G1 X103.046 Y23.648 E2.32029
G1 X102.603 Y23.856 E2.32699
G1 X102.196 Y23.934 E2.33266
G1 X101.887 Y24.377 F7800.000
G1 X92.765 Y31.865 F7800.000
G1 X92.891 Y32.042 E2.33563 F1800.000
G1 X93.397 Y32.956 E2.34993
G1 X93.797 Y33.922 E2.36423
G1 X94.086 Y34.926 E2.37853
G1 X94.261 Y35.957 E2.39283
G1 X94.319 Y37.000 E2.40713
G1 X94.261 Y38.043 E2.42144
G1 X94.086 Y39.074 E2.43574
G1 X93.797 Y40.078 E2.45004
G1 X93.397 Y41.044 E2.46434
G1 X92.891 Y41.958 E2.47864
G1 X92.761 Y42.141 E2.48171
G1 X93.483 Y42.270 E2.49173
G1 X94.067 Y42.545 E2.50058
G1 X94.560 Y42.953 E2.50933
G1 X94.936 Y43.471 E2.51808
G1 X95.172 Y44.065 E2.52683
G1 X95.252 Y44.700 E2.53559
G1 X95.172 Y45.335 E2.54434
G1 X94.936 Y45.929 E2.55309
G1 X94.560 Y46.447 E2.56185
G1 X94.067 Y46.855 E2.57060
G1 X93.489 Y47.127 E2.57935
G1 X92.860 Y47.247 E2.58810
G1 X92.222 Y47.207 E2.59686
G1 X91.614 Y47.009 E2.60561
G1 X91.073 Y46.666 E2.61436
G1 X90.636 Y46.200 E2.62312
G1 X90.327 Y45.639 E2.63187
G1 X90.168 Y45.020 E2.64062
G1 X90.168 Y44.742 E2.64442
G1 X89.958 Y44.891 E2.64795
G1 X89.044 Y45.397 E2.66225
G1 X88.078 Y45.797 E2.67655
G1 X87.074 Y46.086 E2.69085
G1 X86.043 Y46.261 E2.70515
G1 X85.000 Y46.319 E2.71945
G1 X83.957 Y46.261 E2.73376
G1 X82.926 Y46.086 E2.74806
G1 X81.922 Y45.797 E2.76236
G1 X80.956 Y45.397 E2.77666
G1 X80.042 Y44.891 E2.79096
G1 X79.845 Y44.752 E2.79426
G1 X79.772 Y45.335 E2.80230
G1 X79.536 Y45.929 E2.81105
G1 X79.160 Y46.447 E2.81980
G1 X78.667 Y46.855 E2.82856
G1 X78.089 Y47.127 E2.83731
G1 X77.460 Y47.247 E2.84606
G1 X76.822 Y47.207 E2.85481
G1 X76.214 Y47.009 E2.86357
G1 X75.673 Y46.666 E2.87232
G1 X75.236 Y46.200 E2.88107
G1 X74.927 Y45.639 E2.88983
G1 X74.768 Y45.020 E2.89858
G1 X74.768 Y44.380 E2.90733
G1 X74.927 Y43.761 E2.91609
G1 X75.236 Y43.200 E2.92484
G1 X75.673 Y42.734 E2.93359
G1 X76.214 Y42.391 E2.94234
G1 X76.822 Y42.193 E2.95110
G1 X77.256 Y42.166 E2.95706
G1 X77.109 Y41.958 E2.96054
G1 X76.603 Y41.044 E2.97484
G1 X76.203 Y40.078 E2.98914
G1 X75.914 Y39.074 E3.00345
G1 X75.812 Y38.475 E3.01175
G1 X75.739 Y38.043 E3.01775
G1 X75.681 Y37.000 E3.03205
G1 X75.739 Y35.957 E3.04635
G1 X75.812 Y35.525 E3.05234
G1 X75.914 Y34.926 E3.06065
G1 X76.203 Y33.922 E3.07495
G1 X76.603 Y32.956 E3.08925
G1 X77.109 Y32.042 E3.10355
G1 X77.256 Y31.834 E3.10704
G1 X76.822 Y31.807 E3.11300
G1 X76.235 Y31.616 E3.12144
G1 X75.678 Y31.271 E3.13041
G1 X75.236 Y30.800 E3.13925
G1 X74.927 Y30.239 E3.14800
G1 X74.768 Y29.620 E3.15676
G1 X74.768 Y28.980 E3.16551
G1 X74.922 Y28.383 E3.17395
G1 X75.231 Y27.805 E3.18292
G1 X75.673 Y27.334 E3.19176
G1 X76.214 Y26.991 E3.20052
G1 X76.822 Y26.793 E3.20927
G1 X77.438 Y26.755 E3.21771
G1 X78.083 Y26.870 E3.22668
G1 X78.667 Y27.145 E3.23552
G1 X79.160 Y27.553 E3.24427
G1 X79.536 Y28.071 E3.25303
G1 X79.772 Y28.665 E3.26178
G1 X79.845 Y29.248 E3.26982
G1 X80.042 Y29.109 E3.27312
G1 X80.956 Y28.603 E3.28742
G1 X81.922 Y28.203 E3.30172
G1 X82.926 Y27.914 E3.31602
G1 X83.957 Y27.739 E3.33032
G1 X85.000 Y27.681 E3.34462
G1 X86.043 Y27.739 E3.35892
G1 X87.074 Y27.914 E3.37322
G1 X88.078 Y28.203 E3.38753
G1 X89.044 Y28.603 E3.40183
G1 X89.958 Y29.109 E3.41613
G1 X90.168 Y29.258 E3.41965
G1 X90.168 Y28.980 E3.42345
G1 X90.327 Y28.361 E3.43221
G1 X90.636 Y27.800 E3.44096
G1 X91.073 Y27.334 E3.44971
G1 X91.614 Y26.991 E3.45847
G1 X92.222 Y26.793 E3.46722
G1 X92.838 Y26.755 E3.47566
G1 X93.483 Y26.870 E3.48463
G1 X94.067 Y27.145 E3.49347
G1 X94.560 Y27.553 E3.50222
G1 X94.936 Y28.071 E3.51098
G1 X95.172 Y28.665 E3.51973
G1 X95.252 Y29.300 E3.52848
G1 X95.172 Y29.935 E3.53724
G1 X94.936 Y30.529 E3.54599
G1 X94.560 Y31.047 E3.55474
G1 X94.067 Y31.455 E3.56349
G1 X93.489 Y31.727 E3.57225
G1 X92.839 Y31.851 E3.58129
G1 X91.909 Y31.429 F7800.000
G4 P25
G1 X92.513 Y32.280 E3.59557 F1800.000
G1 X92.994 Y33.150 E3.60919
G1 X93.375 Y34.070 E3.62280
G1 X93.650 Y35.026 E3.63642
G1 X93.817 Y36.007 E3.65003
G1 X93.872 Y37.000 E3.66365
G1 X93.817 Y37.993 E3.67726
G1 X93.650 Y38.974 E3.69088
G1 X93.375 Y39.930 E3.70449
G1 X92.994 Y40.850 E3.71811
G1 X92.513 Y41.720 E3.73172
G1 X91.909 Y42.571 E3.74600
G1 X92.023 Y42.727 E3.74865
G1 X92.306 Y42.635 E3.75272
G1 X92.812 Y42.604 E3.75965
G4 P6
G1 X93.346 Y42.699 E3.76708
G1 X93.826 Y42.925 E3.77434
G1 X94.232 Y43.261 E3.78155
G1 X94.542 Y43.687 E3.78876
G1 X94.736 Y44.177 E3.79597
G1 X94.802 Y44.700 E3.80318
G1 X94.736 Y45.223 E3.81039
G1 X94.542 Y45.713 E3.81760
G1 X94.232 Y46.139 E3.82481
G1 X93.826 Y46.475 E3.83202
G1 X93.350 Y46.699 E3.83923
G1 X92.832 Y46.798 E3.84644
G1 X92.306 Y46.765 E3.85365
G1 X91.805 Y46.602 E3.86086
G1 X91.360 Y46.320 E3.86807
G1 X91.000 Y45.935 E3.87528
G1 X90.746 Y45.474 E3.88249
G1 X90.615 Y44.963 E3.88970
G1 X90.615 Y44.437 E3.89691
G1 X90.790 Y43.754 E3.90656
G4 P9
G1 X89.720 Y44.513 E3.92450
G1 X88.850 Y44.994 E3.93812
