; generated by PrusaSlicer 2.0.0+linux64 on 2019-11-27 at 20:54:50

; 

; external perimeters extrusion width = 0.56mm
; perimeters extrusion width = 0.56mm
; infill extrusion width = 0.56mm
; solid infill extrusion width = 0.40mm
; top infill extrusion width = 0.50mm
; first layer extrusion width = 0.50mm

M201 X9000 Y9000 Z100 E10000 ; sets maximum accelerations, mm/sec^2
M203 X300 Y300 Z5 E120 ; sets maximum feedrates, mm/sec
M204 P1500 R1500 T1500 ; sets acceleration (P, T) and retract acceleration (R), mm/sec^2
M205 X10.00 Y10.00 Z0.20 E2.50 ; sets the jerk limits, mm/sec
M205 S0 T0 ; sets the minimum extruding and travel feed rate, mm/sec
M107
M190 S70 ; set bed temperature and wait for it to be reached
M104 S230 ; set temperature
G28 ; home all axes
G1 Z5 F100 ; lift nozzle
; Filament gcode
M109 S230 ; set temperature and wait for it to be reached
G21 ; set units to millimeters
G90 ; use absolute coordinates
M82 ; use absolute distances for extrusion
G92 E0
G1 Z0.450 F10800.000
G1 E-2.00000 F2400.00000
G92 E0
G1 X38.525 Y67.108 F10800.000
G1 E2.00000 F2400.00000
G1 F1800
G1 X41.081 Y65.824 E2.04002
G1 X43.712 Y65.065 E2.07834
G1 X46.585 Y64.788 E2.11873
G1 X123.405 Y64.788 E3.19371
G1 X126.196 Y65.047 E3.23293
G1 X128.896 Y65.815 E3.27221
G1 X131.409 Y67.067 E3.31150
G1 X133.645 Y68.755 E3.35071
G1 X135.540 Y70.833 E3.39006
G1 X137.015 Y73.215 E3.42927
G1 X138.030 Y75.832 E3.46855
G1 X138.546 Y78.581 E3.50769
G1 X138.548 Y81.399 E3.54712
G1 X138.033 Y84.159 E3.58640
G1 X137.020 Y86.776 E3.62568
G1 X135.549 Y89.155 E3.66482
G1 X133.652 Y91.239 E3.70425
G1 X131.421 Y92.926 E3.74338
G1 X128.909 Y94.179 E3.78267
G1 X126.288 Y94.935 E3.82085
G1 X123.405 Y95.212 E3.86138
G1 X46.589 Y95.212 E4.93629
G1 X44.112 Y95.000 E4.97109
G1 X41.494 Y94.316 E5.00895
G1 X40.765 Y94.037 E5.01986
G1 X38.551 Y92.908 E5.05465
G1 X36.351 Y91.242 E5.09327
G1 X34.489 Y89.205 E5.13189
G1 X33.160 Y87.104 E5.16667
G1 X32.816 Y86.404 E5.17759
G1 X31.890 Y83.845 E5.21567
G1 X31.443 Y81.287 E5.25200
G1 X31.434 Y78.922 E5.28509
G1 X31.509 Y78.188 E5.29542
G1 X31.969 Y75.836 E5.32895
G1 X32.812 Y73.605 E5.36234
G1 X33.123 Y72.959 E5.37237
G1 X34.239 Y71.153 E5.40207
G1 X34.671 Y70.574 E5.41218
G1 X36.294 Y68.811 E5.44571
G1 X38.466 Y67.154 E5.48394
G1 X38.736 Y67.508 F10800.000
G1 F1800
G1 X41.248 Y66.238 E5.52333
G1 X43.823 Y65.498 E5.56083
G1 X46.586 Y65.234 E5.59966
G1 X123.405 Y65.234 E6.67463
G1 X126.114 Y65.486 E6.71270
G1 X128.735 Y66.231 E6.75083
G1 X131.174 Y67.446 E6.78896
G1 X133.348 Y69.088 E6.82709
G1 X135.184 Y71.102 E6.86522
G1 X136.618 Y73.419 E6.90335
G1 X137.602 Y75.960 E6.94148
G1 X138.102 Y78.628 E6.97947
G1 X138.103 Y81.363 E7.01774
G1 X137.603 Y84.037 E7.05580
G1 X136.618 Y86.582 E7.09400
G1 X135.189 Y88.891 E7.13199
G1 X133.351 Y90.909 E7.17019
G1 X131.181 Y92.549 E7.20825
G1 X128.743 Y93.765 E7.24638
G1 X126.177 Y94.502 E7.28374
G1 X123.404 Y94.766 E7.32271
G1 X46.590 Y94.766 E8.39761
G1 X44.174 Y94.558 E8.43155
G1 X41.617 Y93.887 E8.46854
G1 X40.958 Y93.635 E8.47842
G1 X38.792 Y92.533 E8.51241
G1 X36.648 Y90.908 E8.55006
G1 X34.841 Y88.930 E8.58756
G1 X33.541 Y86.871 E8.62162
G1 X33.230 Y86.237 E8.63150
G1 X32.323 Y83.734 E8.66877
G1 X31.889 Y81.262 E8.70388
G1 X31.880 Y78.937 E8.73642
G1 X31.949 Y78.265 E8.74587
G1 X32.398 Y75.959 E8.77875
G1 X33.230 Y73.761 E8.81163
G1 X33.514 Y73.175 E8.82074
G1 X34.620 Y71.385 E8.85019
G1 X35.013 Y70.860 E8.85936
G1 X36.605 Y69.132 E8.89225
G1 X38.676 Y67.554 E8.92868
G1 X38.947 Y67.912 F10800.000
G1 F1800
G1 X39.063 Y67.824 E8.93072
G1 X41.433 Y66.645 E8.96776
G1 X44.008 Y65.917 E9.00520
G1 X46.587 Y65.680 E9.04145
G1 X123.405 Y65.680 E10.11639
G1 X126.033 Y65.925 E10.15333
G1 X128.574 Y66.648 E10.19031
G1 X130.940 Y67.826 E10.22728
G1 X133.048 Y69.419 E10.26426
G1 X134.828 Y71.372 E10.30124
G1 X136.219 Y73.619 E10.33822
G1 X137.173 Y76.083 E10.37519
G1 X137.659 Y78.685 E10.41224
G1 X137.658 Y81.323 E10.44915
G1 X137.172 Y83.920 E10.48613
G1 X136.218 Y86.384 E10.52310
G1 X134.823 Y88.635 E10.56015
G1 X133.046 Y90.583 E10.59706
G1 X130.933 Y92.178 E10.63410
G1 X128.567 Y93.355 E10.67108
G1 X125.988 Y94.084 E10.70858
G1 X123.400 Y94.320 E10.74494
G1 X46.591 Y94.320 E11.81978
G1 X44.159 Y94.106 E11.85394
G1 X41.483 Y93.374 E11.89275
G1 X39.345 Y92.333 E11.92603
G1 X38.791 Y91.990 E11.93515
G1 X36.756 Y90.389 E11.97138
G1 X35.155 Y88.605 E12.00492
G1 X33.783 Y86.385 E12.04144
G1 X32.836 Y83.949 E12.07802
G1 X32.381 Y81.615 E12.11129
G1 X32.337 Y78.729 E12.15168
G1 X32.815 Y76.125 E12.18873
G1 X33.776 Y73.628 E12.22617
G1 X35.151 Y71.400 E12.26281
G1 X36.951 Y69.420 E12.30025
G1 X38.887 Y67.957 E12.33421
G1 X39.155 Y68.312 F10800.000
G1 F1800
G1 X39.300 Y68.203 E12.33675
G1 X41.596 Y67.061 E12.37264
G1 X44.103 Y66.354 E12.40908
G1 X46.590 Y66.127 E12.44404
G1 X123.404 Y66.127 E13.51893
G1 X125.949 Y66.363 E13.55469
G1 X128.411 Y67.063 E13.59051
G1 X130.703 Y68.204 E13.62634
G1 X132.746 Y69.747 E13.66216
G1 X134.471 Y71.639 E13.69799
G1 X135.818 Y73.816 E13.73381
G1 X136.743 Y76.203 E13.76963
G1 X137.215 Y78.728 E13.80558
G1 X137.214 Y81.284 E13.84135
G1 X136.743 Y83.800 E13.87717
G1 X135.819 Y86.183 E13.91293
G1 X134.466 Y88.367 E13.94888
G1 X132.743 Y90.255 E13.98465
G1 X130.696 Y91.800 E14.02053
G1 X128.404 Y92.939 E14.05636
G1 X125.897 Y93.646 E14.09280
G1 X123.400 Y93.873 E14.12789
G1 X46.591 Y93.873 E15.20271
G1 X44.227 Y93.665 E15.23593
G1 X41.635 Y92.954 E15.27354
G1 X39.549 Y91.936 E15.30602
G1 X39.056 Y91.630 E15.31414
G1 X37.077 Y90.079 E15.34932
G1 X35.516 Y88.343 E15.38199
G1 X34.182 Y86.184 E15.41750
G1 X33.263 Y83.819 E15.45302
G1 X32.818 Y81.523 E15.48574
G1 X32.783 Y78.756 E15.52446
G1 X33.248 Y76.234 E15.56035
G1 X34.179 Y73.821 E15.59654
G1 X35.515 Y71.658 E15.63212
G1 X37.253 Y69.748 E15.66825
G1 X39.095 Y68.357 E15.70055
G1 E13.70055 F2400.00000
G92 E0
G1 X70.229 Y89.388 F10800.000
G1 E2.00000 F2400.00000
G1 F1800
G1 X69.771 Y89.388 E2.00641
G1 X69.326 Y89.278 E2.01283
G1 X68.920 Y89.065 E2.01924
G1 X68.577 Y88.761 E2.02566
G1 X68.316 Y88.384 E2.03207
G1 X68.154 Y87.955 E2.03849
G1 X68.099 Y87.500 E2.04490
G1 X68.154 Y87.045 E2.05132
G1 X68.316 Y86.616 E2.05773
G1 X68.577 Y86.239 E2.06414
G1 X68.920 Y85.935 E2.07056
G1 X69.326 Y85.722 E2.07697
G1 X69.771 Y85.612 E2.08339
G1 X70.229 Y85.612 E2.08980
G1 X70.674 Y85.722 E2.09622
G1 X71.080 Y85.935 E2.10263
G1 X71.423 Y86.239 E2.10905
G1 X71.684 Y86.616 E2.11546
G1 X71.846 Y87.045 E2.12188
G1 X71.901 Y87.500 E2.12829
G1 X71.846 Y87.955 E2.13470
G1 X71.684 Y88.384 E2.14112
G1 X71.423 Y88.761 E2.14753
G1 X71.080 Y89.065 E2.15395
G1 X70.674 Y89.278 E2.16036
G1 X70.302 Y89.370 E2.16573
G1 X70.175 Y88.941 F10800.000
G1 F1800
G1 X69.825 Y88.941 E2.17063
G1 X69.485 Y88.857 E2.17552
G1 X69.175 Y88.695 E2.18042
G1 X68.913 Y88.463 E2.18532
G1 X68.714 Y88.175 E2.19022
G1 X68.590 Y87.847 E2.19511
G1 X68.548 Y87.500 E2.20001
G1 X68.590 Y87.153 E2.20491
G1 X68.714 Y86.825 E2.20981
G1 X68.913 Y86.537 E2.21470
G1 X69.175 Y86.305 E2.21960
G1 X69.485 Y86.143 E2.22450
G1 X69.825 Y86.059 E2.22940
G1 X70.175 Y86.059 E2.23430
G1 X70.515 Y86.143 E2.23919
G1 X70.825 Y86.305 E2.24409
G1 X71.087 Y86.537 E2.24899
G1 X71.286 Y86.825 E2.25389
G1 X71.410 Y87.153 E2.25878
G1 X71.452 Y87.500 E2.26368
G1 X71.410 Y87.847 E2.26858
G1 X71.286 Y88.175 E2.27348
G1 X71.087 Y88.463 E2.27837
G1 X70.825 Y88.695 E2.28327
G1 X70.515 Y88.857 E2.28817
G1 X70.248 Y88.923 E2.29202
G1 X70.038 Y89.263 F10800.000
G1 E0.29202 F2400.00000
G92 E0
G1 X48.951 Y86.650 F10800.000
G1 E2.00000 F2400.00000
G1 F1800
G1 X48.883 Y87.213 E2.00793
G1 X48.682 Y87.743 E2.01586
G1 X48.360 Y88.209 E2.02379
G1 X47.936 Y88.585 E2.03173
G1 X47.434 Y88.848 E2.03966
G1 X46.883 Y88.984 E2.04759
G1 X46.317 Y88.984 E2.05552
G1 X45.766 Y88.848 E2.06345
G1 X45.264 Y88.585 E2.07138
G1 X44.853 Y88.221 E2.07907
G1 X44.520 Y87.748 E2.08716
G1 X44.317 Y87.213 E2.09517
G1 X44.249 Y86.650 E2.10310
G1 X44.317 Y86.087 E2.11103
G1 X44.518 Y85.557 E2.11896
G1 X44.840 Y85.091 E2.12690
G1 X45.264 Y84.715 E2.13483
G1 X45.766 Y84.452 E2.14276
G1 X46.317 Y84.316 E2.15069
G1 X46.883 Y84.316 E2.15862
G1 X47.434 Y84.452 E2.16655
G1 X47.936 Y84.715 E2.17448
G1 X48.347 Y85.079 E2.18217
G1 X48.680 Y85.552 E2.19026
G1 X48.883 Y86.087 E2.19827
G1 X48.942 Y86.576 E2.20516
G1 X48.501 Y86.650 F10800.000
G1 F1800
G1 X48.446 Y87.105 E2.21157
G1 X48.284 Y87.534 E2.21798
G1 X48.023 Y87.911 E2.22440
G1 X47.680 Y88.215 E2.23081
G1 X47.274 Y88.428 E2.23723
G1 X46.829 Y88.538 E2.24364
G1 X46.371 Y88.538 E2.25006
G1 X45.926 Y88.428 E2.25647
G1 X45.520 Y88.215 E2.26289
G1 X45.188 Y87.921 E2.26908
G1 X44.918 Y87.537 E2.27566
G1 X44.754 Y87.105 E2.28212
G1 X44.699 Y86.650 E2.28854
G1 X44.754 Y86.195 E2.29495
G1 X44.916 Y85.766 E2.30137
G1 X45.177 Y85.389 E2.30778
G1 X45.520 Y85.085 E2.31420
G1 X45.926 Y84.872 E2.32061
G1 X46.371 Y84.762 E2.32703
G1 X46.829 Y84.762 E2.33344
G1 X47.274 Y84.872 E2.33985
G1 X47.680 Y85.085 E2.34627
G1 X48.012 Y85.379 E2.35247
G1 X48.282 Y85.763 E2.35905
G1 X48.446 Y86.195 E2.36551
G1 X48.492 Y86.576 E2.37087
G1 X48.052 Y86.650 F10800.000
G1 F1800
G1 X48.010 Y86.997 E2.37577
G1 X47.886 Y87.325 E2.38067
G1 X47.687 Y87.613 E2.38557
G1 X47.425 Y87.845 E2.39046
G1 X47.115 Y88.007 E2.39536
G1 X46.775 Y88.091 E2.40026
G1 X46.425 Y88.091 E2.40516
G1 X46.085 Y88.007 E2.41005
G1 X45.775 Y87.845 E2.41495
G1 X45.523 Y87.622 E2.41966
G1 X45.315 Y87.326 E2.42473
G1 X45.190 Y86.997 E2.42964
G1 X45.148 Y86.650 E2.43454
G1 X45.190 Y86.303 E2.43944
G1 X45.314 Y85.975 E2.44433
G1 X45.513 Y85.687 E2.44923
G1 X45.775 Y85.455 E2.45413
G1 X46.085 Y85.293 E2.45903
G1 X46.425 Y85.209 E2.46392
G1 X46.775 Y85.209 E2.46882
G1 X47.115 Y85.293 E2.47372
G1 X47.425 Y85.455 E2.47862
G1 X47.677 Y85.678 E2.48333
G1 X47.885 Y85.974 E2.48839
G1 X48.010 Y86.303 E2.49331
G1 X48.043 Y86.576 E2.49715
G1 X48.355 Y86.825 F10800.000
G1 E0.49715 F2400.00000
G92 E0
G1 X46.883 Y75.684 F10800.000
G1 E2.00000 F2400.00000
G1 F1800
G1 X46.317 Y75.684 E2.00793
G1 X45.766 Y75.548 E2.01586
G1 X45.264 Y75.285 E2.02379
G1 X44.853 Y74.921 E2.03148
G1 X44.520 Y74.448 E2.03957
G1 X44.317 Y73.913 E2.04758
G1 X44.249 Y73.350 E2.05551
G1 X44.317 Y72.787 E2.06345
G1 X44.518 Y72.257 E2.07138
G1 X44.840 Y71.791 E2.07931
G1 X45.264 Y71.415 E2.08724
G1 X45.766 Y71.152 E2.09517
G1 X46.317 Y71.016 E2.10310
G1 X46.883 Y71.016 E2.11103
G1 X47.434 Y71.152 E2.11896
G1 X47.936 Y71.415 E2.12690
G1 X48.347 Y71.779 E2.13458
G1 X48.680 Y72.252 E2.14268
G1 X48.883 Y72.787 E2.15069
G1 X48.951 Y73.350 E2.15862
G1 X48.883 Y73.913 E2.16655
G1 X48.682 Y74.443 E2.17448
G1 X48.360 Y74.909 E2.18241
G1 X47.936 Y75.285 E2.19034
G1 X47.434 Y75.548 E2.19827
G1 X46.956 Y75.666 E2.20516
G1 X46.829 Y75.238 F10800.000
G1 F1800
G1 X46.371 Y75.238 E2.21157
G1 X45.926 Y75.128 E2.21798
G1 X45.520 Y74.915 E2.22440
G1 X45.188 Y74.621 E2.23060
G1 X44.918 Y74.237 E2.23718
G1 X44.754 Y73.805 E2.24364
G1 X44.699 Y73.350 E2.25005
G1 X44.754 Y72.895 E2.25647
G1 X44.916 Y72.466 E2.26288
G1 X45.177 Y72.089 E2.26930
G1 X45.520 Y71.785 E2.27571
G1 X45.926 Y71.572 E2.28212
G1 X46.371 Y71.462 E2.28854
G1 X46.829 Y71.462 E2.29495
G1 X47.274 Y71.572 E2.30137
G1 X47.680 Y71.785 E2.30778
G1 X48.012 Y72.079 E2.31398
G1 X48.282 Y72.463 E2.32056
G1 X48.446 Y72.895 E2.32702
G1 X48.501 Y73.350 E2.33344
G1 X48.446 Y73.805 E2.33985
G1 X48.284 Y74.234 E2.34626
G1 X48.023 Y74.611 E2.35268
G1 X47.680 Y74.915 E2.35909
G1 X47.274 Y75.128 E2.36551
G1 X46.902 Y75.220 E2.37087
G1 X46.775 Y74.791 F10800.000
G1 F1800
G1 X46.425 Y74.791 E2.37577
G1 X46.085 Y74.707 E2.38067
G1 X45.775 Y74.545 E2.38557
G1 X45.523 Y74.322 E2.39028
G1 X45.315 Y74.026 E2.39534
G1 X45.190 Y73.697 E2.40025
G1 X45.148 Y73.350 E2.40515
G1 X45.190 Y73.003 E2.41005
G1 X45.314 Y72.675 E2.41495
G1 X45.513 Y72.387 E2.41985
G1 X45.775 Y72.155 E2.42474
G1 X46.085 Y71.993 E2.42964
G1 X46.425 Y71.909 E2.43454
G1 X46.775 Y71.909 E2.43944
G1 X47.115 Y71.993 E2.44433
G1 X47.425 Y72.155 E2.44923
G1 X47.677 Y72.378 E2.45394
G1 X47.885 Y72.674 E2.45901
G1 X48.010 Y73.003 E2.46392
G1 X48.052 Y73.350 E2.46882
G1 X48.010 Y73.697 E2.47372
G1 X47.886 Y74.025 E2.47861
G1 X47.687 Y74.313 E2.48351
G1 X47.425 Y74.545 E2.48841
G1 X47.115 Y74.707 E2.49331
G1 X46.848 Y74.773 E2.49715
G1 X46.638 Y75.113 F10800.000
G1 E0.49715 F2400.00000
G92 E0
G1 X121.049 Y73.350 F10800.000
G1 E2.00000 F2400.00000
G1 F1800
G1 X121.117 Y72.787 E2.00793
G1 X121.312 Y72.274 E2.01562
G1 X121.636 Y71.795 E2.02371
G1 X122.064 Y71.415 E2.03172
G1 X122.566 Y71.152 E2.03965
G1 X123.117 Y71.016 E2.04758
G1 X123.683 Y71.016 E2.05551
G1 X124.234 Y71.152 E2.06345
G1 X124.736 Y71.415 E2.07138
G1 X125.160 Y71.791 E2.07931
G1 X125.482 Y72.257 E2.08724
G1 X125.683 Y72.787 E2.09517
G1 X125.751 Y73.350 E2.10310
G1 X125.683 Y73.913 E2.11103
G1 X125.482 Y74.443 E2.11896
G1 X125.160 Y74.909 E2.12690
G1 X124.736 Y75.285 E2.13483
G1 X124.234 Y75.548 E2.14276
G1 X123.683 Y75.684 E2.15069
G1 X123.117 Y75.684 E2.15862
G1 X122.566 Y75.548 E2.16655
G1 X122.064 Y75.285 E2.17448
G1 X121.640 Y74.909 E2.18242
G1 X121.318 Y74.443 E2.19035
G1 X121.117 Y73.913 E2.19828
G1 X121.058 Y73.424 E2.20516
G1 X121.499 Y73.350 F10800.000
G1 F1800
G1 X121.554 Y72.895 E2.21157
G1 X121.711 Y72.481 E2.21777
G1 X121.974 Y72.091 E2.22435
G1 X122.320 Y71.785 E2.23081
G1 X122.726 Y71.572 E2.23723
G1 X123.171 Y71.462 E2.24364
G1 X123.629 Y71.462 E2.25006
G1 X124.074 Y71.572 E2.25647
G1 X124.480 Y71.785 E2.26289
G1 X124.823 Y72.089 E2.26930
G1 X125.084 Y72.466 E2.27571
G1 X125.246 Y72.895 E2.28213
G1 X125.301 Y73.350 E2.28854
G1 X125.246 Y73.805 E2.29496
G1 X125.084 Y74.234 E2.30137
G1 X124.823 Y74.611 E2.30779
G1 X124.480 Y74.915 E2.31420
G1 X124.074 Y75.128 E2.32062
G1 X123.629 Y75.238 E2.32703
G1 X123.171 Y75.238 E2.33345
G1 X122.726 Y75.128 E2.33986
G1 X122.320 Y74.915 E2.34627
G1 X121.977 Y74.611 E2.35269
G1 X121.716 Y74.234 E2.35910
G1 X121.554 Y73.805 E2.36552
G1 X121.508 Y73.424 E2.37088
G1 X121.948 Y73.350 F10800.000
G1 F1800
G1 X121.990 Y73.003 E2.37578
G1 X122.110 Y72.688 E2.38049
G1 X122.312 Y72.388 E2.38555
G1 X122.575 Y72.155 E2.39047
G1 X122.885 Y71.993 E2.39537
G1 X123.225 Y71.909 E2.40026
G1 X123.575 Y71.909 E2.40516
G1 X123.915 Y71.993 E2.41006
G1 X124.225 Y72.155 E2.41496
G1 X124.487 Y72.387 E2.41986
G1 X124.686 Y72.675 E2.42475
G1 X124.810 Y73.003 E2.42965
G1 X124.852 Y73.350 E2.43455
G1 X124.810 Y73.697 E2.43945
G1 X124.686 Y74.025 E2.44434
G1 X124.487 Y74.313 E2.44924
G1 X124.225 Y74.545 E2.45414
G1 X123.915 Y74.707 E2.45904
G1 X123.575 Y74.791 E2.46393
G1 X123.225 Y74.791 E2.46883
G1 X122.885 Y74.707 E2.47373
G1 X122.575 Y74.545 E2.47863
G1 X122.313 Y74.313 E2.48353
G1 X122.114 Y74.025 E2.48842
G1 X121.990 Y73.697 E2.49332
G1 X121.957 Y73.424 E2.49717
G1 X121.645 Y73.175 F10800.000
G1 E0.49717 F2400.00000
G92 E0
G1 X123.117 Y84.316 F10800.000
G1 E2.00000 F2400.00000
G1 F1800
G1 X123.683 Y84.316 E2.00793
G1 X124.234 Y84.452 E2.01586
G1 X124.736 Y84.715 E2.02379
G1 X125.160 Y85.091 E2.03173
G1 X125.482 Y85.557 E2.03966
G1 X125.683 Y86.087 E2.04759
G1 X125.751 Y86.650 E2.05552
G1 X125.683 Y87.213 E2.06345
G1 X125.482 Y87.743 E2.07138
G1 X125.160 Y88.209 E2.07931
G1 X124.736 Y88.585 E2.08724
G1 X124.234 Y88.848 E2.09518
G1 X123.683 Y88.984 E2.10311
G1 X123.117 Y88.984 E2.11104
G1 X122.566 Y88.848 E2.11897
G1 X122.064 Y88.585 E2.12690
G1 X121.640 Y88.209 E2.13483
G1 X121.318 Y87.743 E2.14276
G1 X121.117 Y87.213 E2.15069
G1 X121.049 Y86.650 E2.15863
G1 X121.117 Y86.087 E2.16656
G1 X121.312 Y85.574 E2.17424
G1 X121.636 Y85.095 E2.18234
G1 X122.064 Y84.715 E2.19035
G1 X122.566 Y84.452 E2.19828
G1 X123.044 Y84.334 E2.20516
G1 X123.171 Y84.762 F10800.000
G1 F1800
G1 X123.629 Y84.762 E2.21157
G1 X124.074 Y84.872 E2.21799
G1 X124.480 Y85.085 E2.22440
G1 X124.823 Y85.389 E2.23082
G1 X125.084 Y85.766 E2.23723
G1 X125.246 Y86.195 E2.24365
G1 X125.301 Y86.650 E2.25006
G1 X125.246 Y87.105 E2.25648
G1 X125.084 Y87.534 E2.26289
G1 X124.823 Y87.911 E2.26930
G1 X124.480 Y88.215 E2.27572
G1 X124.074 Y88.428 E2.28213
G1 X123.629 Y88.538 E2.28855
G1 X123.171 Y88.538 E2.29496
G1 X122.726 Y88.428 E2.30138
G1 X122.320 Y88.215 E2.30779
