; generated by PrusaSlicer 2.0.0+linux64 on 2019-11-27 at 23:33:53

; 

; external perimeters extrusion width = 0.56mm
; perimeters extrusion width = 0.56mm
; infill extrusion width = 0.56mm
; solid infill extrusion width = 0.40mm
; top infill extrusion width = 0.50mm
; first layer extrusion width = 0.50mm

M201 X9000 Y9000 Z100 E10000 ; sets maximum accelerations, mm/sec^2
M203 X300 Y300 Z5 E120 ; sets maximum feedrates, mm/sec
M204 P1500 R1500 T1500 ; sets acceleration (P, T) and retract acceleration (R), mm/sec^2
M205 X10.00 Y10.00 Z0.20 E2.50 ; sets the jerk limits, mm/sec
M205 S0 T0 ; sets the minimum extruding and travel feed rate, mm/sec
M107
M190 S70 ; set bed temperature and wait for it to be reached
M104 S230 ; set temperature
G28 ; home all axes
G1 Z5 F100 ; lift nozzle
; Filament gcode
M109 S230 ; set temperature and wait for it to be reached
G21 ; set units to millimeters
G90 ; use absolute coordinates
M82 ; use absolute distances for extrusion
G92 E0
G1 Z0.450 F10800.000
G1 E-2.00000 F2400.00000
G92 E0
G1 X73.440 Y55.571 F10800.000
G1 E2.00000 F2400.00000
G1 F1800
G1 X74.838 Y54.384 E2.02566
G1 X75.961 Y53.776 E2.04354
G1 X76.714 Y53.493 E2.05478
G1 X77.789 Y53.234 E2.07027
G1 X78.563 Y53.154 E2.08115
G1 X91.337 Y53.152 E2.25990
G1 X92.289 Y53.249 E2.27329
G1 X93.685 Y53.626 E2.29353
G1 X94.948 Y54.253 E2.31326
G1 X95.713 Y54.794 E2.32637
G1 X96.717 Y55.745 E2.34572
G1 X97.573 Y56.962 E2.36654
G1 X98.185 Y58.374 E2.38809
G1 X98.428 Y59.323 E2.40179
G1 X98.562 Y60.679 E2.42085
G1 X98.562 Y99.316 E2.96152
G1 X98.315 Y101.221 E2.98840
G1 X97.612 Y102.972 E3.01480
G1 X96.888 Y104.043 E3.03290
G1 X96.338 Y104.650 E3.04436
G1 X95.499 Y105.381 E3.05992
G1 X94.820 Y105.818 E3.07124
G1 X93.704 Y106.367 E3.08864
G1 X92.479 Y106.709 E3.10643
G1 X91.379 Y106.847 E3.12194
G1 X78.616 Y106.847 E3.30055
G1 X77.820 Y106.772 E3.31173
G1 X76.770 Y106.522 E3.32683
G1 X75.951 Y106.219 E3.33905
G1 X74.744 Y105.555 E3.35833
G1 X73.706 Y104.690 E3.37725
G1 X73.163 Y104.109 E3.38837
G1 X72.449 Y103.074 E3.40596
G1 X72.094 Y102.362 E3.41710
G1 X71.655 Y101.106 E3.43571
G1 X71.464 Y99.790 E3.45432
G1 X71.438 Y60.668 E4.00178
G1 X71.685 Y58.779 E4.02844
G1 X72.336 Y57.120 E4.05337
G1 X73.397 Y55.632 E4.07894
G1 X73.758 Y55.890 F10800.000
G1 F1800
G1 X75.085 Y54.755 E4.10338
G1 X76.165 Y54.173 E4.12055
G1 X76.878 Y53.911 E4.13117
G1 X77.873 Y53.672 E4.14549
G1 X78.578 Y53.600 E4.15541
G1 X91.336 Y53.599 E4.33395
G1 X92.209 Y53.688 E4.34622
G1 X93.533 Y54.046 E4.36541
G1 X94.724 Y54.639 E4.38403
G1 X95.426 Y55.136 E4.39607
G1 X96.379 Y56.036 E4.41441
G1 X97.192 Y57.195 E4.43422
G1 X97.770 Y58.539 E4.45469
G1 X97.991 Y59.419 E4.46739
G1 X98.116 Y60.684 E4.48517
G1 X98.116 Y99.316 E5.02577
G1 X97.881 Y101.115 E5.05116
G1 X97.223 Y102.753 E5.07586
G1 X96.529 Y103.777 E5.09317
G1 X96.020 Y104.336 E5.10375
G1 X95.227 Y105.027 E5.11847
G1 X94.596 Y105.432 E5.12897
G1 X93.535 Y105.954 E5.14551
G1 X92.338 Y106.284 E5.16288
G1 X91.367 Y106.401 E5.17657
G1 X78.618 Y106.401 E5.35497
G1 X77.884 Y106.330 E5.36529
G1 X76.878 Y106.089 E5.37977
G1 X76.131 Y105.811 E5.39092
G1 X74.983 Y105.178 E5.40926
G1 X74.001 Y104.355 E5.42720
G1 X73.501 Y103.816 E5.43748
G1 X72.828 Y102.839 E5.45408
G1 X72.504 Y102.184 E5.46431
G1 X72.086 Y100.989 E5.48202
G1 X71.905 Y99.716 E5.50001
G1 X71.884 Y60.674 E6.04635
G1 X72.119 Y58.885 E6.07160
G1 X72.730 Y57.330 E6.09498
G1 X73.714 Y55.951 E6.11869
G1 X74.075 Y56.208 F10800.000
G1 F1800
G1 X75.377 Y55.099 E6.14263
G1 X76.372 Y54.569 E6.15840
G1 X77.033 Y54.331 E6.16823
G1 X77.952 Y54.111 E6.18145
G1 X78.598 Y54.046 E6.19053
G1 X91.336 Y54.045 E6.36879
G1 X92.125 Y54.126 E6.37989
G1 X93.380 Y54.465 E6.39808
G1 X94.500 Y55.025 E6.41561
G1 X95.140 Y55.479 E6.42658
G1 X96.038 Y56.325 E6.44385
G1 X96.809 Y57.424 E6.46264
G1 X97.351 Y58.693 E6.48194
G1 X97.553 Y59.509 E6.49370
G1 X97.670 Y60.685 E6.51024
G1 X97.670 Y99.315 E7.05081
G1 X97.449 Y101.004 E7.07465
G1 X96.838 Y102.527 E7.09761
G1 X96.177 Y103.504 E7.11411
G1 X95.707 Y104.018 E7.12386
G1 X94.813 Y104.777 E7.14027
G1 X93.789 Y105.351 E7.15670
G1 X93.144 Y105.617 E7.16646
G1 X92.201 Y105.857 E7.18008
G1 X91.355 Y105.955 E7.19199
G1 X78.621 Y105.955 E7.37018
G1 X77.954 Y105.889 E7.37956
G1 X76.986 Y105.656 E7.39350
G1 X76.316 Y105.404 E7.40352
G1 X75.227 Y104.804 E7.42092
G1 X74.300 Y104.024 E7.43787
G1 X73.842 Y103.528 E7.44731
G1 X73.208 Y102.604 E7.46300
G1 X72.915 Y102.010 E7.47226
G1 X72.518 Y100.877 E7.48906
G1 X72.347 Y99.650 E7.50639
G1 X72.331 Y60.676 E8.05179
G1 X72.551 Y58.996 E8.07549
G1 X73.123 Y57.543 E8.09734
G1 X74.031 Y56.269 E8.11924
G1 X74.392 Y56.526 F10800.000
G1 F1800
G1 X74.427 Y56.476 E8.12009
G1 X75.622 Y55.472 E8.14193
G1 X76.570 Y54.970 E8.15694
G1 X77.185 Y54.753 E8.16607
G1 X78.608 Y54.492 E8.18632
G1 X91.336 Y54.491 E8.36442
G1 X92.041 Y54.565 E8.37435
G1 X93.223 Y54.883 E8.39147
G1 X94.277 Y55.412 E8.40798
G1 X94.852 Y55.820 E8.41783
G1 X95.699 Y56.615 E8.43409
G1 X96.424 Y57.650 E8.45178
G1 X96.932 Y58.847 E8.46998
G1 X97.113 Y59.589 E8.48066
G1 X97.223 Y60.688 E8.49611
G1 X97.223 Y99.314 E9.03663
G1 X97.017 Y100.890 E9.05887
G1 X96.452 Y102.303 E9.08017
G1 X95.823 Y103.231 E9.09585
G1 X95.394 Y103.699 E9.10474
G1 X94.556 Y104.412 E9.12014
G1 X93.574 Y104.960 E9.13588
G1 X92.990 Y105.198 E9.14469
G1 X92.072 Y105.429 E9.15794
G1 X91.352 Y105.509 E9.16808
G1 X78.624 Y105.508 E9.34618
G1 X78.024 Y105.448 E9.35463
G1 X77.099 Y105.224 E9.36794
G1 X76.504 Y104.999 E9.37684
G1 X75.471 Y104.430 E9.39335
G1 X74.187 Y103.244 E9.41781
G1 X73.592 Y102.377 E9.43253
G1 X73.330 Y101.844 E9.44084
G1 X72.951 Y100.769 E9.45679
G1 X72.790 Y99.591 E9.47342
G1 X72.777 Y60.681 E10.01791
G1 X72.983 Y59.110 E10.04008
G1 X73.513 Y57.759 E10.06040
G1 X74.348 Y56.587 E10.08053
G1 E8.08053 F2400.00000
G92 E0
G1 X92.686 Y100.185 F10800.000
G1 E2.00000 F2400.00000
G1 F1800
G1 X92.426 Y100.564 E2.00643
G1 X92.064 Y100.879 E2.01314
G1 X91.685 Y101.079 E2.01915
G1 X91.245 Y101.191 E2.02549
G1 X90.789 Y101.195 E2.03187
G1 X90.340 Y101.089 E2.03832
G1 X89.910 Y100.863 E2.04512
G1 X89.588 Y100.577 E2.05115
G1 X89.326 Y100.206 E2.05751
G1 X89.159 Y99.779 E2.06392
G1 X89.099 Y99.321 E2.07038
G1 X89.158 Y98.835 E2.07723
G1 X89.326 Y98.405 E2.08369
G1 X89.588 Y98.034 E2.09006
G1 X89.908 Y97.750 E2.09603
G1 X90.311 Y97.533 E2.10245
G1 X90.786 Y97.416 E2.10929
G1 X91.242 Y97.420 E2.11567
G1 X91.659 Y97.523 E2.12168
G1 X92.086 Y97.744 E2.12841
G1 X92.428 Y98.051 E2.13484
G1 X92.686 Y98.427 E2.14121
G1 X92.847 Y98.853 E2.14759
G1 X92.899 Y99.283 E2.15365
G1 X92.839 Y99.779 E2.16065
G1 X92.712 Y100.115 E2.16567
G1 X92.287 Y99.977 F10800.000
G1 F1800
G1 X92.090 Y100.265 E2.17056
G1 X91.810 Y100.509 E2.17574
G1 X91.524 Y100.659 E2.18028
G1 X91.187 Y100.745 E2.18513
G1 X90.839 Y100.748 E2.19000
G1 X90.498 Y100.667 E2.19491
G1 X90.166 Y100.493 E2.20016
G1 X89.923 Y100.278 E2.20470
G1 X89.722 Y99.993 E2.20958
G1 X89.595 Y99.667 E2.21448
G1 X89.549 Y99.319 E2.21939
G1 X89.594 Y98.945 E2.22466
G1 X89.722 Y98.618 E2.22957
G1 X89.923 Y98.333 E2.23445
G1 X90.165 Y98.119 E2.23897
G1 X90.473 Y97.953 E2.24387
G1 X90.838 Y97.863 E2.24913
G1 X91.186 Y97.866 E2.25400
G1 X91.501 Y97.944 E2.25854
G1 X91.830 Y98.115 E2.26373
G1 X92.091 Y98.347 E2.26862
G1 X92.287 Y98.634 E2.27349
G1 X92.410 Y98.960 E2.27835
G1 X92.449 Y99.283 E2.28291
G1 X92.403 Y99.672 E2.28839
G1 X92.314 Y99.907 E2.29190
G1 X92.476 Y100.271 F10800.000
G1 E0.29190 F2400.00000
G92 E0
G1 X92.857 Y97.835 F10800.000
G1 E2.00000 F2400.00000
G1 F1800
G1 X92.341 Y97.374 E2.00969
G1 X91.818 Y97.102 E2.01794
G1 X91.298 Y96.975 E2.02542
G1 X90.734 Y96.970 E2.03333
G1 X90.150 Y97.114 E2.04174
G1 X89.651 Y97.382 E2.04967
G1 X89.143 Y97.832 E2.05917
G1 X89.143 Y87.479 E2.20404
G1 X89.655 Y87.933 E2.21361
G1 X90.183 Y88.210 E2.22196
G1 X90.739 Y88.341 E2.22996
G1 X91.303 Y88.336 E2.23784
G1 X91.845 Y88.198 E2.24568
G1 X92.318 Y87.950 E2.25315
G1 X92.857 Y87.480 E2.26316
G1 X92.857 Y97.760 E2.40702
G1 E0.40702 F2400.00000
G92 E0
G1 X91.245 Y87.891 F10800.000
G1 E2.00000 F2400.00000
G1 F1800
G1 X90.789 Y87.895 E2.00638
G1 X90.340 Y87.789 E2.01283
G1 X89.910 Y87.563 E2.01963
G1 X89.588 Y87.277 E2.02566
G1 X89.326 Y86.906 E2.03202
G1 X89.159 Y86.479 E2.03843
G1 X89.099 Y86.021 E2.04489
G1 X89.158 Y85.535 E2.05174
G1 X89.326 Y85.105 E2.05820
G1 X89.590 Y84.731 E2.06461
G1 X89.933 Y84.433 E2.07097
G1 X90.315 Y84.233 E2.07700
G1 X90.786 Y84.116 E2.08379
G1 X91.242 Y84.120 E2.09018
G1 X91.659 Y84.223 E2.09619
G1 X92.086 Y84.444 E2.10291
G1 X92.428 Y84.751 E2.10934
G1 X92.686 Y85.127 E2.11572
G1 X92.847 Y85.553 E2.12210
G1 X92.899 Y85.983 E2.12815
G1 X92.839 Y86.479 E2.13516
G1 X92.686 Y86.885 E2.14122
G1 X92.426 Y87.264 E2.14765
G1 X92.064 Y87.579 E2.15437
G1 X91.685 Y87.779 E2.16037
G1 X91.318 Y87.872 E2.16567
G1 X91.187 Y87.445 F10800.000
G1 F1800
G1 X90.839 Y87.448 E2.17054
G1 X90.498 Y87.367 E2.17545
G1 X90.166 Y87.193 E2.18069
G1 X89.923 Y86.978 E2.18524
G1 X89.722 Y86.693 E2.19011
G1 X89.595 Y86.367 E2.19501
G1 X89.549 Y86.019 E2.19992
G1 X89.594 Y85.645 E2.20519
G1 X89.722 Y85.318 E2.21010
G1 X89.924 Y85.032 E2.21500
G1 X90.187 Y84.804 E2.21988
G1 X90.474 Y84.653 E2.22442
G1 X90.838 Y84.563 E2.22966
G1 X91.186 Y84.566 E2.23454
G1 X91.501 Y84.644 E2.23907
G1 X91.830 Y84.815 E2.24426
G1 X92.091 Y85.047 E2.24915
G1 X92.287 Y85.334 E2.25402
G1 X92.410 Y85.660 E2.25889
G1 X92.449 Y85.983 E2.26344
G1 X92.403 Y86.372 E2.26893
G1 X92.287 Y86.677 E2.27348
G1 X92.090 Y86.965 E2.27837
G1 X91.810 Y87.209 E2.28356
G1 X91.524 Y87.359 E2.28809
G1 X91.260 Y87.426 E2.29190
G1 X91.053 Y87.765 F10800.000
G1 E0.29190 F2400.00000
G92 E0
G1 X93.233 Y85.459 F10800.000
G1 E2.00000 F2400.00000
G1 F1800
G1 X93.304 Y86.047 E2.00830
G1 X93.304 Y99.264 E2.19324
G1 X93.233 Y99.852 E2.20154
G1 X93.040 Y100.363 E2.20918
G1 X92.692 Y100.857 E2.21763
G1 X92.318 Y101.188 E2.22462
G1 X91.831 Y101.448 E2.23235
G1 X91.297 Y101.584 E2.24005
G1 X90.749 Y101.588 E2.24772
G1 X90.166 Y101.446 E2.25611
G1 X89.683 Y101.189 E2.26377
G1 X89.272 Y100.821 E2.27149
G1 X88.988 Y100.410 E2.27849
G1 X88.767 Y99.847 E2.28695
G1 X88.696 Y99.264 E2.29517
G1 X88.696 Y86.047 E2.48011
G1 X88.767 Y85.459 E2.48841
G1 X88.962 Y84.943 E2.49612
G1 X89.273 Y84.489 E2.50383
G1 X89.683 Y84.122 E2.51153
G1 X90.169 Y83.863 E2.51924
G1 X90.700 Y83.728 E2.52690
G1 X91.300 Y83.728 E2.53529
G1 X91.831 Y83.863 E2.54295
G1 X92.318 Y84.123 E2.55068
G1 X92.692 Y84.454 E2.55767
G1 X93.040 Y84.948 E2.56612
G1 X93.206 Y85.388 E2.57272
G1 X93.438 Y84.737 F10800.000
G1 F1800
G1 X93.669 Y85.352 E2.58191
G1 X93.750 Y86.021 E2.59134
G1 X93.750 Y99.290 E2.77703
G1 X93.669 Y99.959 E2.78646
G1 X93.438 Y100.574 E2.79565
G1 X93.027 Y101.157 E2.80563
G1 X92.574 Y101.557 E2.81408
G1 X91.993 Y101.867 E2.82330
G1 X91.355 Y102.029 E2.83252
G1 X90.697 Y102.035 E2.84171
G1 X90.006 Y101.867 E2.85167
G1 X89.426 Y101.558 E2.86087
G1 X88.935 Y101.118 E2.87009
G1 X88.592 Y100.621 E2.87854
G1 X88.331 Y99.957 E2.88852
G1 X88.250 Y99.290 E2.89792
G1 X88.250 Y86.021 E3.08362
G1 X88.331 Y85.352 E3.09304
G1 X88.563 Y84.735 E3.10226
G1 X88.935 Y84.192 E3.11147
G1 X89.426 Y83.753 E3.12069
G1 X90.007 Y83.444 E3.12990
G1 X90.644 Y83.282 E3.13910
G1 X91.356 Y83.282 E3.14906
G1 X91.993 Y83.444 E3.15825
G1 X92.574 Y83.754 E3.16748
G1 X93.027 Y84.154 E3.17593
G1 X93.394 Y84.676 E3.18486
G1 X93.169 Y85.159 F10800.000
G1 X93.056 Y86.607
G1 F1800
G1 X93.027 Y86.767 E3.18536
G1 X92.997 Y86.927 E3.18605
G1 X92.968 Y87.087 E3.18694
G1 X92.939 Y87.026 F10800.000
G1 F1800
G1 X92.836 Y87.142 E3.18758
G1 X92.733 Y87.258 E3.18804
G1 X92.939 Y87.026 F10800.000
G1 F1800
G1 X93.080 Y86.846 E3.18902
G1 X92.723 Y88.657 F10800.000
G1 F1800
G1 X92.369 Y88.302 E3.19609
G1 X91.949 Y88.518 E3.20275
G1 X92.523 Y89.091 E3.21419
G1 X92.523 Y89.727 E3.22315
G1 X91.442 Y88.646 E3.24469
G1 X91.346 Y88.671 E3.24608
G1 X90.835 Y88.675 E3.25328
G1 X92.523 Y90.363 E3.28692
G1 X92.523 Y90.999 E3.29588
G1 X90.034 Y88.510 E3.34548
G1 X89.477 Y88.218 E3.35433
G1 X89.477 Y88.589 E3.35957
G1 X92.523 Y91.634 E3.42026
G1 X92.523 Y92.270 E3.42922
G1 X89.477 Y89.225 E3.48991
G1 X89.477 Y89.861 E3.49887
G1 X92.523 Y92.906 E3.55956
G1 X92.523 Y93.541 E3.56851
G1 X89.477 Y90.496 E3.62920
G1 X89.477 Y91.132 E3.63816
G1 X92.523 Y94.177 E3.69885
G1 X92.523 Y94.813 E3.70781
G1 X89.477 Y91.768 E3.76850
G1 X89.477 Y92.404 E3.77746
G1 X92.523 Y95.449 E3.83815
G1 X92.523 Y96.084 E3.84711
G1 X89.477 Y93.039 E3.90780
G1 X89.477 Y93.675 E3.91676
G1 X92.523 Y96.720 E3.97745
G1 X92.523 Y97.091 E3.98268
G1 X91.972 Y96.806 E3.99141
G1 X89.477 Y94.311 E4.04113
G1 X89.477 Y94.946 E4.05009
G1 X91.170 Y96.639 E4.08382
G1 X90.694 Y96.634 E4.09052
G1 X90.562 Y96.667 E4.09244
G1 X89.477 Y95.582 E4.11406
G1 X89.477 Y96.218 E4.12302
G1 X90.052 Y96.793 E4.13447
G1 X89.634 Y97.011 E4.14112
G1 X89.277 Y96.653 E4.14825
G1 X89.267 Y98.055 F10800.000
G1 F1800
G1 X88.920 Y98.467 E4.14975
G1 X88.974 Y98.544 F10800.000
G1 F1800
G1 X88.944 Y98.702 E4.15025
G1 X88.974 Y98.544 F10800.000
G1 F1800
G1 X89.004 Y98.385 E4.15094
G1 X89.034 Y98.227 E4.15183
G1 E2.15183 F2400.00000
G92 E0
G1 X92.743 Y98.068 F10800.000
G1 E2.00000 F2400.00000
G1 F1800
G1 X92.839 Y98.178 E2.00042
G1 X92.936 Y98.288 E2.00099
G1 X93.080 Y98.474 E2.00193
G1 X93.056 Y98.705 F10800.000
G1 F1800
G1 X92.970 Y98.236 E2.00338
G1 E0.00338 F2400.00000
G92 E0
G1 X89.267 Y87.256 F10800.000
G1 E2.00000 F2400.00000
G1 F1800
G1 X88.920 Y86.844 E2.00151
G1 X88.974 Y86.767 F10800.000
G1 F1800
G1 X88.944 Y86.609 E2.00200
G1 X88.974 Y86.767 F10800.000
G1 F1800
G1 X89.004 Y86.926 E2.00270
G1 X89.034 Y87.084 E2.00358
G1 E0.00358 F2400.00000
G92 E0
G1 X79.242 Y97.420 F10800.000
G1 E2.00000 F2400.00000
G1 F1800
G1 X79.659 Y97.523 E2.00601
G1 X80.086 Y97.744 E2.01273
G1 X80.428 Y98.051 E2.01916
G1 X80.686 Y98.427 E2.02554
G1 X80.847 Y98.853 E2.03191
G1 X80.899 Y99.283 E2.03797
G1 X80.839 Y99.779 E2.04497
G1 X80.686 Y100.185 E2.05104
G1 X80.426 Y100.564 E2.05747
G1 X80.064 Y100.879 E2.06419
G1 X79.685 Y101.079 E2.07019
G1 X79.245 Y101.191 E2.07654
G1 X78.789 Y101.195 E2.08291
G1 X78.340 Y101.089 E2.08937
G1 X77.910 Y100.863 E2.09616
G1 X77.588 Y100.577 E2.10219
G1 X77.326 Y100.206 E2.10855
G1 X77.159 Y99.779 E2.11497
G1 X77.099 Y99.321 E2.12143
G1 X77.158 Y98.835 E2.12827
G1 X77.326 Y98.405 E2.13474
G1 X77.588 Y98.034 E2.14110
G1 X77.908 Y97.750 E2.14708
G1 X78.311 Y97.533 E2.15349
G1 X78.786 Y97.416 E2.16033
G1 X79.167 Y97.420 E2.16567
G1 X79.186 Y97.866 F10800.000
G1 F1800
G1 X79.501 Y97.944 E2.17020
G1 X79.830 Y98.115 E2.17540
G1 X80.091 Y98.347 E2.18028
G1 X80.287 Y98.634 E2.18515
G1 X80.410 Y98.960 E2.19002
G1 X80.449 Y99.283 E2.19457
G1 X80.403 Y99.672 E2.20006
G1 X80.287 Y99.977 E2.20462
G1 X80.090 Y100.265 E2.20950
G1 X79.810 Y100.509 E2.21469
G1 X79.524 Y100.659 E2.21922
G1 X79.187 Y100.745 E2.22408
G1 X78.839 Y100.748 E2.22895
G1 X78.498 Y100.667 E2.23386
G1 X78.166 Y100.493 E2.23911
G1 X77.923 Y100.278 E2.24365
G1 X77.722 Y99.993 E2.24853
G1 X77.595 Y99.667 E2.25342
G1 X77.549 Y99.319 E2.25834
G1 X77.594 Y98.945 E2.26360
G1 X77.722 Y98.618 E2.26852
G1 X77.923 Y98.333 E2.27339
G1 X78.165 Y98.119 E2.27792
G1 X78.473 Y97.953 E2.28281
G1 X78.838 Y97.863 E2.28808
G1 X79.111 Y97.866 E2.29190
G1 X79.381 Y97.607 F10800.000
G1 X80.857 Y97.835
G1 F1800
G1 X80.341 Y97.374 E2.30159
G1 X79.818 Y97.102 E2.30984
G1 X79.298 Y96.975 E2.31732
G1 X78.734 Y96.970 E2.32523
G1 X78.150 Y97.114 E2.33364
G1 X77.651 Y97.382 E2.34157
G1 X77.143 Y97.832 E2.35107
G1 X77.143 Y87.479 E2.49594
G1 X77.655 Y87.933 E2.50551
G1 X78.183 Y88.210 E2.51386
G1 X78.739 Y88.341 E2.52186
G1 X79.303 Y88.336 E2.52974
G1 X79.845 Y88.198 E2.53758
G1 X80.318 Y87.950 E2.54505
G1 X80.857 Y87.480 E2.55506
G1 X80.857 Y97.760 E2.69892
G1 E0.69892 F2400.00000
G92 E0
G1 X79.245 Y87.891 F10800.000
G1 E2.00000 F2400.00000
G1 F1800
G1 X78.789 Y87.895 E2.00638
G1 X78.340 Y87.789 E2.01283
G1 X77.910 Y87.563 E2.01963
G1 X77.588 Y87.277 E2.02566
G1 X77.326 Y86.906 E2.03202
G1 X77.159 Y86.479 E2.03843
G1 X77.099 Y86.021 E2.04489
G1 X77.158 Y85.535 E2.05174
G1 X77.326 Y85.105 E2.05820
G1 X77.590 Y84.731 E2.06461
