; generated by PrusaSlicer 2.0.0+linux64 on 2019-12-07 at 16:48:39

; 

; external perimeters extrusion width = 0.56mm
; perimeters extrusion width = 0.56mm
; infill extrusion width = 0.56mm
; solid infill extrusion width = 0.40mm
; top infill extrusion width = 0.50mm
; first layer extrusion width = 0.50mm

M201 X9000 Y9000 Z100 E10000 ; sets maximum accelerations, mm/sec^2
M203 X300 Y300 Z5 E120 ; sets maximum feedrates, mm/sec
M204 P1500 R1500 T1500 ; sets acceleration (P, T) and retract acceleration (R), mm/sec^2
M205 X10.00 Y10.00 Z0.20 E2.50 ; sets the jerk limits, mm/sec
M205 S0 T0 ; sets the minimum extruding and travel feed rate, mm/sec
M107
M190 S70 ; set bed temperature and wait for it to be reached
M104 S230 ; set temperature
G28 ; home all axes
G1 Z5 F100 ; lift nozzle
; Filament gcode
M109 S230 ; set temperature and wait for it to be reached
G21 ; set units to millimeters
G90 ; use absolute coordinates
M82 ; use absolute distances for extrusion
G92 E0
G1 Z0.450 F10800.000
G1 E-2.00000 F2400.00000
G92 E0
G1 X46.032 Y48.772 F10800.000
G1 E2.00000 F2400.00000
G1 F1800
G1 X46.760 Y47.551 E2.01990
G1 X47.595 Y46.644 E2.03715
G1 X48.295 Y46.093 E2.04961
G1 X49.447 Y45.458 E2.06802
G1 X50.607 Y45.088 E2.08506
G1 X51.889 Y44.939 E2.10312
G1 X118.005 Y44.938 E3.02832
G1 X119.347 Y45.078 E3.04719
G1 X120.513 Y45.443 E3.06429
G1 X121.688 Y46.082 E3.08300
G1 X122.401 Y46.640 E3.09568
G1 X123.221 Y47.526 E3.11256
G1 X123.930 Y48.691 E3.13166
G1 X124.379 Y49.963 E3.15053
G1 X124.553 Y51.210 E3.16815
G1 X124.559 Y108.658 E3.97205
G1 X124.392 Y109.986 E3.99078
G1 X123.948 Y111.271 E4.00980
G1 X123.230 Y112.462 E4.02926
G1 X122.405 Y113.356 E4.04629
G1 X121.705 Y113.907 E4.05875
G1 X120.553 Y114.542 E4.07717
G1 X119.393 Y114.912 E4.09420
G1 X118.111 Y115.061 E4.11226
G1 X51.974 Y115.062 E5.03775
G1 X50.576 Y114.906 E5.05743
G1 X49.272 Y114.468 E5.07668
G1 X48.055 Y113.743 E5.09650
G1 X47.144 Y112.905 E5.11382
G1 X46.596 Y112.210 E5.12621
G1 X45.960 Y111.057 E5.14463
G1 X45.589 Y109.898 E5.16166
G1 X45.440 Y108.627 E5.17958
G1 X45.438 Y51.468 E5.97942
G1 X45.595 Y50.071 E5.99910
G1 X46.008 Y48.844 E6.01722
G1 X46.430 Y48.986 F10800.000
G1 F1800
G1 X47.126 Y47.807 E6.03639
G1 X47.914 Y46.956 E6.05261
G1 X48.545 Y46.463 E6.06382
G1 X49.626 Y45.868 E6.08108
G1 X50.702 Y45.524 E6.09689
G1 X51.909 Y45.385 E6.11389
G1 X118.005 Y45.384 E7.03881
G1 X119.262 Y45.516 E7.05650
G1 X120.354 Y45.860 E7.07251
G1 X121.454 Y46.462 E7.09006
G1 X122.099 Y46.969 E7.10154
G1 X122.864 Y47.793 E7.11728
G1 X123.529 Y48.886 E7.13518
G1 X123.947 Y50.075 E7.15282
G1 X124.109 Y51.254 E7.16946
G1 X124.114 Y108.635 E7.97243
G1 X123.958 Y109.880 E7.98998
G1 X123.540 Y111.089 E8.00789
G1 X122.865 Y112.206 E8.02615
G1 X122.086 Y113.044 E8.04216
G1 X121.455 Y113.537 E8.05337
G1 X120.374 Y114.132 E8.07063
G1 X119.298 Y114.476 E8.08644
G1 X118.091 Y114.615 E8.10344
G1 X51.975 Y114.616 E9.02863
G1 X50.669 Y114.469 E9.04702
G1 X49.447 Y114.057 E9.06507
G1 X48.307 Y113.374 E9.08367
G1 X47.456 Y112.586 E9.09990
G1 X46.963 Y111.955 E9.11110
G1 X46.370 Y110.879 E9.12830
G1 X46.025 Y109.803 E9.14411
G1 X45.885 Y108.606 E9.16097
G1 X45.884 Y51.470 E9.96050
G1 X46.032 Y50.164 E9.97889
G1 X46.406 Y49.057 E9.99524
G1 X46.827 Y49.200 F10800.000
G1 F1800
G1 X46.854 Y49.122 E9.99640
G1 X47.492 Y48.063 E10.01371
G1 X48.229 Y47.272 E10.02883
G1 X48.793 Y46.834 E10.03882
G1 X49.800 Y46.279 E10.05492
G1 X50.799 Y45.959 E10.06958
G1 X51.924 Y45.831 E10.08544
G1 X118.005 Y45.830 E11.01013
G1 X119.178 Y45.955 E11.02665
G1 X120.191 Y46.275 E11.04151
G1 X121.215 Y46.839 E11.05787
G1 X121.794 Y47.295 E11.06819
G1 X122.505 Y48.059 E11.08278
G1 X123.126 Y49.078 E11.09949
G1 X123.517 Y50.192 E11.11601
G1 X123.664 Y51.297 E11.13160
G1 X123.668 Y108.614 E11.93366
G1 X123.524 Y109.775 E11.95004
G1 X123.134 Y110.904 E11.96675
G1 X122.502 Y111.945 E11.98380
G1 X121.771 Y112.728 E11.99879
G1 X121.207 Y113.166 E12.00877
G1 X120.200 Y113.721 E12.02487
G1 X119.201 Y114.041 E12.03954
G1 X118.076 Y114.169 E12.05539
G1 X51.976 Y114.169 E12.98035
G1 X50.761 Y114.033 E12.99746
G1 X49.622 Y113.646 E13.01430
G1 X48.563 Y113.008 E13.03161
G1 X47.772 Y112.271 E13.04673
G1 X47.337 Y111.711 E13.05665
G1 X46.780 Y110.704 E13.07275
G1 X46.460 Y109.706 E13.08741
G1 X46.331 Y108.585 E13.10320
G1 X46.331 Y51.476 E13.90235
G1 X46.468 Y50.257 E13.91953
G1 X46.803 Y49.271 E13.93409
G1 X47.224 Y49.415 F10800.000
G1 F1800
G1 X47.265 Y49.296 E13.93585
G1 X47.858 Y48.319 E13.95185
G1 X48.547 Y47.586 E13.96592
G1 X49.070 Y47.187 E13.97512
G1 X49.972 Y46.691 E13.98953
G1 X50.892 Y46.396 E14.00305
G1 X51.940 Y46.277 E14.01781
G1 X118.004 Y46.277 E14.94228
G1 X119.091 Y46.392 E14.95757
G1 X120.028 Y46.691 E14.97133
G1 X120.977 Y47.217 E14.98651
G1 X121.491 Y47.623 E14.99568
G1 X122.145 Y48.322 E15.00908
G1 X122.724 Y49.272 E15.02464
G1 X123.084 Y50.301 E15.03990
G1 X123.219 Y51.334 E15.05447
G1 X123.222 Y108.593 E15.85573
G1 X123.090 Y109.673 E15.87095
G1 X122.728 Y110.720 E15.88646
G1 X122.139 Y111.685 E15.90227
G1 X121.453 Y112.414 E15.91628
G1 X120.962 Y112.793 E15.92496
G1 X120.028 Y113.309 E15.93989
G1 X119.108 Y113.604 E15.95341
G1 X118.060 Y113.723 E15.96817
G1 X51.978 Y113.723 E16.89289
G1 X50.853 Y113.596 E16.90873
G1 X49.796 Y113.235 E16.92436
G1 X48.819 Y112.642 E16.94035
G1 X48.086 Y111.953 E16.95443
G1 X47.707 Y111.462 E16.96311
G1 X47.193 Y110.532 E16.97798
G1 X46.897 Y109.613 E16.99150
G1 X46.778 Y108.569 E17.00620
G1 X46.777 Y51.478 E17.80510
G1 X46.904 Y50.353 E17.82094
G1 X47.200 Y49.486 E17.83376
G1 E15.83376 F2400.00000
G92 E0
G1 X111.912 Y103.416 F10800.000
G1 E2.00000 F2400.00000
G1 F1800
G1 X112.240 Y102.941 E2.00808
G1 X112.664 Y102.565 E2.01601
G1 X113.166 Y102.302 E2.02394
G1 X113.717 Y102.166 E2.03187
G1 X114.283 Y102.166 E2.03981
G1 X114.834 Y102.302 E2.04774
G1 X115.336 Y102.565 E2.05567
G1 X115.760 Y102.941 E2.06360
G1 X116.082 Y103.407 E2.07153
G1 X116.283 Y103.937 E2.07946
G1 X116.351 Y104.500 E2.08739
G1 X116.283 Y105.063 E2.09532
G1 X116.082 Y105.593 E2.10326
G1 X115.760 Y106.059 E2.11119
G1 X115.336 Y106.435 E2.11912
G1 X114.834 Y106.698 E2.12705
G1 X114.283 Y106.834 E2.13498
G1 X113.717 Y106.834 E2.14291
G1 X113.166 Y106.698 E2.15084
G1 X112.664 Y106.435 E2.15878
G1 X112.240 Y106.059 E2.16671
G1 X111.918 Y105.593 E2.17464
G1 X111.717 Y105.063 E2.18257
G1 X111.649 Y104.500 E2.19050
G1 X111.713 Y103.972 E2.19794
G1 X111.887 Y103.487 E2.20516
G1 X112.313 Y103.622 F10800.000
G1 F1800
G1 X112.577 Y103.239 E2.21166
G1 X112.920 Y102.935 E2.21808
G1 X113.326 Y102.722 E2.22449
G1 X113.771 Y102.612 E2.23090
G1 X114.229 Y102.612 E2.23732
G1 X114.674 Y102.722 E2.24373
G1 X115.080 Y102.935 E2.25015
G1 X115.423 Y103.239 E2.25656
G1 X115.684 Y103.616 E2.26298
G1 X115.846 Y104.045 E2.26939
G1 X115.901 Y104.500 E2.27581
G1 X115.846 Y104.955 E2.28222
G1 X115.684 Y105.384 E2.28864
G1 X115.423 Y105.761 E2.29505
G1 X115.080 Y106.065 E2.30146
G1 X114.674 Y106.278 E2.30788
G1 X114.229 Y106.388 E2.31429
G1 X113.771 Y106.388 E2.32071
G1 X113.326 Y106.278 E2.32712
G1 X112.920 Y106.065 E2.33354
G1 X112.577 Y105.761 E2.33995
G1 X112.316 Y105.384 E2.34637
G1 X112.154 Y104.955 E2.35278
G1 X112.099 Y104.500 E2.35919
G1 X112.150 Y104.075 E2.36518
G1 X112.287 Y103.692 E2.37087
G1 X112.713 Y103.827 F10800.000
G1 F1800
G1 X112.913 Y103.537 E2.37580
G1 X113.175 Y103.305 E2.38070
G1 X113.485 Y103.143 E2.38560
G1 X113.825 Y103.059 E2.39050
G1 X114.175 Y103.059 E2.39540
G1 X114.515 Y103.143 E2.40029
G1 X114.825 Y103.305 E2.40519
G1 X115.087 Y103.537 E2.41009
G1 X115.286 Y103.825 E2.41499
G1 X115.410 Y104.153 E2.41988
G1 X115.452 Y104.500 E2.42478
G1 X115.410 Y104.847 E2.42968
G1 X115.286 Y105.175 E2.43458
G1 X115.087 Y105.463 E2.43947
G1 X114.825 Y105.695 E2.44437
G1 X114.515 Y105.857 E2.44927
G1 X114.175 Y105.941 E2.45417
G1 X113.825 Y105.941 E2.45907
G1 X113.485 Y105.857 E2.46396
G1 X113.175 Y105.695 E2.46886
G1 X112.913 Y105.463 E2.47376
G1 X112.714 Y105.175 E2.47866
G1 X112.590 Y104.847 E2.48355
G1 X112.548 Y104.500 E2.48845
G1 X112.587 Y104.179 E2.49298
G1 X112.688 Y103.898 E2.49716
G1 X112.525 Y103.530 F10800.000
G1 E0.49716 F2400.00000
G92 E0
G1 X113.717 Y57.834 F10800.000
G1 E2.00000 F2400.00000
G1 F1800
G1 X113.166 Y57.698 E2.00793
G1 X112.664 Y57.435 E2.01586
G1 X112.240 Y57.059 E2.02379
G1 X111.918 Y56.593 E2.03173
G1 X111.717 Y56.063 E2.03966
G1 X111.649 Y55.500 E2.04759
G1 X111.717 Y54.937 E2.05552
G1 X111.918 Y54.407 E2.06345
G1 X112.240 Y53.941 E2.07138
G1 X112.664 Y53.565 E2.07931
G1 X113.166 Y53.302 E2.08724
G1 X113.717 Y53.166 E2.09518
G1 X114.283 Y53.166 E2.10311
G1 X114.834 Y53.302 E2.11104
G1 X115.336 Y53.565 E2.11897
G1 X115.760 Y53.941 E2.12690
G1 X116.082 Y54.407 E2.13483
G1 X116.283 Y54.937 E2.14276
G1 X116.351 Y55.500 E2.15069
G1 X116.283 Y56.063 E2.15863
G1 X116.082 Y56.593 E2.16656
G1 X115.760 Y57.059 E2.17449
G1 X115.336 Y57.435 E2.18242
G1 X114.834 Y57.698 E2.19035
G1 X114.283 Y57.834 E2.19828
G1 X113.792 Y57.834 E2.20516
G1 X113.771 Y57.388 F10800.000
G1 F1800
G1 X113.326 Y57.278 E2.21158
G1 X112.920 Y57.065 E2.21799
G1 X112.577 Y56.761 E2.22441
G1 X112.316 Y56.384 E2.23082
G1 X112.154 Y55.955 E2.23724
G1 X112.099 Y55.500 E2.24365
G1 X112.154 Y55.045 E2.25007
G1 X112.316 Y54.616 E2.25648
G1 X112.577 Y54.239 E2.26289
G1 X112.920 Y53.935 E2.26931
G1 X113.326 Y53.722 E2.27572
G1 X113.771 Y53.612 E2.28214
G1 X114.229 Y53.612 E2.28855
G1 X114.674 Y53.722 E2.29497
G1 X115.080 Y53.935 E2.30138
G1 X115.423 Y54.239 E2.30780
G1 X115.684 Y54.616 E2.31421
G1 X115.846 Y55.045 E2.32063
G1 X115.901 Y55.500 E2.32704
G1 X115.846 Y55.955 E2.33345
G1 X115.684 Y56.384 E2.33987
G1 X115.423 Y56.761 E2.34628
G1 X115.080 Y57.065 E2.35270
G1 X114.674 Y57.278 E2.35911
G1 X114.229 Y57.388 E2.36553
G1 X113.846 Y57.388 E2.37089
G1 X113.825 Y56.941 F10800.000
G1 F1800
G1 X113.485 Y56.857 E2.37579
G1 X113.175 Y56.695 E2.38069
G1 X112.913 Y56.463 E2.38558
G1 X112.714 Y56.175 E2.39048
G1 X112.590 Y55.847 E2.39538
G1 X112.548 Y55.500 E2.40028
G1 X112.590 Y55.153 E2.40518
G1 X112.714 Y54.825 E2.41007
G1 X112.913 Y54.537 E2.41497
G1 X113.175 Y54.305 E2.41987
G1 X113.485 Y54.143 E2.42477
G1 X113.825 Y54.059 E2.42966
G1 X114.175 Y54.059 E2.43456
G1 X114.515 Y54.143 E2.43946
G1 X114.825 Y54.305 E2.44436
G1 X115.087 Y54.537 E2.44925
G1 X115.286 Y54.825 E2.45415
G1 X115.410 Y55.153 E2.45905
G1 X115.452 Y55.500 E2.46395
G1 X115.410 Y55.847 E2.46885
G1 X115.286 Y56.175 E2.47374
G1 X115.087 Y56.463 E2.47864
G1 X114.825 Y56.695 E2.48354
G1 X114.515 Y56.857 E2.48844
G1 X114.175 Y56.941 E2.49333
G1 X113.900 Y56.941 E2.49718
G1 X113.615 Y57.221 F10800.000
G1 E0.49718 F2400.00000
G92 E0
G1 X114.618 Y62.579 F10800.000
G1 E2.00000 F2400.00000
G1 F1800
G1 X114.909 Y63.124 E2.00864
G1 X115.088 Y63.714 E2.01727
G1 X115.143 Y64.272 E2.02512
G1 X115.143 Y95.728 E2.46529
G1 X115.088 Y96.286 E2.47314
G1 X114.909 Y96.876 E2.48177
G1 X114.618 Y97.421 E2.49041
G1 X114.262 Y97.854 E2.49826
G1 X107.348 Y104.768 E2.63508
G1 X106.884 Y105.137 E2.64338
G1 X106.376 Y105.409 E2.65143
G1 X105.786 Y105.588 E2.66007
G1 X105.228 Y105.643 E2.66792
G1 X64.772 Y105.643 E3.23403
G1 X64.214 Y105.588 E3.24188
G1 X63.624 Y105.409 E3.25051
G1 X63.079 Y105.118 E3.25915
G1 X62.646 Y104.762 E3.26699
G1 X55.738 Y97.854 E3.40370
G1 X55.382 Y97.421 E3.41155
G1 X55.091 Y96.876 E3.42018
G1 X54.912 Y96.286 E3.42882
G1 X54.857 Y95.728 E3.43666
G1 X54.857 Y64.272 E3.87684
G1 X54.912 Y63.714 E3.88468
G1 X55.091 Y63.124 E3.89332
G1 X55.382 Y62.579 E3.90195
G1 X55.738 Y62.146 E3.90980
G1 X62.646 Y55.238 E4.04651
G1 X63.079 Y54.882 E4.05435
G1 X63.624 Y54.591 E4.06299
G1 X64.214 Y54.412 E4.07162
G1 X64.772 Y54.357 E4.07947
G1 X105.228 Y54.357 E4.64558
G1 X105.786 Y54.412 E4.65343
G1 X106.376 Y54.591 E4.66207
G1 X106.921 Y54.882 E4.67070
G1 X107.354 Y55.238 E4.67855
G1 X114.262 Y62.146 E4.81525
G1 X114.570 Y62.521 E4.82205
G1 X114.245 Y62.829 F10800.000
G1 F1800
G1 X114.494 Y63.295 E4.82946
G1 X114.648 Y63.802 E4.83686
G1 X114.696 Y64.294 E4.84379
G1 X114.696 Y95.706 E5.28334
G1 X114.648 Y96.198 E5.29027
G1 X114.494 Y96.705 E5.29768
G1 X114.245 Y97.171 E5.30508
G1 X113.931 Y97.554 E5.31201
G1 X107.050 Y104.435 E5.44817
G1 X106.638 Y104.763 E5.45554
G1 X106.205 Y104.994 E5.46242
G1 X105.698 Y105.148 E5.46982
G1 X105.206 Y105.196 E5.47675
G1 X64.794 Y105.196 E6.04225
G1 X64.302 Y105.148 E6.04917
G1 X63.795 Y104.994 E6.05658
G1 X63.329 Y104.745 E6.06398
G1 X62.946 Y104.431 E6.07091
G1 X56.069 Y97.554 E6.20700
G1 X55.755 Y97.171 E6.21392
G1 X55.506 Y96.705 E6.22133
G1 X55.352 Y96.198 E6.22873
G1 X55.304 Y95.706 E6.23566
G1 X55.304 Y64.294 E6.67522
G1 X55.352 Y63.802 E6.68214
G1 X55.506 Y63.295 E6.68955
G1 X55.755 Y62.829 E6.69695
G1 X56.069 Y62.446 E6.70388
G1 X62.946 Y55.569 E6.83997
G1 X63.329 Y55.255 E6.84689
G1 X63.795 Y55.006 E6.85430
G1 X64.302 Y54.852 E6.86170
G1 X64.794 Y54.804 E6.86863
G1 X105.206 Y54.804 E7.43413
G1 X105.698 Y54.852 E7.44105
G1 X106.205 Y55.006 E7.44846
G1 X106.671 Y55.255 E7.45586
G1 X107.054 Y55.569 E7.46279
G1 X113.931 Y62.446 E7.59888
G1 X114.197 Y62.771 E7.60476
G1 X113.872 Y63.078 F10800.000
G1 F1800
G1 X114.080 Y63.467 E7.61093
G1 X114.208 Y63.889 E7.61711
G1 X114.250 Y64.316 E7.62311
G1 X114.250 Y95.684 E8.06205
G1 X114.208 Y96.111 E8.06805
G1 X114.080 Y96.533 E8.07423
G1 X113.872 Y96.922 E8.08041
G1 X113.600 Y97.254 E8.08641
G1 X106.753 Y104.101 E8.22191
G1 X106.392 Y104.388 E8.22836
G1 X106.033 Y104.580 E8.23406
G1 X105.611 Y104.708 E8.24023
G1 X105.184 Y104.750 E8.24623
G1 X64.816 Y104.750 E8.81112
G1 X64.389 Y104.708 E8.81712
G1 X63.967 Y104.580 E8.82330
G1 X63.578 Y104.372 E8.82947
G1 X63.246 Y104.100 E8.83547
G1 X56.400 Y97.254 E8.97095
G1 X56.128 Y96.922 E8.97695
G1 X55.920 Y96.533 E8.98313
G1 X55.792 Y96.111 E8.98931
G1 X55.750 Y95.684 E8.99531
G1 X55.750 Y64.316 E9.43425
G1 X55.792 Y63.889 E9.44025
G1 X55.920 Y63.467 E9.44643
G1 X56.128 Y63.078 E9.45261
G1 X56.400 Y62.746 E9.45861
G1 X63.246 Y55.900 E9.59408
G1 X63.578 Y55.628 E9.60009
G1 X63.967 Y55.420 E9.60626
G1 X64.389 Y55.292 E9.61244
G1 X64.816 Y55.250 E9.61844
G1 X105.184 Y55.250 E10.18333
G1 X105.611 Y55.292 E10.18933
G1 X106.033 Y55.420 E10.19550
G1 X106.422 Y55.628 E10.20168
G1 X106.754 Y55.900 E10.20768
G1 X113.600 Y62.746 E10.34316
G1 X113.824 Y63.020 E10.34811
G1 X114.312 Y63.049 F10800.000
G1 E8.34811 F2400.00000
G92 E0
G1 X58.283 Y56.063 F10800.000
G1 E2.00000 F2400.00000
G1 F1800
G1 X58.082 Y56.593 E2.00793
G1 X57.760 Y57.059 E2.01586
G1 X57.336 Y57.435 E2.02379
G1 X56.834 Y57.698 E2.03173
G1 X56.283 Y57.834 E2.03966
G1 X55.717 Y57.834 E2.04759
G1 X55.166 Y57.698 E2.05552
G1 X54.664 Y57.435 E2.06345
G1 X54.240 Y57.059 E2.07138
G1 X53.918 Y56.593 E2.07931
G1 X53.717 Y56.063 E2.08724
G1 X53.649 Y55.500 E2.09518
G1 X53.717 Y54.937 E2.10311
G1 X53.906 Y54.440 E2.11055
G1 X54.232 Y53.948 E2.11881
G1 X54.664 Y53.565 E2.12689
G1 X55.166 Y53.302 E2.13482
G1 X55.717 Y53.166 E2.14275
G1 X56.283 Y53.166 E2.15069
G1 X56.834 Y53.302 E2.15862
G1 X57.336 Y53.565 E2.16655
G1 X57.760 Y53.941 E2.17448
G1 X58.082 Y54.407 E2.18241
G1 X58.283 Y54.937 E2.19034
G1 X58.351 Y55.500 E2.19827
G1 X58.292 Y55.988 E2.20516
G1 X57.846 Y55.955 F10800.000
G1 F1800
G1 X57.684 Y56.384 E2.21157
G1 X57.423 Y56.761 E2.21798
G1 X57.080 Y57.065 E2.22440
G1 X56.674 Y57.278 E2.23081
G1 X56.229 Y57.388 E2.23723
G1 X55.771 Y57.388 E2.24364
G1 X55.326 Y57.278 E2.25006
G1 X54.920 Y57.065 E2.25647
G1 X54.577 Y56.761 E2.26289
G1 X54.316 Y56.384 E2.26930
G1 X54.154 Y55.955 E2.27572
G1 X54.099 Y55.500 E2.28213
G1 X54.154 Y55.045 E2.28854
G1 X54.305 Y54.645 E2.29453
G1 X54.572 Y54.243 E2.30127
G1 X54.920 Y53.935 E2.30778
G1 X55.326 Y53.722 E2.31419
G1 X55.771 Y53.612 E2.32061
G1 X56.229 Y53.612 E2.32702
G1 X56.674 Y53.722 E2.33344
G1 X57.080 Y53.935 E2.33985
G1 X57.423 Y54.239 E2.34627
G1 X57.684 Y54.616 E2.35268
G1 X57.846 Y55.045 E2.35910
G1 X57.901 Y55.500 E2.36551
G1 X57.855 Y55.881 E2.37087
G1 X57.410 Y55.847 F10800.000
G1 F1800
G1 X57.286 Y56.175 E2.37577
G1 X57.087 Y56.463 E2.38067
G1 X56.825 Y56.695 E2.38557
G1 X56.515 Y56.857 E2.39047
G1 X56.175 Y56.941 E2.39536
G1 X55.825 Y56.941 E2.40026
