; generated by PrusaSlicer 2.0.0+linux64 on 2019-11-25 at 21:50:15

; 

; external perimeters extrusion width = 0.56mm
; perimeters extrusion width = 0.56mm
; infill extrusion width = 0.56mm
; solid infill extrusion width = 0.40mm
; top infill extrusion width = 0.50mm
; first layer extrusion width = 0.50mm

M201 X9000 Y9000 Z100 E10000 ; sets maximum accelerations, mm/sec^2
M203 X300 Y300 Z5 E120 ; sets maximum feedrates, mm/sec
M204 P1500 R1500 T1500 ; sets acceleration (P, T) and retract acceleration (R), mm/sec^2
M205 X10.00 Y10.00 Z0.20 E2.50 ; sets the jerk limits, mm/sec
M205 S0 T0 ; sets the minimum extruding and travel feed rate, mm/sec
M107
M190 S70 ; set bed temperature and wait for it to be reached
M104 S230 ; set temperature
G28 ; home all axes
G1 Z5 F100 ; lift nozzle
; Filament gcode
M109 S230 ; set temperature and wait for it to be reached
G21 ; set units to millimeters
G90 ; use absolute coordinates
M82 ; use absolute distances for extrusion
G92 E0
G1 Z0.450 F10800.000
G1 E-2.00000 F2400.00000
G92 E0
G1 X34.357 Y44.955 F10800.000
G1 E2.00000 F2400.00000
G1 F1800
G1 X35.135 Y44.237 E2.01481
G1 X35.736 Y43.866 E2.02469
G1 X36.388 Y43.593 E2.03458
G1 X37.074 Y43.424 E2.04446
G1 X37.777 Y43.363 E2.05435
G1 X132.185 Y43.363 E3.37544
G1 X133.051 Y43.447 E3.38761
G1 X133.889 Y43.695 E3.39985
G1 X134.661 Y44.096 E3.41201
G1 X135.346 Y44.640 E3.42425
G1 X135.914 Y45.304 E3.43649
G1 X136.344 Y46.060 E3.44865
G1 X136.623 Y46.889 E3.46089
G1 X136.739 Y47.756 E3.47313
G1 X136.740 Y112.202 E4.37495
G1 X136.593 Y113.234 E4.38954
G1 X136.217 Y114.200 E4.40406
G1 X135.632 Y115.057 E4.41857
G1 X134.865 Y115.763 E4.43316
G1 X134.264 Y116.134 E4.44305
G1 X133.612 Y116.407 E4.45293
G1 X132.926 Y116.576 E4.46282
G1 X132.223 Y116.637 E4.47270
G1 X37.773 Y116.637 E5.79438
G1 X36.718 Y116.502 E5.80927
G1 X35.727 Y116.129 E5.82408
G1 X34.850 Y115.538 E5.83888
G1 X34.132 Y114.760 E5.85369
G1 X33.764 Y114.163 E5.86350
G1 X33.492 Y113.517 E5.87332
G1 X33.322 Y112.837 E5.88313
G1 X33.258 Y112.133 E5.89301
G1 X33.258 Y47.862 E6.79240
G1 X33.394 Y46.817 E6.80713
G1 X33.768 Y45.828 E6.82194
G1 X34.315 Y45.017 E6.83563
G1 E4.83563 F2400.00000
G92 E0
G1 X36.539 Y44.014 F10800.000
G1 E2.00000 F2400.00000
G1 F1800
G1 X37.785 Y43.809 E2.01767
G1 X132.185 Y43.809 E3.33865
G1 X132.967 Y43.885 E3.34965
G1 X133.725 Y44.110 E3.36071
G1 X134.426 Y44.476 E3.37178
G1 X135.044 Y44.969 E3.38284
G1 X135.556 Y45.571 E3.39391
G1 X135.942 Y46.256 E3.40490
G1 X136.191 Y47.001 E3.41590
G1 X136.293 Y47.785 E3.42696
G1 X136.295 Y112.180 E4.32807
G1 X136.162 Y113.116 E4.34130
G1 X135.820 Y113.997 E4.35453
G1 X135.288 Y114.773 E4.36768
G1 X134.591 Y115.411 E4.38091
G1 X133.461 Y115.986 E4.39865
G1 X132.215 Y116.191 E4.41633
G1 X37.780 Y116.191 E5.73780
G1 X36.827 Y116.069 E5.75123
G1 X35.929 Y115.731 E5.76467
G1 X35.133 Y115.193 E5.77810
G1 X34.484 Y114.486 E5.79154
G1 X33.912 Y113.366 E5.80914
G1 X33.704 Y112.125 E5.82675
G1 X33.704 Y47.870 E6.72590
G1 X33.828 Y46.923 E6.73926
G1 X34.169 Y46.025 E6.75270
G1 X34.705 Y45.235 E6.76607
G1 X35.409 Y44.589 E6.77943
G1 X36.472 Y44.048 E6.79613
G1 X36.672 Y44.442 F10800.000
G1 F1800
G1 X37.797 Y44.256 E6.81208
G1 X132.185 Y44.255 E8.13290
G1 X132.885 Y44.324 E8.14275
G1 X133.560 Y44.525 E8.15260
G1 X134.184 Y44.851 E8.16246
G1 X134.738 Y45.294 E8.17237
G1 X135.193 Y45.831 E8.18223
G1 X135.538 Y46.445 E8.19208
G1 X135.760 Y47.118 E8.20200
G1 X135.848 Y47.816 E8.21185
G1 X135.849 Y112.160 E9.11224
G1 X135.731 Y113.002 E9.12414
G1 X135.424 Y113.790 E9.13596
G1 X134.946 Y114.487 E9.14779
G1 X134.321 Y115.055 E9.15962
G1 X133.316 Y115.564 E9.17539
G1 X132.203 Y115.744 E9.19115
G1 X37.792 Y115.744 E10.51230
G1 X36.934 Y115.636 E10.52439
G1 X36.130 Y115.332 E10.53642
G1 X35.419 Y114.850 E10.54844
G1 X34.840 Y114.216 E10.56047
G1 X34.334 Y113.220 E10.57610
G1 X34.151 Y112.113 E10.59180
G1 X34.151 Y47.882 E11.49061
G1 X34.261 Y47.030 E11.50263
G1 X34.565 Y46.231 E11.51459
G1 X35.045 Y45.524 E11.52655
G1 X35.679 Y44.945 E11.53858
G1 X36.605 Y44.476 E11.55309
G1 X36.804 Y44.870 F10800.000
G1 F1800
G1 X37.800 Y44.702 E11.56724
G1 X132.184 Y44.702 E12.88800
G1 X132.801 Y44.762 E12.89668
G1 X133.396 Y44.940 E12.90535
G1 X133.945 Y45.228 E12.91403
G1 X134.432 Y45.619 E12.92277
G1 X134.831 Y46.092 E12.93144
G1 X135.133 Y46.634 E12.94012
G1 X135.326 Y47.223 E12.94879
G1 X135.402 Y47.839 E12.95747
G1 X135.402 Y112.142 E13.85729
G1 X135.300 Y112.882 E13.86776
G1 X135.030 Y113.580 E13.87822
G1 X134.607 Y114.196 E13.88869
G1 X134.053 Y114.698 E13.89915
G1 X133.173 Y115.142 E13.91294
G1 X132.200 Y115.298 E13.92673
G1 X37.798 Y115.298 E15.24774
G1 X37.047 Y115.204 E15.25833
G1 X36.335 Y114.936 E15.26898
G1 X35.709 Y114.511 E15.27957
G1 X35.197 Y113.948 E15.29022
G1 X34.755 Y113.072 E15.30394
G1 X34.597 Y112.104 E15.31767
G1 X34.597 Y47.890 E16.21625
G1 X34.693 Y47.143 E16.22678
G1 X34.961 Y46.436 E16.23737
G1 X35.387 Y45.810 E16.24795
G1 X35.947 Y45.302 E16.25854
G1 X36.737 Y44.904 E16.27091
G1 E14.27091 F2400.00000
G92 E0
G1 X126.043 Y100.527 F10800.000
G1 E2.00000 F2400.00000
G1 F1800
G1 X125.984 Y100.042 E2.00683
G1 X125.984 Y59.958 E2.56775
G1 X126.043 Y59.473 E2.57458
G1 X126.218 Y59.011 E2.58150
G1 X126.527 Y58.544 E2.58933
G1 X126.929 Y58.188 E2.59685
G1 X127.399 Y57.942 E2.60428
G1 X127.915 Y57.815 E2.61171
G1 X128.445 Y57.815 E2.61913
G1 X128.961 Y57.942 E2.62656
G1 X129.431 Y58.188 E2.63398
G1 X129.828 Y58.540 E2.64141
G1 X130.129 Y58.977 E2.64884
G1 X130.317 Y59.473 E2.65626
G1 X130.376 Y59.958 E2.66310
G1 X130.376 Y100.042 E3.22401
G1 X130.317 Y100.527 E3.23085
G1 X130.129 Y101.023 E3.23827
G1 X129.828 Y101.460 E3.24570
G1 X129.431 Y101.812 E3.25313
G1 X128.961 Y102.058 E3.26055
G1 X128.445 Y102.185 E3.26798
G1 X127.915 Y102.185 E3.27541
G1 X127.399 Y102.058 E3.28283
G1 X126.929 Y101.812 E3.29026
G1 X126.532 Y101.460 E3.29769
G1 X126.231 Y101.023 E3.30511
G1 X126.069 Y100.597 E3.31149
G1 X126.479 Y100.419 F10800.000
G1 F1800
G1 X126.430 Y100.015 E3.31719
G1 X126.430 Y59.985 E3.87735
G1 X126.479 Y59.581 E3.88305
G1 X126.617 Y59.216 E3.88850
G1 X126.867 Y58.840 E3.89482
G1 X127.185 Y58.558 E3.90076
G1 X127.559 Y58.362 E3.90667
G1 X127.969 Y58.261 E3.91258
G1 X128.391 Y58.261 E3.91849
G1 X128.801 Y58.362 E3.92440
G1 X129.175 Y58.558 E3.93031
G1 X129.491 Y58.838 E3.93622
G1 X129.731 Y59.186 E3.94213
G1 X129.881 Y59.581 E3.94804
G1 X129.930 Y59.985 E3.95374
G1 X129.930 Y100.015 E4.51390
G1 X129.881 Y100.419 E4.51960
G1 X129.731 Y100.814 E4.52551
G1 X129.491 Y101.162 E4.53142
G1 X129.175 Y101.442 E4.53733
G1 X128.801 Y101.638 E4.54324
G1 X128.391 Y101.739 E4.54915
G1 X127.969 Y101.739 E4.55505
G1 X127.559 Y101.638 E4.56096
G1 X127.185 Y101.442 E4.56687
G1 X126.869 Y101.162 E4.57278
G1 X126.629 Y100.814 E4.57869
G1 X126.506 Y100.489 E4.58355
G1 X126.088 Y100.306 F10800.000
G1 E2.58355 F2400.00000
G92 E0
G1 X127.921 Y105.940 F10800.000
G1 E2.00000 F2400.00000
G1 F1800
G1 X128.439 Y105.940 E2.00726
G1 X128.943 Y106.064 E2.01451
G1 X129.402 Y106.305 E2.02177
G1 X129.790 Y106.649 E2.02903
G1 X130.085 Y107.075 E2.03628
G1 X130.269 Y107.560 E2.04354
G1 X130.331 Y108.075 E2.05080
G1 X130.269 Y108.590 E2.05805
G1 X130.096 Y109.046 E2.06488
G1 X129.798 Y109.494 E2.07241
G1 X129.402 Y109.845 E2.07982
G1 X128.943 Y110.086 E2.08707
G1 X128.439 Y110.210 E2.09433
G1 X127.921 Y110.210 E2.10159
G1 X127.417 Y110.086 E2.10884
G1 X126.958 Y109.845 E2.11610
G1 X126.593 Y109.522 E2.12292
G1 X126.279 Y109.085 E2.13046
G1 X126.091 Y108.590 E2.13786
G1 X126.029 Y108.075 E2.14512
G1 X126.091 Y107.560 E2.15237
G1 X126.264 Y107.104 E2.15920
G1 X126.562 Y106.656 E2.16673
G1 X126.958 Y106.305 E2.17414
G1 X127.417 Y106.064 E2.18139
G1 X127.848 Y105.958 E2.18760
G1 X127.975 Y106.386 F10800.000
G1 F1800
G1 X128.385 Y106.386 E2.19334
G1 X128.783 Y106.484 E2.19908
G1 X129.147 Y106.675 E2.20482
G1 X129.454 Y106.947 E2.21056
G1 X129.687 Y107.284 E2.21630
G1 X129.832 Y107.668 E2.22204
G1 X129.881 Y108.075 E2.22778
G1 X129.832 Y108.482 E2.23352
G1 X129.696 Y108.841 E2.23889
G1 X129.458 Y109.199 E2.24490
G1 X129.147 Y109.475 E2.25073
G1 X128.783 Y109.666 E2.25647
G1 X128.385 Y109.764 E2.26221
G1 X127.975 Y109.764 E2.26795
G1 X127.577 Y109.666 E2.27369
G1 X127.213 Y109.475 E2.27943
G1 X126.926 Y109.221 E2.28480
G1 X126.676 Y108.872 E2.29081
G1 X126.528 Y108.482 E2.29664
G1 X126.479 Y108.075 E2.30238
G1 X126.528 Y107.668 E2.30812
G1 X126.664 Y107.309 E2.31349
G1 X126.902 Y106.951 E2.31950
G1 X127.213 Y106.675 E2.32534
G1 X127.577 Y106.484 E2.33108
G1 X127.902 Y106.404 E2.33577
G1 X128.029 Y106.832 F10800.000
G1 F1800
G1 X128.331 Y106.832 E2.33999
G1 X128.624 Y106.905 E2.34421
G1 X128.891 Y107.045 E2.34843
G1 X129.117 Y107.245 E2.35266
G1 X129.288 Y107.493 E2.35688
G1 X129.395 Y107.775 E2.36110
G1 X129.432 Y108.075 E2.36533
G1 X129.395 Y108.375 E2.36955
G1 X129.296 Y108.636 E2.37346
G1 X129.119 Y108.904 E2.37796
G1 X128.891 Y109.105 E2.38221
G1 X128.624 Y109.245 E2.38643
G1 X128.331 Y109.318 E2.39066
G1 X128.029 Y109.318 E2.39488
G1 X127.736 Y109.245 E2.39910
G1 X127.469 Y109.105 E2.40333
G1 X127.260 Y108.920 E2.40724
G1 X127.072 Y108.659 E2.41173
G1 X126.965 Y108.375 E2.41599
G1 X126.928 Y108.075 E2.42021
G1 X126.965 Y107.775 E2.42443
G1 X127.064 Y107.514 E2.42834
G1 X127.241 Y107.246 E2.43284
G1 X127.469 Y107.045 E2.43710
G1 X127.736 Y106.905 E2.44132
G1 X127.956 Y106.850 E2.44449
G1 X128.147 Y106.555 F10800.000
G1 E0.44449 F2400.00000
G92 E0
G1 X94.151 Y108.075 F10800.000
G1 E2.00000 F2400.00000
G1 F1800
G1 X94.089 Y108.590 E2.00726
G1 X93.905 Y109.075 E2.01451
G1 X93.628 Y109.476 E2.02134
G1 X93.231 Y109.840 E2.02887
G1 X92.763 Y110.086 E2.03628
G1 X92.259 Y110.210 E2.04353
G1 X91.741 Y110.210 E2.05079
G1 X91.237 Y110.086 E2.05805
G1 X90.778 Y109.845 E2.06530
G1 X90.413 Y109.522 E2.07213
G1 X90.099 Y109.085 E2.07966
G1 X89.911 Y108.590 E2.08707
G1 X89.849 Y108.075 E2.09432
G1 X89.911 Y107.560 E2.10158
G1 X90.095 Y107.075 E2.10884
G1 X90.390 Y106.649 E2.11609
G1 X90.778 Y106.305 E2.12335
G1 X91.237 Y106.064 E2.13060
G1 X91.741 Y105.940 E2.13786
G1 X92.259 Y105.940 E2.14512
G1 X92.733 Y106.056 E2.15194
G1 X93.214 Y106.298 E2.15947
G1 X93.610 Y106.649 E2.16688
G1 X93.905 Y107.075 E2.17414
G1 X94.089 Y107.560 E2.18139
G1 X94.142 Y108.001 E2.18760
G1 X93.701 Y108.075 F10800.000
G1 F1800
G1 X93.652 Y108.482 E2.19334
G1 X93.507 Y108.866 E2.19908
G1 X93.289 Y109.181 E2.20445
G1 X92.972 Y109.472 E2.21046
G1 X92.603 Y109.666 E2.21629
G1 X92.205 Y109.764 E2.22203
G1 X91.795 Y109.764 E2.22777
G1 X91.397 Y109.666 E2.23351
G1 X91.033 Y109.475 E2.23925
G1 X90.746 Y109.221 E2.24462
G1 X90.496 Y108.872 E2.25063
G1 X90.348 Y108.482 E2.25646
G1 X90.299 Y108.075 E2.26220
G1 X90.348 Y107.668 E2.26794
G1 X90.493 Y107.284 E2.27368
G1 X90.726 Y106.947 E2.27942
G1 X91.033 Y106.675 E2.28516
G1 X91.397 Y106.484 E2.29090
G1 X91.795 Y106.386 E2.29664
G1 X92.205 Y106.386 E2.30238
G1 X92.578 Y106.478 E2.30775
G1 X92.962 Y106.670 E2.31376
G1 X93.274 Y106.947 E2.31960
G1 X93.507 Y107.284 E2.32534
G1 X93.652 Y107.668 E2.33108
G1 X93.692 Y108.001 E2.33577
G1 X93.252 Y108.075 F10800.000
G1 F1800
G1 X93.215 Y108.375 E2.33999
G1 X93.108 Y108.657 E2.34421
G1 X92.950 Y108.887 E2.34812
G1 X92.713 Y109.104 E2.35262
G1 X92.444 Y109.245 E2.35687
G1 X92.151 Y109.318 E2.36110
G1 X91.849 Y109.318 E2.36532
G1 X91.556 Y109.245 E2.36954
G1 X91.289 Y109.105 E2.37377
G1 X91.080 Y108.920 E2.37767
G1 X90.892 Y108.659 E2.38217
G1 X90.785 Y108.375 E2.38643
G1 X90.748 Y108.075 E2.39065
G1 X90.785 Y107.775 E2.39487
G1 X90.892 Y107.493 E2.39910
G1 X91.063 Y107.245 E2.40332
G1 X91.289 Y107.045 E2.40754
G1 X91.556 Y106.905 E2.41176
G1 X91.849 Y106.832 E2.41599
G1 X92.151 Y106.832 E2.42021
G1 X92.422 Y106.899 E2.42412
G1 X92.709 Y107.043 E2.42862
G1 X92.937 Y107.245 E2.43287
G1 X93.108 Y107.493 E2.43710
G1 X93.215 Y107.775 E2.44132
G1 X93.243 Y108.001 E2.44449
G1 X93.513 Y108.226 F10800.000
G1 E0.44449 F2400.00000
G92 E0
G1 X92.259 Y54.060 F10800.000
G1 E2.00000 F2400.00000
G1 F1800
G1 X91.741 Y54.060 E2.00726
G1 X91.237 Y53.936 E2.01451
G1 X90.778 Y53.695 E2.02177
G1 X90.413 Y53.372 E2.02860
G1 X90.099 Y52.935 E2.03613
G1 X89.911 Y52.440 E2.04353
G1 X89.849 Y51.925 E2.05079
G1 X89.911 Y51.410 E2.05805
G1 X90.084 Y50.954 E2.06487
G1 X90.382 Y50.506 E2.07240
G1 X90.778 Y50.155 E2.07981
G1 X91.237 Y49.914 E2.08707
G1 X91.741 Y49.790 E2.09432
G1 X92.259 Y49.790 E2.10158
G1 X92.763 Y49.914 E2.10884
G1 X93.222 Y50.155 E2.11609
G1 X93.610 Y50.499 E2.12335
G1 X93.905 Y50.925 E2.13061
G1 X94.089 Y51.410 E2.13786
G1 X94.151 Y51.925 E2.14512
G1 X94.089 Y52.440 E2.15237
G1 X93.905 Y52.925 E2.15963
G1 X93.628 Y53.326 E2.16646
G1 X93.231 Y53.690 E2.17399
G1 X92.763 Y53.936 E2.18139
G1 X92.332 Y54.042 E2.18760
G1 X92.205 Y53.614 F10800.000
G1 F1800
G1 X91.795 Y53.614 E2.19334
G1 X91.397 Y53.516 E2.19908
G1 X91.033 Y53.325 E2.20482
G1 X90.746 Y53.071 E2.21019
G1 X90.496 Y52.722 E2.21620
G1 X90.348 Y52.332 E2.22203
G1 X90.299 Y51.925 E2.22777
G1 X90.348 Y51.518 E2.23351
G1 X90.484 Y51.159 E2.23888
G1 X90.722 Y50.801 E2.24489
G1 X91.033 Y50.525 E2.25073
G1 X91.397 Y50.334 E2.25647
G1 X91.795 Y50.236 E2.26220
G1 X92.205 Y50.236 E2.26794
G1 X92.603 Y50.334 E2.27368
G1 X92.967 Y50.525 E2.27942
G1 X93.274 Y50.797 E2.28516
G1 X93.507 Y51.134 E2.29090
G1 X93.652 Y51.518 E2.29664
G1 X93.701 Y51.925 E2.30238
G1 X93.652 Y52.332 E2.30812
G1 X93.507 Y52.716 E2.31386
G1 X93.289 Y53.031 E2.31923
G1 X92.972 Y53.322 E2.32524
G1 X92.603 Y53.516 E2.33108
G1 X92.278 Y53.596 E2.33577
G1 X92.151 Y53.168 F10800.000
G1 F1800
G1 X91.849 Y53.168 E2.33999
G1 X91.556 Y53.095 E2.34421
G1 X91.289 Y52.955 E2.34843
G1 X91.080 Y52.770 E2.35234
G1 X90.892 Y52.509 E2.35684
G1 X90.785 Y52.225 E2.36110
G1 X90.748 Y51.925 E2.36532
G1 X90.785 Y51.625 E2.36954
G1 X90.884 Y51.364 E2.37345
G1 X91.061 Y51.096 E2.37795
G1 X91.289 Y50.895 E2.38220
G1 X91.556 Y50.755 E2.38643
G1 X91.849 Y50.682 E2.39065
G1 X92.151 Y50.682 E2.39487
G1 X92.444 Y50.755 E2.39910
G1 X92.711 Y50.895 E2.40332
G1 X92.937 Y51.095 E2.40754
G1 X93.108 Y51.343 E2.41177
G1 X93.215 Y51.625 E2.41599
G1 X93.252 Y51.925 E2.42021
G1 X93.215 Y52.225 E2.42443
G1 X93.108 Y52.507 E2.42866
G1 X92.950 Y52.737 E2.43257
G1 X92.713 Y52.954 E2.43706
G1 X92.444 Y53.095 E2.44132
G1 X92.224 Y53.150 E2.44449
G1 X92.033 Y53.445 F10800.000
G1 E0.44449 F2400.00000
G92 E0
G1 X98.271 Y58.176 F10800.000
G1 E2.00000 F2400.00000
G1 F1800
G1 X99.636 Y56.228 E2.03329
G1 X101.318 Y54.546 E2.06658
G1 X103.266 Y53.181 E2.09986
G1 X105.422 Y52.176 E2.13315
G1 X107.720 Y51.560 E2.16644
G1 X109.810 Y51.377 E2.19579
G1 X110.090 Y51.353 E2.19973
G1 X112.460 Y51.560 E2.23302
G1 X114.758 Y52.176 E2.26631
G1 X116.914 Y53.181 E2.29959
G1 X118.862 Y54.546 E2.33288
G1 X120.544 Y56.228 E2.36617
G1 X121.909 Y58.176 E2.39946
G1 X122.914 Y60.332 E2.43275
G1 X123.530 Y62.630 E2.46604
G1 X123.733 Y64.950 E2.49862
G1 X123.733 Y95.050 E2.91982
G1 X123.530 Y97.370 E2.95241
G1 X122.914 Y99.668 E2.98570
G1 X121.909 Y101.824 E3.01899
G1 X120.544 Y103.772 E3.05228
G1 X118.862 Y105.454 E3.08556
G1 X116.914 Y106.819 E3.11885
G1 X114.758 Y107.824 E3.15214
G1 X112.460 Y108.440 E3.18543
G1 X110.090 Y108.647 E3.21872
G1 X107.720 Y108.440 E3.25200
G1 X105.422 Y107.824 E3.28529
G1 X103.266 Y106.819 E3.31858
G1 X101.318 Y105.454 E3.35187
G1 X99.636 Y103.772 E3.38516
G1 X98.271 Y101.824 E3.41845
G1 X97.266 Y99.668 E3.45173
G1 X96.650 Y97.370 E3.48502
G1 X96.447 Y95.050 E3.51761
G1 X96.447 Y64.950 E3.93881
G1 X96.650 Y62.630 E3.97140
G1 X97.266 Y60.332 E4.00469
G1 X98.240 Y58.244 E4.03692
G1 X98.659 Y58.400 F10800.000
G1 F1800
G1 X99.979 Y56.516 E4.06912
G1 X101.606 Y54.889 E4.10132
G1 X103.490 Y53.569 E4.13351
G1 X105.576 Y52.597 E4.16571
G1 X107.798 Y52.002 E4.19790
G1 X110.090 Y51.801 E4.23010
G1 X112.382 Y52.002 E4.26229
G1 X114.604 Y52.597 E4.29449
G1 X116.690 Y53.569 E4.32668
G1 X118.574 Y54.889 E4.35888
G1 X120.201 Y56.516 E4.39107
G1 X121.521 Y58.400 E4.42327
G1 X122.493 Y60.486 E4.45546
G1 X123.088 Y62.708 E4.48766
G1 X123.286 Y64.970 E4.51943
G1 X123.286 Y95.030 E4.94008
G1 X123.088 Y97.292 E4.97185
G1 X122.493 Y99.514 E5.00405
