; generated by PrusaSlicer 2.0.0+linux64 on 2019-12-01 at 18:09:46

; 

; external perimeters extrusion width = 0.56mm
; perimeters extrusion width = 0.56mm
; infill extrusion width = 0.56mm
; solid infill extrusion width = 0.40mm
; top infill extrusion width = 0.50mm
; first layer extrusion width = 0.50mm

M201 X9000 Y9000 Z100 E10000 ; sets maximum accelerations, mm/sec^2
M203 X300 Y300 Z5 E120 ; sets maximum feedrates, mm/sec
M204 P1500 R1500 T1500 ; sets acceleration (P, T) and retract acceleration (R), mm/sec^2
M205 X10.00 Y10.00 Z0.20 E2.50 ; sets the jerk limits, mm/sec
M205 S0 T0 ; sets the minimum extruding and travel feed rate, mm/sec
M107
M190 S70 ; set bed temperature and wait for it to be reached
M104 S230 ; set temperature
G28 ; home all axes
G1 Z5 F100 ; lift nozzle
; Filament gcode
M109 S230 ; set temperature and wait for it to be reached
G21 ; set units to millimeters
G90 ; use absolute coordinates
M82 ; use absolute distances for extrusion
G92 E0
G1 Z0.450 F10800.000
G1 E-2.00000 F2400.00000
G92 E0
G1 X40.893 Y48.780 F10800.000
G1 E2.00000 F2400.00000
G1 F1800
G1 X41.950 Y47.737 E2.02078
G1 X42.886 Y47.127 E2.03642
G1 X43.615 Y46.795 E2.04763
G1 X44.669 Y46.475 E2.06303
G1 X45.921 Y46.338 E2.08066
G1 X124.005 Y46.338 E3.17333
G1 X125.347 Y46.478 E3.19220
G1 X126.518 Y46.845 E3.20938
G1 X127.692 Y47.485 E3.22809
G1 X128.405 Y48.044 E3.24077
G1 X129.221 Y48.926 E3.25758
G1 X129.930 Y50.091 E3.27667
G1 X130.379 Y51.363 E3.29555
G1 X130.554 Y52.620 E3.31331
G1 X130.558 Y107.290 E4.07833
G1 X130.376 Y108.653 E4.09757
G1 X129.875 Y110.023 E4.11798
G1 X129.101 Y111.229 E4.13803
G1 X128.050 Y112.263 E4.15867
G1 X127.114 Y112.873 E4.17430
G1 X126.385 Y113.205 E4.18551
G1 X125.331 Y113.525 E4.20092
G1 X124.079 Y113.662 E4.21855
G1 X45.942 Y113.662 E5.31196
G1 X44.509 Y113.491 E5.33215
G1 X43.120 Y112.996 E5.35279
G1 X41.884 Y112.211 E5.37328
G1 X40.837 Y111.150 E5.39414
G1 X40.230 Y110.218 E5.40970
G1 X39.899 Y109.494 E5.42083
G1 X39.578 Y108.447 E5.43617
G1 X39.439 Y107.211 E5.45357
G1 X39.438 Y52.821 E6.21468
G1 X39.612 Y51.399 E6.23472
G1 X40.108 Y50.010 E6.25536
G1 X40.852 Y48.843 E6.27473
G1 X41.226 Y49.081 F10800.000
G1 F1800
G1 X42.234 Y48.082 E6.29459
G1 X43.110 Y47.513 E6.30921
G1 X43.773 Y47.213 E6.31939
G1 X44.756 Y46.913 E6.33377
G1 X45.934 Y46.785 E6.35036
G1 X124.005 Y46.784 E7.44284
G1 X125.262 Y46.916 E7.46053
G1 X126.354 Y47.260 E7.47655
G1 X127.458 Y47.865 E7.49416
G1 X128.103 Y48.372 E7.50564
G1 X128.864 Y49.193 E7.52131
G1 X129.529 Y50.286 E7.53922
G1 X129.949 Y51.480 E7.55692
G1 X130.109 Y52.664 E7.57364
G1 X130.113 Y107.260 E8.33763
G1 X129.944 Y108.538 E8.35567
G1 X129.477 Y109.820 E8.37476
G1 X128.754 Y110.948 E8.39351
G1 X127.766 Y111.918 E8.41288
G1 X126.890 Y112.487 E8.42750
G1 X126.227 Y112.787 E8.43768
G1 X125.244 Y113.087 E8.45207
G1 X124.066 Y113.215 E8.46865
G1 X45.950 Y113.216 E9.56176
G1 X44.610 Y113.056 E9.58064
G1 X43.311 Y112.593 E9.59994
G1 X42.160 Y111.860 E9.61904
G1 X41.182 Y110.866 E9.63855
G1 X40.615 Y109.994 E9.65310
G1 X40.317 Y109.338 E9.66319
G1 X40.015 Y108.359 E9.67753
G1 X39.885 Y107.191 E9.69397
G1 X39.885 Y52.830 E10.45467
G1 X40.046 Y51.501 E10.47341
G1 X40.509 Y50.206 E10.49264
G1 X41.186 Y49.145 E10.51026
G1 X41.560 Y49.383 F10800.000
G1 F1800
G1 X42.517 Y48.427 E10.52920
G1 X43.455 Y47.834 E10.54472
G1 X44.347 Y47.485 E10.55813
G1 X44.980 Y47.326 E10.56725
G1 X45.948 Y47.231 E10.58086
G1 X124.005 Y47.230 E11.67315
G1 X125.178 Y47.355 E11.68966
G1 X126.191 Y47.675 E11.70452
G1 X127.219 Y48.242 E11.72096
G1 X127.798 Y48.698 E11.73127
G1 X128.505 Y49.459 E11.74580
G1 X129.128 Y50.483 E11.76257
G1 X129.517 Y51.592 E11.77902
G1 X129.664 Y52.701 E11.79468
G1 X129.667 Y107.237 E12.55783
G1 X129.512 Y108.426 E12.57460
G1 X129.079 Y109.619 E12.59237
G1 X128.406 Y110.668 E12.60981
G1 X127.483 Y111.573 E12.62790
G1 X126.545 Y112.166 E12.64342
G1 X125.653 Y112.515 E12.65683
G1 X125.020 Y112.674 E12.66596
G1 X124.052 Y112.769 E12.67957
G1 X45.957 Y112.769 E13.77238
G1 X44.715 Y112.622 E13.78988
G1 X43.506 Y112.191 E13.80785
G1 X42.439 Y111.512 E13.82555
G1 X41.526 Y110.583 E13.84377
G1 X41.004 Y109.774 E13.85725
G1 X40.736 Y109.184 E13.86631
G1 X40.453 Y108.269 E13.87972
G1 X40.331 Y107.176 E13.89511
G1 X40.331 Y52.843 E14.65541
G1 X40.479 Y51.611 E14.67278
G1 X40.909 Y50.406 E14.69068
G1 X41.520 Y49.446 E14.70660
G1 X41.894 Y49.685 F10800.000
G1 F1800
G1 X41.937 Y49.618 E14.70772
G1 X42.797 Y48.774 E14.72458
G1 X43.664 Y48.229 E14.73891
G1 X44.499 Y47.905 E14.75144
G1 X45.058 Y47.766 E14.75950
G1 X45.958 Y47.677 E14.77215
G1 X124.004 Y47.677 E15.86430
G1 X125.091 Y47.792 E15.87958
G1 X126.028 Y48.091 E15.89335
G1 X126.977 Y48.617 E15.90853
G1 X127.491 Y49.023 E15.91770
G1 X128.145 Y49.722 E15.93109
G1 X128.724 Y50.672 E15.94666
G1 X129.085 Y51.705 E15.96198
G1 X129.219 Y52.738 E15.97655
G1 X129.221 Y107.211 E16.73881
G1 X129.081 Y108.312 E16.75435
G1 X128.682 Y109.416 E16.77077
G1 X128.060 Y110.386 E16.78689
G1 X127.203 Y111.226 E16.80369
G1 X126.336 Y111.771 E16.81802
G1 X125.501 Y112.095 E16.83055
G1 X124.943 Y112.234 E16.83861
G1 X124.042 Y112.323 E16.85126
G1 X45.965 Y112.323 E17.94384
G1 X44.818 Y112.188 E17.95999
G1 X43.704 Y111.791 E17.97654
G1 X42.718 Y111.163 E17.99291
G1 X41.874 Y110.302 E18.00977
G1 X41.329 Y109.436 E18.02410
G1 X41.006 Y108.605 E18.03657
G1 X40.867 Y108.051 E18.04456
G1 X40.777 Y107.160 E18.05710
G1 X40.777 Y52.851 E18.81707
G1 X40.913 Y51.714 E18.83309
G1 X41.311 Y50.600 E18.84964
G1 X41.854 Y49.748 E18.86378
G1 E16.86378 F2400.00000
G92 E0
G1 X121.726 Y73.128 F10800.000
G1 E2.00000 F2400.00000
G1 F1800
G1 X121.493 Y72.791 E2.00574
G1 X121.348 Y72.407 E2.01148
G1 X121.299 Y72.000 E2.01722
G1 X121.348 Y71.593 E2.02296
G1 X121.493 Y71.209 E2.02870
G1 X121.726 Y70.872 E2.03444
G1 X122.033 Y70.600 E2.04018
G1 X122.397 Y70.409 E2.04592
G1 X122.795 Y70.311 E2.05166
G1 X123.205 Y70.311 E2.05740
G1 X123.584 Y70.404 E2.06286
G1 X123.963 Y70.596 E2.06880
G1 X124.274 Y70.872 E2.07461
G1 X124.507 Y71.209 E2.08035
G1 X124.652 Y71.593 E2.08609
G1 X124.699 Y71.980 E2.09155
G1 X124.654 Y72.403 E2.09750
G1 X124.507 Y72.791 E2.10331
G1 X124.274 Y73.128 E2.10905
G1 X123.967 Y73.400 E2.11479
G1 X123.603 Y73.591 E2.12052
G1 X123.205 Y73.689 E2.12626
G1 X122.795 Y73.689 E2.13200
G1 X122.397 Y73.591 E2.13774
G1 X122.033 Y73.400 E2.14348
G1 X121.783 Y73.178 E2.14817
G1 X122.063 Y72.830 F10800.000
G1 F1800
G1 X121.892 Y72.582 E2.15240
G1 X121.785 Y72.300 E2.15662
G1 X121.748 Y72.000 E2.16084
G1 X121.785 Y71.700 E2.16507
G1 X121.892 Y71.418 E2.16929
G1 X122.063 Y71.170 E2.17351
G1 X122.289 Y70.970 E2.17774
G1 X122.556 Y70.830 E2.18196
G1 X122.849 Y70.757 E2.18618
G1 X123.151 Y70.757 E2.19040
G1 X123.428 Y70.825 E2.19439
G1 X123.710 Y70.969 E2.19882
G1 X123.937 Y71.170 E2.20307
G1 X124.108 Y71.418 E2.20729
G1 X124.215 Y71.700 E2.21151
G1 X124.250 Y71.983 E2.21550
G1 X124.216 Y72.298 E2.21993
G1 X124.108 Y72.582 E2.22418
G1 X123.937 Y72.830 E2.22840
G1 X123.711 Y73.030 E2.23262
G1 X123.444 Y73.170 E2.23685
G1 X123.151 Y73.243 E2.24107
G1 X122.849 Y73.243 E2.24529
G1 X122.556 Y73.170 E2.24952
G1 X122.289 Y73.030 E2.25374
G1 X122.119 Y72.880 E2.25691
G1 X121.767 Y72.890 F10800.000
G1 E0.25691 F2400.00000
G92 E0
G1 X122.795 Y57.589 F10800.000
G1 E2.00000 F2400.00000
G1 F1800
G1 X122.397 Y57.491 E2.00574
G1 X122.033 Y57.300 E2.01148
G1 X121.726 Y57.028 E2.01722
G1 X121.493 Y56.691 E2.02296
G1 X121.348 Y56.307 E2.02870
G1 X121.299 Y55.900 E2.03444
G1 X121.348 Y55.493 E2.04018
G1 X121.493 Y55.109 E2.04592
G1 X121.726 Y54.772 E2.05166
G1 X122.033 Y54.500 E2.05740
G1 X122.397 Y54.309 E2.06314
G1 X122.795 Y54.211 E2.06888
G1 X123.205 Y54.211 E2.07462
G1 X123.584 Y54.304 E2.08008
G1 X123.963 Y54.496 E2.08602
G1 X124.274 Y54.772 E2.09183
G1 X124.507 Y55.109 E2.09757
G1 X124.652 Y55.493 E2.10331
G1 X124.699 Y55.880 E2.10877
G1 X124.654 Y56.303 E2.11472
G1 X124.507 Y56.691 E2.12052
G1 X124.274 Y57.028 E2.12626
G1 X123.967 Y57.300 E2.13200
G1 X123.603 Y57.491 E2.13774
G1 X123.205 Y57.589 E2.14348
G1 X122.870 Y57.589 E2.14817
G1 X122.849 Y57.143 F10800.000
G1 F1800
G1 X122.556 Y57.070 E2.15240
G1 X122.289 Y56.930 E2.15662
G1 X122.063 Y56.730 E2.16084
G1 X121.892 Y56.482 E2.16507
G1 X121.785 Y56.200 E2.16929
G1 X121.748 Y55.900 E2.17351
G1 X121.785 Y55.600 E2.17774
G1 X121.892 Y55.318 E2.18196
G1 X122.063 Y55.070 E2.18618
G1 X122.289 Y54.870 E2.19040
G1 X122.556 Y54.730 E2.19463
G1 X122.849 Y54.657 E2.19885
G1 X123.151 Y54.657 E2.20307
G1 X123.428 Y54.725 E2.20706
G1 X123.710 Y54.869 E2.21149
G1 X123.937 Y55.070 E2.21574
G1 X124.108 Y55.318 E2.21996
G1 X124.215 Y55.600 E2.22418
G1 X124.250 Y55.883 E2.22817
G1 X124.216 Y56.198 E2.23260
G1 X124.108 Y56.482 E2.23685
G1 X123.937 Y56.730 E2.24107
G1 X123.711 Y56.930 E2.24529
G1 X123.444 Y57.070 E2.24952
G1 X123.151 Y57.143 E2.25374
G1 X122.924 Y57.143 E2.25691
G1 X122.668 Y57.384 F10800.000
G1 E0.25691 F2400.00000
G92 E0
G1 X116.464 Y69.210 F10800.000
G1 E2.00000 F2400.00000
G1 F1800
G1 X117.090 Y69.641 E2.01063
G1 X117.593 Y70.210 E2.02126
G1 X117.946 Y70.883 E2.03189
G1 X118.128 Y71.620 E2.04252
G1 X118.128 Y72.380 E2.05315
G1 X117.946 Y73.117 E2.06378
G1 X117.611 Y73.756 E2.07387
G1 X117.096 Y74.354 E2.08492
G1 X116.464 Y74.790 E2.09566
G1 X115.754 Y75.060 E2.10629
G1 X115.069 Y75.143 E2.11595
G1 X54.931 Y75.143 E2.95749
G1 X54.246 Y75.060 E2.96714
G1 X53.536 Y74.790 E2.97777
G1 X52.910 Y74.359 E2.98840
G1 X52.407 Y73.790 E2.99903
G1 X52.054 Y73.117 E3.00966
G1 X51.872 Y72.380 E3.02029
G1 X51.872 Y71.620 E3.03092
G1 X52.054 Y70.883 E3.04155
G1 X52.407 Y70.210 E3.05218
G1 X52.910 Y69.641 E3.06281
G1 X53.536 Y69.210 E3.07344
G1 X54.246 Y68.940 E3.08407
G1 X54.931 Y68.857 E3.09373
G1 X115.069 Y68.857 E3.93527
G1 X115.754 Y68.940 E3.94493
G1 X116.394 Y69.183 E3.95451
G1 X116.255 Y69.608 F10800.000
G1 F1800
G1 X116.791 Y69.978 E3.96362
G1 X117.223 Y70.465 E3.97274
G1 X117.526 Y71.042 E3.98185
G1 X117.682 Y71.674 E3.99096
G1 X117.682 Y72.326 E4.00008
G1 X117.526 Y72.958 E4.00919
G1 X117.240 Y73.504 E4.01781
G1 X116.796 Y74.019 E4.02733
G1 X116.255 Y74.392 E4.03652
G1 X115.647 Y74.623 E4.04563
G1 X115.042 Y74.696 E4.05415
G1 X54.958 Y74.696 E4.89494
G1 X54.353 Y74.623 E4.90346
G1 X53.745 Y74.392 E4.91257
G1 X53.209 Y74.022 E4.92168
G1 X52.777 Y73.535 E4.93080
G1 X52.474 Y72.958 E4.93991
G1 X52.318 Y72.326 E4.94902
G1 X52.318 Y71.674 E4.95814
G1 X52.474 Y71.042 E4.96725
G1 X52.777 Y70.465 E4.97636
G1 X53.209 Y69.978 E4.98548
G1 X53.745 Y69.608 E4.99459
G1 X54.353 Y69.377 E5.00370
G1 X54.958 Y69.304 E5.01222
G1 X115.042 Y69.304 E5.85301
G1 X115.647 Y69.377 E5.86153
G1 X116.185 Y69.581 E5.86959
G1 X116.046 Y70.006 F10800.000
G1 F1800
G1 X116.493 Y70.314 E5.87719
G1 X116.853 Y70.721 E5.88479
G1 X117.106 Y71.201 E5.89238
G1 X117.235 Y71.729 E5.89998
G1 X117.235 Y72.271 E5.90757
G1 X117.106 Y72.799 E5.91517
G1 X116.868 Y73.251 E5.92232
G1 X116.495 Y73.685 E5.93033
G1 X116.046 Y73.994 E5.93795
G1 X115.539 Y74.186 E5.94555
G1 X115.015 Y74.250 E5.95293
G1 X54.985 Y74.250 E6.79296
G1 X54.461 Y74.186 E6.80034
G1 X53.954 Y73.994 E6.80794
G1 X53.507 Y73.686 E6.81554
G1 X53.147 Y73.279 E6.82313
G1 X52.894 Y72.799 E6.83073
G1 X52.765 Y72.271 E6.83833
G1 X52.765 Y71.729 E6.84592
G1 X52.894 Y71.201 E6.85352
G1 X53.147 Y70.721 E6.86112
G1 X53.507 Y70.314 E6.86871
G1 X53.954 Y70.006 E6.87631
G1 X54.461 Y69.814 E6.88390
G1 X54.985 Y69.750 E6.89129
G1 X115.015 Y69.750 E7.73132
G1 X115.539 Y69.814 E7.73870
G1 X115.976 Y69.980 E7.74525
G1 X116.469 Y69.739 F10800.000
G1 E5.74525 F2400.00000
G92 E0
G1 X115.754 Y58.960 F10800.000
G1 E2.00000 F2400.00000
G1 F1800
G1 X115.069 Y59.043 E2.00966
G1 X54.931 Y59.043 E2.85120
G1 X54.246 Y58.960 E2.86085
G1 X53.536 Y58.690 E2.87148
G1 X52.910 Y58.259 E2.88211
G1 X52.407 Y57.690 E2.89274
G1 X52.054 Y57.017 E2.90337
G1 X51.872 Y56.280 E2.91400
G1 X51.872 Y55.520 E2.92463
G1 X52.054 Y54.783 E2.93526
G1 X52.407 Y54.110 E2.94589
G1 X52.910 Y53.541 E2.95652
G1 X53.536 Y53.110 E2.96715
G1 X54.246 Y52.840 E2.97778
G1 X54.931 Y52.757 E2.98744
G1 X115.069 Y52.757 E3.82898
G1 X115.754 Y52.840 E3.83864
G1 X116.464 Y53.110 E3.84927
G1 X117.090 Y53.541 E3.85990
G1 X117.593 Y54.110 E3.87053
G1 X117.946 Y54.783 E3.88116
G1 X118.128 Y55.520 E3.89179
G1 X118.128 Y56.280 E3.90242
G1 X117.946 Y57.017 E3.91305
G1 X117.593 Y57.690 E3.92368
G1 X117.090 Y58.259 E3.93431
G1 X116.464 Y58.690 E3.94494
G1 X115.824 Y58.933 E3.95452
G1 X115.647 Y58.523 F10800.000
G1 F1800
G1 X115.042 Y58.596 E3.96304
G1 X54.958 Y58.596 E4.80383
G1 X54.353 Y58.523 E4.81235
G1 X53.745 Y58.292 E4.82146
G1 X53.209 Y57.922 E4.83057
G1 X52.777 Y57.435 E4.83969
G1 X52.474 Y56.858 E4.84880
G1 X52.318 Y56.226 E4.85791
G1 X52.318 Y55.574 E4.86703
G1 X52.474 Y54.942 E4.87614
G1 X52.777 Y54.365 E4.88525
G1 X53.209 Y53.878 E4.89437
G1 X53.745 Y53.508 E4.90348
G1 X54.353 Y53.277 E4.91259
G1 X54.958 Y53.204 E4.92111
G1 X115.042 Y53.204 E5.76190
G1 X115.647 Y53.277 E5.77042
G1 X116.255 Y53.508 E5.77953
G1 X116.791 Y53.878 E5.78865
G1 X117.223 Y54.365 E5.79776
G1 X117.526 Y54.942 E5.80687
G1 X117.682 Y55.574 E5.81598
G1 X117.682 Y56.226 E5.82510
G1 X117.526 Y56.858 E5.83421
G1 X117.223 Y57.435 E5.84332
G1 X116.791 Y57.922 E5.85244
G1 X116.255 Y58.292 E5.86155
G1 X115.717 Y58.496 E5.86961
G1 X115.539 Y58.086 F10800.000
G1 F1800
G1 X115.015 Y58.150 E5.87700
G1 X54.985 Y58.150 E6.71703
G1 X54.461 Y58.086 E6.72441
G1 X53.954 Y57.894 E6.73201
G1 X53.507 Y57.586 E6.73961
G1 X53.147 Y57.179 E6.74720
G1 X52.894 Y56.699 E6.75480
G1 X52.765 Y56.171 E6.76240
G1 X52.765 Y55.629 E6.76999
G1 X52.894 Y55.101 E6.77759
G1 X53.147 Y54.621 E6.78518
G1 X53.507 Y54.214 E6.79278
G1 X53.954 Y53.906 E6.80038
G1 X54.461 Y53.714 E6.80797
G1 X54.985 Y53.650 E6.81536
G1 X115.015 Y53.650 E7.65539
G1 X115.539 Y53.714 E7.66277
G1 X116.046 Y53.906 E7.67037
G1 X116.493 Y54.214 E7.67797
G1 X116.853 Y54.621 E7.68556
G1 X117.106 Y55.101 E7.69316
G1 X117.235 Y55.629 E7.70075
G1 X117.235 Y56.171 E7.70835
G1 X117.106 Y56.699 E7.71595
G1 X116.853 Y57.179 E7.72354
G1 X116.493 Y57.586 E7.73114
G1 X116.046 Y57.894 E7.73874
G1 X115.609 Y58.060 E7.74528
G1 X115.400 Y58.567 F10800.000
G1 E5.74528 F2400.00000
G92 E0
G1 X124.669 Y57.241 F10800.000
G1 E2.00000 F2400.00000
G1 F1800
G1 X124.857 Y57.300 E2.00276
G1 X124.857 Y70.600 E2.18888
G1 X124.669 Y70.659 E2.19164
G1 X124.610 Y70.574 E2.19310
G1 X124.216 Y70.224 E2.20047
G1 X123.740 Y69.983 E2.20793
G1 X123.259 Y69.865 E2.21486
G1 X122.741 Y69.865 E2.22212
G1 X122.237 Y69.989 E2.22937
G1 X121.778 Y70.230 E2.23663
G1 X121.390 Y70.574 E2.24389
G1 X121.095 Y71.000 E2.25114
G1 X120.911 Y71.485 E2.25840
G1 X120.849 Y72.000 E2.26566
G1 X120.911 Y72.515 E2.27291
G1 X121.095 Y73.000 E2.28017
G1 X121.390 Y73.426 E2.28743
G1 X121.778 Y73.770 E2.29468
G1 X122.237 Y74.011 E2.30194
G1 X122.741 Y74.135 E2.30920
G1 X123.259 Y74.135 E2.31645
G1 X123.763 Y74.011 E2.32371
G1 X124.222 Y73.770 E2.33097
G1 X124.610 Y73.426 E2.33822
G1 X124.669 Y73.341 E2.33968
G1 X124.857 Y73.400 E2.34244
G1 X124.857 Y74.936 E2.36393
G1 X124.829 Y75.189 E2.36750
G1 X124.766 Y75.369 E2.37017
G1 X124.669 Y75.524 E2.37272
G1 X124.513 Y75.675 E2.37577
G1 X124.369 Y75.766 E2.37815
G1 X124.189 Y75.829 E2.38081
G1 X123.936 Y75.857 E2.38438
G1 X46.064 Y75.857 E3.47407
G1 X45.811 Y75.829 E3.47764
G1 X45.631 Y75.766 E3.48030
G1 X45.470 Y75.665 E3.48297
G1 X45.335 Y75.530 E3.48563
G1 X45.234 Y75.369 E3.48830
G1 X45.171 Y75.189 E3.49096
G1 X45.143 Y74.936 E3.49453
G1 X45.143 Y73.400 E3.51602
G1 X45.331 Y73.341 E3.51878
G1 X45.390 Y73.426 E3.52024
G1 X45.784 Y73.776 E3.52761
G1 X46.260 Y74.017 E3.53507
G1 X46.741 Y74.135 E3.54200
G1 X47.259 Y74.135 E3.54926
G1 X47.763 Y74.011 E3.55651
G1 X48.222 Y73.770 E3.56377
G1 X48.610 Y73.426 E3.57103
G1 X48.905 Y73.000 E3.57828
G1 X49.089 Y72.515 E3.58554
G1 X49.151 Y72.000 E3.59280
G1 X49.089 Y71.485 E3.60005
G1 X48.905 Y71.000 E3.60731
G1 X48.610 Y70.574 E3.61457
G1 X48.222 Y70.230 E3.62182
G1 X47.763 Y69.989 E3.62908
G1 X47.259 Y69.865 E3.63634
G1 X46.741 Y69.865 E3.64359
G1 X46.237 Y69.989 E3.65085
G1 X45.778 Y70.230 E3.65811
G1 X45.390 Y70.574 E3.66536
