; generated by PrusaSlicer 2.0.0+linux64 on 2019-12-01 at 19:28:24

; 

; external perimeters extrusion width = 0.56mm
; perimeters extrusion width = 0.56mm
; infill extrusion width = 0.56mm
; solid infill extrusion width = 0.40mm
; top infill extrusion width = 0.50mm
; first layer extrusion width = 0.50mm

M201 X9000 Y9000 Z100 E10000 ; sets maximum accelerations, mm/sec^2
M203 X300 Y300 Z5 E120 ; sets maximum feedrates, mm/sec
M204 P1500 R1500 T1500 ; sets acceleration (P, T) and retract acceleration (R), mm/sec^2
M205 X10.00 Y10.00 Z0.20 E2.50 ; sets the jerk limits, mm/sec
M205 S0 T0 ; sets the minimum extruding and travel feed rate, mm/sec
M107
M190 S70 ; set bed temperature and wait for it to be reached
M104 S230 ; set temperature
G28 ; home all axes
G1 Z5 F100 ; lift nozzle
; Filament gcode
M109 S230 ; set temperature and wait for it to be reached
G21 ; set units to millimeters
G90 ; use absolute coordinates
M82 ; use absolute distances for extrusion
G92 E0
G1 Z0.450 F10800.000
G1 E-2.00000 F2400.00000
G92 E0
G1 X49.417 Y57.582 F10800.000
G1 E2.00000 F2400.00000
G1 F1800
G1 X50.947 Y57.388 E2.02159
G1 X119.005 Y57.388 E2.97396
G1 X120.347 Y57.528 E2.99283
G1 X121.513 Y57.893 E3.00994
G1 X122.688 Y58.532 E3.02864
G1 X123.397 Y59.087 E3.04125
G1 X124.218 Y59.971 E3.05813
G1 X124.926 Y61.131 E3.07715
G1 X125.376 Y62.397 E3.09595
G1 X125.551 Y63.634 E3.11343
G1 X125.544 Y96.461 E3.57280
G1 X125.436 Y97.324 E3.58497
G1 X125.263 Y97.982 E3.59448
G1 X124.910 Y98.902 E3.60827
G1 X124.407 Y99.756 E3.62214
G1 X123.978 Y100.323 E3.63210
G1 X123.301 Y101.003 E3.64552
G1 X122.114 Y101.823 E3.66571
G1 X120.583 Y102.418 E3.68869
G1 X119.053 Y102.612 E3.71028
G1 X50.842 Y102.609 E4.66479
G1 X49.320 Y102.392 E4.68630
G1 X48.389 Y102.068 E4.70009
G1 X47.745 Y101.740 E4.71020
G1 X46.908 Y101.181 E4.72429
G1 X46.173 Y100.485 E4.73844
G1 X45.726 Y99.952 E4.74818
G1 X45.227 Y99.164 E4.76124
G1 X44.636 Y97.649 E4.78400
G1 X44.439 Y96.150 E4.80514
G1 X44.447 Y63.655 E5.25987
G1 X44.676 Y62.209 E5.28035
G1 X44.998 Y61.300 E5.29385
G1 X45.335 Y60.655 E5.30403
G1 X45.883 Y59.842 E5.31775
G1 X46.576 Y59.112 E5.33183
G1 X47.102 Y58.673 E5.34142
G1 X47.886 Y58.177 E5.35441
G1 X49.347 Y57.609 E5.37633
G1 X49.506 Y58.024 F10800.000
G1 F1800
G1 X50.959 Y57.834 E5.39684
G1 X119.005 Y57.834 E6.34904
G1 X120.262 Y57.966 E6.36673
G1 X121.354 Y58.310 E6.38275
G1 X122.454 Y58.912 E6.40029
G1 X123.095 Y59.415 E6.41170
G1 X123.861 Y60.239 E6.42744
G1 X124.525 Y61.327 E6.44528
G1 X124.945 Y62.515 E6.46291
G1 X125.107 Y63.679 E6.47935
G1 X125.101 Y96.400 E6.93723
G1 X124.843 Y97.829 E6.95755
G1 X124.511 Y98.703 E6.97063
G1 X124.033 Y99.512 E6.98379
G1 X123.637 Y100.035 E6.99297
G1 X122.994 Y100.679 E7.00570
G1 X121.877 Y101.444 E7.02465
G1 X120.459 Y101.989 E7.04590
G1 X119.041 Y102.166 E7.06590
G1 X50.865 Y102.164 E8.01992
G1 X49.445 Y101.963 E8.03997
G1 X48.562 Y101.657 E8.05306
G1 X47.973 Y101.356 E8.06231
G1 X47.183 Y100.829 E8.07560
G1 X46.487 Y100.168 E8.08903
G1 X45.606 Y98.926 E8.11034
G1 X45.065 Y97.524 E8.13138
G1 X44.885 Y96.136 E8.15096
G1 X44.892 Y63.695 E8.60493
G1 X45.145 Y62.204 E8.62609
G1 X45.483 Y61.311 E8.63945
G1 X45.951 Y60.513 E8.65239
G1 X46.353 Y59.976 E8.66178
G1 X46.999 Y59.328 E8.67458
G1 X48.124 Y58.556 E8.69367
G1 X49.436 Y58.051 E8.71335
G1 X49.594 Y58.467 F10800.000
G1 F1800
G1 X49.660 Y58.441 E8.71434
G1 X50.967 Y58.281 E8.73276
G1 X119.005 Y58.280 E9.68485
G1 X120.178 Y58.405 E9.70136
G1 X121.191 Y58.725 E9.71622
G1 X122.215 Y59.289 E9.73259
G1 X122.791 Y59.742 E9.74283
G1 X123.502 Y60.505 E9.75743
G1 X124.122 Y61.520 E9.77407
G1 X124.513 Y62.629 E9.79052
G1 X124.662 Y63.723 E9.80598
G1 X124.657 Y96.348 E10.26251
G1 X124.421 Y97.685 E10.28151
G1 X124.108 Y98.510 E10.29386
G1 X123.655 Y99.273 E10.30628
G1 X122.687 Y100.355 E10.32660
G1 X121.645 Y101.062 E10.34422
G1 X120.340 Y101.559 E10.36376
G1 X119.033 Y101.719 E10.38218
G1 X50.886 Y101.718 E11.33579
G1 X49.573 Y101.536 E11.35435
G1 X48.204 Y100.974 E11.37505
G1 X47.461 Y100.480 E11.38754
G1 X46.805 Y99.855 E11.40022
G1 X45.988 Y98.695 E11.42008
G1 X45.495 Y97.404 E11.43942
G1 X45.331 Y96.121 E11.45751
G1 X45.337 Y63.732 E11.91074
G1 X45.568 Y62.347 E11.93040
G1 X45.886 Y61.503 E11.94302
G1 X46.332 Y60.747 E11.95530
G1 X47.306 Y59.652 E11.97581
G1 X48.355 Y58.938 E11.99357
G1 X49.524 Y58.493 E12.01107
G1 E10.01107 F2400.00000
G92 E0
G1 X47.613 Y59.976 F10800.000
G1 E2.00000 F2400.00000
G1 F1800
G1 X48.586 Y59.320 E2.01642
G1 X49.779 Y58.872 E2.03427
G1 X50.971 Y58.727 E2.05107
G1 X119.004 Y58.727 E3.00309
G1 X120.091 Y58.842 E3.01837
G1 X121.028 Y59.141 E3.03214
G1 X121.977 Y59.667 E3.04732
G1 X122.488 Y60.070 E3.05643
G1 X123.142 Y60.769 E3.06982
G1 X123.720 Y61.714 E3.08532
G1 X124.083 Y62.747 E3.10064
G1 X124.218 Y63.766 E3.11503
G1 X124.214 Y96.294 E3.57021
G1 X124.001 Y97.534 E3.58782
G1 X123.707 Y98.314 E3.59949
G1 X123.281 Y99.031 E3.61115
G1 X122.381 Y100.029 E3.62997
G1 X121.414 Y100.680 E3.64627
G1 X120.221 Y101.128 E3.66411
G1 X119.029 Y101.273 E3.68091
G1 X50.907 Y101.272 E4.63417
G1 X49.702 Y101.108 E4.65118
G1 X48.436 Y100.593 E4.67031
G1 X47.738 Y100.130 E4.68204
G1 X47.123 Y99.541 E4.69395
G1 X46.370 Y98.464 E4.71234
G1 X45.924 Y97.279 E4.73006
G1 X45.777 Y96.106 E4.74661
G1 X45.782 Y63.768 E5.19912
G1 X45.992 Y62.487 E5.21729
G1 X46.289 Y61.694 E5.22914
G1 X46.710 Y60.984 E5.24068
G1 X47.563 Y60.032 E5.25857
G1 E3.25857 F2400.00000
G92 E0
G1 X53.507 Y93.841 F10800.000
G1 E2.00000 F2400.00000
G1 F1800
G1 X53.289 Y94.156 E2.00537
G1 X52.972 Y94.447 E2.01138
G1 X52.603 Y94.641 E2.01721
G1 X52.205 Y94.739 E2.02295
G1 X51.795 Y94.739 E2.02869
G1 X51.422 Y94.647 E2.03406
G1 X51.038 Y94.455 E2.04007
G1 X50.726 Y94.178 E2.04590
G1 X50.493 Y93.841 E2.05164
G1 X50.348 Y93.457 E2.05738
G1 X50.299 Y93.050 E2.06312
G1 X50.348 Y92.643 E2.06886
G1 X50.493 Y92.259 E2.07460
G1 X50.711 Y91.944 E2.07997
G1 X51.028 Y91.653 E2.08598
G1 X51.397 Y91.459 E2.09182
G1 X51.795 Y91.361 E2.09756
G1 X52.205 Y91.361 E2.10330
G1 X52.603 Y91.459 E2.10903
G1 X52.967 Y91.650 E2.11477
G1 X53.274 Y91.922 E2.12051
G1 X53.507 Y92.259 E2.12625
G1 X53.652 Y92.643 E2.13199
G1 X53.701 Y93.050 E2.13773
G1 X53.652 Y93.457 E2.14347
G1 X53.533 Y93.771 E2.14816
G1 X53.108 Y93.632 F10800.000
G1 F1800
G1 X52.950 Y93.862 E2.15207
G1 X52.713 Y94.079 E2.15657
G1 X52.444 Y94.220 E2.16083
G1 X52.151 Y94.293 E2.16505
G1 X51.849 Y94.293 E2.16927
G1 X51.578 Y94.226 E2.17318
G1 X51.291 Y94.082 E2.17768
G1 X51.063 Y93.880 E2.18193
G1 X50.892 Y93.632 E2.18616
G1 X50.785 Y93.350 E2.19038
G1 X50.748 Y93.050 E2.19460
G1 X50.785 Y92.750 E2.19883
G1 X50.892 Y92.468 E2.20305
G1 X51.050 Y92.238 E2.20696
G1 X51.287 Y92.021 E2.21145
G1 X51.556 Y91.880 E2.21571
G1 X51.849 Y91.807 E2.21993
G1 X52.151 Y91.807 E2.22416
G1 X52.444 Y91.880 E2.22838
G1 X52.711 Y92.020 E2.23260
G1 X52.937 Y92.220 E2.23683
G1 X53.108 Y92.468 E2.24105
G1 X53.215 Y92.750 E2.24527
G1 X53.252 Y93.050 E2.24949
G1 X53.215 Y93.350 E2.25372
G1 X53.135 Y93.562 E2.25689
G1 X53.258 Y93.868 F10800.000
G1 E0.25689 F2400.00000
G92 E0
G1 X52.205 Y68.639 F10800.000
G1 E2.00000 F2400.00000
G1 F1800
G1 X51.795 Y68.639 E2.00574
G1 X51.397 Y68.541 E2.01148
G1 X51.033 Y68.350 E2.01722
G1 X50.726 Y68.078 E2.02296
G1 X50.493 Y67.741 E2.02870
G1 X50.348 Y67.357 E2.03444
G1 X50.299 Y66.950 E2.04018
G1 X50.348 Y66.543 E2.04592
G1 X50.493 Y66.159 E2.05166
G1 X50.711 Y65.844 E2.05703
G1 X51.028 Y65.553 E2.06304
G1 X51.397 Y65.359 E2.06887
G1 X51.795 Y65.261 E2.07461
G1 X52.205 Y65.261 E2.08035
G1 X52.603 Y65.359 E2.08609
G1 X52.967 Y65.550 E2.09183
G1 X53.274 Y65.822 E2.09757
G1 X53.507 Y66.159 E2.10331
G1 X53.652 Y66.543 E2.10905
G1 X53.701 Y66.950 E2.11479
G1 X53.652 Y67.357 E2.12053
G1 X53.507 Y67.741 E2.12627
G1 X53.289 Y68.056 E2.13164
G1 X52.972 Y68.347 E2.13765
G1 X52.603 Y68.541 E2.14348
G1 X52.278 Y68.621 E2.14817
G1 X52.151 Y68.193 F10800.000
G1 F1800
G1 X51.849 Y68.193 E2.15239
G1 X51.556 Y68.120 E2.15662
G1 X51.289 Y67.980 E2.16084
G1 X51.063 Y67.780 E2.16506
G1 X50.892 Y67.532 E2.16929
G1 X50.785 Y67.250 E2.17351
G1 X50.748 Y66.950 E2.17773
G1 X50.785 Y66.650 E2.18196
G1 X50.892 Y66.368 E2.18618
G1 X51.050 Y66.138 E2.19009
G1 X51.287 Y65.921 E2.19458
G1 X51.556 Y65.780 E2.19884
G1 X51.849 Y65.707 E2.20306
G1 X52.151 Y65.707 E2.20729
G1 X52.444 Y65.780 E2.21151
G1 X52.711 Y65.920 E2.21573
G1 X52.937 Y66.120 E2.21996
G1 X53.108 Y66.368 E2.22418
G1 X53.215 Y66.650 E2.22840
G1 X53.252 Y66.950 E2.23262
G1 X53.215 Y67.250 E2.23685
G1 X53.108 Y67.532 E2.24107
G1 X52.950 Y67.762 E2.24498
G1 X52.713 Y67.979 E2.24948
G1 X52.444 Y68.120 E2.25373
G1 X52.224 Y68.175 E2.25691
G1 X52.033 Y68.470 F10800.000
G1 E0.25691 F2400.00000
G92 E0
G1 X116.299 Y66.950 F10800.000
G1 E2.00000 F2400.00000
G1 F1800
G1 X116.348 Y66.543 E2.00574
G1 X116.493 Y66.159 E2.01148
G1 X116.726 Y65.822 E2.01722
G1 X117.033 Y65.550 E2.02296
G1 X117.397 Y65.359 E2.02870
G1 X117.795 Y65.261 E2.03444
G1 X118.205 Y65.261 E2.04018
G1 X118.603 Y65.359 E2.04592
G1 X118.967 Y65.550 E2.05166
G1 X119.254 Y65.804 E2.05703
G1 X119.504 Y66.153 E2.06304
G1 X119.652 Y66.543 E2.06887
G1 X119.701 Y66.950 E2.07461
G1 X119.652 Y67.357 E2.08035
G1 X119.507 Y67.741 E2.08609
G1 X119.274 Y68.078 E2.09183
G1 X118.967 Y68.350 E2.09757
G1 X118.603 Y68.541 E2.10331
G1 X118.205 Y68.639 E2.10905
G1 X117.795 Y68.639 E2.11479
G1 X117.397 Y68.541 E2.12053
G1 X117.033 Y68.350 E2.12627
G1 X116.746 Y68.096 E2.13164
G1 X116.496 Y67.747 E2.13765
G1 X116.348 Y67.357 E2.14348
G1 X116.308 Y67.024 E2.14817
G1 X116.748 Y66.950 F10800.000
G1 F1800
G1 X116.785 Y66.650 E2.15239
G1 X116.892 Y66.368 E2.15662
G1 X117.063 Y66.120 E2.16084
G1 X117.289 Y65.920 E2.16506
G1 X117.556 Y65.780 E2.16929
G1 X117.849 Y65.707 E2.17351
G1 X118.151 Y65.707 E2.17773
G1 X118.444 Y65.780 E2.18196
G1 X118.711 Y65.920 E2.18618
G1 X118.920 Y66.105 E2.19009
G1 X119.108 Y66.366 E2.19458
G1 X119.215 Y66.650 E2.19884
G1 X119.252 Y66.950 E2.20306
G1 X119.215 Y67.250 E2.20729
G1 X119.108 Y67.532 E2.21151
G1 X118.937 Y67.780 E2.21573
G1 X118.711 Y67.980 E2.21995
G1 X118.444 Y68.120 E2.22418
G1 X118.151 Y68.193 E2.22840
G1 X117.849 Y68.193 E2.23262
G1 X117.556 Y68.120 E2.23685
G1 X117.289 Y67.980 E2.24107
G1 X117.080 Y67.795 E2.24498
G1 X116.892 Y67.534 E2.24948
G1 X116.785 Y67.250 E2.25373
G1 X116.757 Y67.024 E2.25691
G1 X116.487 Y66.799 F10800.000
G1 E0.25691 F2400.00000
G92 E0
G1 X110.754 Y89.990 F10800.000
G1 E2.00000 F2400.00000
G1 F1800
G1 X111.464 Y90.260 E2.01063
G1 X112.090 Y90.691 E2.02126
G1 X112.593 Y91.260 E2.03189
G1 X112.946 Y91.933 E2.04252
G1 X113.128 Y92.670 E2.05315
G1 X113.128 Y93.430 E2.06378
G1 X112.946 Y94.167 E2.07441
G1 X112.593 Y94.840 E2.08504
G1 X112.090 Y95.409 E2.09567
G1 X111.464 Y95.840 E2.10630
G1 X110.754 Y96.110 E2.11693
G1 X110.069 Y96.193 E2.12659
G1 X59.931 Y96.193 E2.82819
G1 X59.246 Y96.110 E2.83785
G1 X58.536 Y95.840 E2.84848
G1 X57.910 Y95.409 E2.85911
G1 X57.407 Y94.840 E2.86974
G1 X57.054 Y94.167 E2.88037
G1 X56.872 Y93.430 E2.89100
G1 X56.872 Y92.670 E2.90163
G1 X57.054 Y91.933 E2.91226
G1 X57.407 Y91.260 E2.92289
G1 X57.910 Y90.691 E2.93352
G1 X58.536 Y90.260 E2.94415
G1 X59.246 Y89.990 E2.95478
G1 X59.931 Y89.907 E2.96444
G1 X110.069 Y89.907 E3.66604
G1 X110.680 Y89.981 E3.67465
G1 X110.647 Y90.427 F10800.000
G1 F1800
G1 X111.255 Y90.658 E3.68376
G1 X111.791 Y91.028 E3.69288
G1 X112.223 Y91.515 E3.70199
G1 X112.526 Y92.092 E3.71110
G1 X112.682 Y92.724 E3.72022
G1 X112.682 Y93.376 E3.72933
G1 X112.526 Y94.008 E3.73844
G1 X112.223 Y94.585 E3.74756
G1 X111.791 Y95.072 E3.75667
G1 X111.255 Y95.442 E3.76578
G1 X110.647 Y95.673 E3.77490
G1 X110.042 Y95.746 E3.78342
G1 X59.958 Y95.746 E4.48427
G1 X59.353 Y95.673 E4.49279
G1 X58.745 Y95.442 E4.50190
G1 X58.209 Y95.072 E4.51101
G1 X57.777 Y94.585 E4.52013
G1 X57.474 Y94.008 E4.52924
G1 X57.318 Y93.376 E4.53835
G1 X57.318 Y92.724 E4.54747
G1 X57.474 Y92.092 E4.55658
G1 X57.777 Y91.515 E4.56569
G1 X58.209 Y91.028 E4.57481
G1 X58.745 Y90.658 E4.58392
G1 X59.353 Y90.427 E4.59303
G1 X59.958 Y90.354 E4.60155
G1 X110.042 Y90.354 E5.30241
G1 X110.572 Y90.418 E5.30988
G1 X110.539 Y90.864 F10800.000
G1 F1800
G1 X111.046 Y91.056 E5.31747
G1 X111.493 Y91.364 E5.32507
G1 X111.853 Y91.771 E5.33267
G1 X112.106 Y92.251 E5.34026
G1 X112.235 Y92.779 E5.34786
G1 X112.235 Y93.321 E5.35545
G1 X112.106 Y93.849 E5.36305
G1 X111.853 Y94.329 E5.37065
G1 X111.493 Y94.736 E5.37824
G1 X111.046 Y95.044 E5.38584
G1 X110.539 Y95.236 E5.39344
G1 X110.015 Y95.300 E5.40082
G1 X59.985 Y95.300 E6.10092
G1 X59.461 Y95.236 E6.10830
G1 X58.954 Y95.044 E6.11590
G1 X58.507 Y94.736 E6.12349
G1 X58.147 Y94.329 E6.13109
G1 X57.894 Y93.849 E6.13869
G1 X57.765 Y93.321 E6.14628
G1 X57.765 Y92.779 E6.15388
G1 X57.894 Y92.251 E6.16148
G1 X58.147 Y91.771 E6.16907
G1 X58.507 Y91.364 E6.17667
G1 X58.954 Y91.056 E6.18427
G1 X59.461 Y90.864 E6.19186
G1 X59.985 Y90.800 E6.19924
G1 X110.015 Y90.800 E6.89934
G1 X110.464 Y90.855 E6.90568
G1 X110.885 Y90.503 F10800.000
G1 E4.90568 F2400.00000
G92 E0
G1 X110.754 Y70.010 F10800.000
G1 E2.00000 F2400.00000
G1 F1800
G1 X110.069 Y70.093 E2.00966
G1 X59.931 Y70.093 E2.71126
G1 X59.246 Y70.010 E2.72092
G1 X58.536 Y69.740 E2.73155
G1 X57.910 Y69.309 E2.74218
G1 X57.407 Y68.740 E2.75281
G1 X57.054 Y68.067 E2.76344
G1 X56.872 Y67.330 E2.77407
G1 X56.872 Y66.570 E2.78470
G1 X57.054 Y65.833 E2.79533
G1 X57.407 Y65.160 E2.80596
G1 X57.910 Y64.591 E2.81659
G1 X58.536 Y64.160 E2.82722
G1 X59.246 Y63.890 E2.83785
G1 X59.931 Y63.807 E2.84751
G1 X110.069 Y63.807 E3.54911
G1 X110.754 Y63.890 E3.55877
G1 X111.464 Y64.160 E3.56940
G1 X112.090 Y64.591 E3.58003
G1 X112.560 Y65.122 E3.58995
G1 X112.944 Y65.822 E3.60113
G1 X113.128 Y66.570 E3.61191
G1 X113.128 Y67.330 E3.62254
G1 X112.946 Y68.067 E3.63317
G1 X112.593 Y68.740 E3.64380
G1 X112.090 Y69.309 E3.65443
G1 X111.464 Y69.740 E3.66506
G1 X110.824 Y69.983 E3.67464
G1 X110.647 Y69.573 F10800.000
G1 F1800
G1 X110.042 Y69.646 E3.68316
G1 X59.958 Y69.646 E4.38401
G1 X59.353 Y69.573 E4.39253
G1 X58.745 Y69.342 E4.40164
G1 X58.209 Y68.972 E4.41075
G1 X57.777 Y68.485 E4.41987
G1 X57.474 Y67.908 E4.42898
G1 X57.318 Y67.276 E4.43809
G1 X57.318 Y66.624 E4.44721
G1 X57.474 Y65.992 E4.45632
G1 X57.777 Y65.415 E4.46543
G1 X58.209 Y64.928 E4.47455
G1 X58.745 Y64.558 E4.48366
G1 X59.353 Y64.327 E4.49277
G1 X59.958 Y64.254 E4.50129
G1 X110.042 Y64.254 E5.20215
G1 X110.647 Y64.327 E5.21067
G1 X111.255 Y64.558 E5.21978
G1 X111.791 Y64.928 E5.22889
G1 X112.192 Y65.380 E5.23735
G1 X112.524 Y65.986 E5.24701
G1 X112.682 Y66.624 E5.25622
G1 X112.682 Y67.276 E5.26533
G1 X112.526 Y67.908 E5.27444
G1 X112.223 Y68.485 E5.28356
G1 X111.791 Y68.972 E5.29267
G1 X111.255 Y69.342 E5.30178
G1 X110.717 Y69.546 E5.30985
G1 X110.539 Y69.136 F10800.000
G1 F1800
G1 X110.015 Y69.200 E5.31723
G1 X59.985 Y69.200 E6.01733
G1 X59.461 Y69.136 E6.02471
G1 X58.954 Y68.944 E6.03231
G1 X58.507 Y68.636 E6.03990
G1 X58.147 Y68.229 E6.04750
G1 X57.894 Y67.749 E6.05510
G1 X57.765 Y67.221 E6.06269
G1 X57.765 Y66.679 E6.07029
G1 X57.894 Y66.151 E6.07789
G1 X58.147 Y65.671 E6.08548
G1 X58.507 Y65.264 E6.09308
G1 X58.954 Y64.956 E6.10067
G1 X59.461 Y64.764 E6.10827
G1 X59.985 Y64.700 E6.11565
G1 X110.015 Y64.700 E6.81575
G1 X110.539 Y64.764 E6.82313
G1 X111.046 Y64.956 E6.83073
G1 X111.493 Y65.264 E6.83833
G1 X111.825 Y65.639 E6.84533
G1 X112.105 Y66.149 E6.85347
G1 X112.235 Y66.679 E6.86110
G1 X112.235 Y67.221 E6.86870
G1 X112.106 Y67.749 E6.87630
G1 X111.853 Y68.229 E6.88389
G1 X111.493 Y68.636 E6.89149
G1 X111.046 Y68.944 E6.89908
G1 X110.609 Y69.110 E6.90563
G1 X110.400 Y69.617 F10800.000
G1 E4.90563 F2400.00000
G92 E0
G1 X119.669 Y68.291 F10800.000
G1 E2.00000 F2400.00000
G1 F1800
G1 X119.857 Y68.350 E2.00276
G1 X119.857 Y91.661 E2.32897
G1 X119.672 Y91.721 E2.33170
G1 X119.587 Y91.603 E2.33372
G1 X119.222 Y91.280 E2.34055
G1 X118.763 Y91.039 E2.34781
G1 X118.259 Y90.915 E2.35506
G1 X117.741 Y90.915 E2.36232
G1 X117.237 Y91.039 E2.36958
G1 X116.778 Y91.280 E2.37683
G1 X116.390 Y91.624 E2.38409
G1 X116.095 Y92.050 E2.39135
G1 X115.911 Y92.535 E2.39860
G1 X115.849 Y93.050 E2.40586
