; generated by Slic3r 1.2.9 on 2016-04-10 at 19:47:08

; external perimeters extrusion width = 0.50mm
; perimeters extrusion width = 0.50mm
; infill extrusion width = 0.50mm
; solid infill extrusion width = 0.50mm
; top infill extrusion width = 0.50mm

M107
M190 S70 ; set bed temperature
M104 S220 ; set temperature
G28 ; home all axes
M109 S220 ; wait for temperature to be reached
G21 ; set units to millimeters
G90 ; use absolute coordinates
M82 ; use absolute distances for extrusion
G92 E0
G1 Z0.350 F7800.000
G1 E-2.00000 F1920.00000
G92 E0
G1 X61.940 Y37.287 F7800.000
G1 E2.00000 F1920.00000
M204 S3000
G1 X63.069 Y35.592 E2.02786 F1800.000
G1 X64.759 Y34.457 E2.05572
G1 X66.776 Y34.052 E2.08387
G1 X103.224 Y34.052 E2.58263
G1 X105.221 Y34.448 E2.61049
G1 X106.916 Y35.577 E2.63835 F1800.000
G1 X108.051 Y37.267 E2.66621
G1 X108.456 Y39.284 E2.69436
G1 X108.456 Y78.716 E3.23395
G1 X108.411 Y79.399 E3.24332
G1 X108.343 Y79.917 E3.25046
G1 X107.989 Y81.236 E3.26915
G1 X107.790 Y81.718 E3.27630
G1 X107.107 Y82.901 E3.29498
G1 X106.789 Y83.315 E3.30214
G1 X105.823 Y84.281 E3.32082
G1 X105.409 Y84.599 E3.32796
G1 X104.226 Y85.282 E3.34665
G1 X103.744 Y85.481 E3.35380
G1 X102.425 Y85.835 E3.37248
G1 X101.907 Y85.903 E3.37963
G1 X101.224 Y85.948 E3.38899
G1 X68.776 Y85.948 E3.83301
G1 X68.093 Y85.903 E3.84238
G1 X67.575 Y85.835 E3.84952
G1 X66.256 Y85.481 E3.86821
G1 X65.774 Y85.281 E3.87536
G1 X64.591 Y84.599 E3.89405
G1 X64.177 Y84.281 E3.90119
G1 X63.211 Y83.315 E3.91988
G1 X62.893 Y82.901 E3.92702
G1 X62.210 Y81.718 E3.94571
G1 X62.011 Y81.236 E3.95286
G1 X61.657 Y79.917 E3.97154
G1 X61.589 Y79.399 E3.97869
G1 X61.544 Y78.716 E3.98806
G1 X61.544 Y39.284 E4.52764
G1 X61.926 Y37.360 E4.55448
G1 X62.386 Y37.379 F7800.000
G4 P29
G1 X63.508 Y35.788 E4.58113 F1800.000
G1 X65.171 Y34.776 E4.60776
G1 X66.776 Y34.499 E4.63005
G1 X103.224 Y34.499 E5.12881
G1 X105.130 Y34.894 E5.15544
G1 X106.720 Y36.016 E5.18208 F1800.000
G1 X107.732 Y37.679 E5.20871
G1 X108.009 Y39.284 E5.23100
G1 X108.009 Y78.716 E5.77059
G1 X107.968 Y79.341 E5.77915
G1 X107.900 Y79.858 E5.78630
G1 X107.577 Y81.065 E5.80339
G1 X107.377 Y81.547 E5.81054
G1 X106.753 Y82.629 E5.82763
G1 X106.443 Y83.033 E5.83460
G1 X105.551 Y83.927 E5.85187
G1 X105.137 Y84.245 E5.85901
G1 X104.055 Y84.869 E5.87611
G1 X103.573 Y85.069 E5.88325
G1 X102.367 Y85.392 E5.90034
G1 X101.849 Y85.460 E5.90749
G1 X101.224 Y85.501 E5.91606
G1 X68.776 Y85.501 E6.36008
G1 X68.151 Y85.460 E6.36864
G1 X67.634 Y85.392 E6.37579
G1 X66.427 Y85.069 E6.39288
G1 X65.945 Y84.869 E6.40003
G1 X64.863 Y84.245 E6.41712
G1 X64.449 Y83.927 E6.42427
G1 X63.565 Y83.043 E6.44136
G1 X63.247 Y82.629 E6.44850
G1 X62.623 Y81.547 E6.46560
G1 X62.423 Y81.065 E6.47274
G1 X62.100 Y79.858 E6.48984
G1 X62.032 Y79.341 E6.49698
G1 X61.991 Y78.716 E6.50555
G1 X61.991 Y39.284 E7.04514
G1 X62.371 Y37.453 E7.07073
G1 X62.832 Y37.477 F7800.000
G4 P29
G1 X63.946 Y35.994 E7.09611 F1800.000
G1 X65.576 Y35.114 E7.12146
G1 X66.776 Y34.945 E7.13804
G1 X103.224 Y34.945 E7.63679
G1 X105.034 Y35.340 E7.66214
G1 X106.514 Y36.454 E7.68749 F1800.000
G1 X107.394 Y38.084 E7.71284
G1 X107.563 Y39.284 E7.72942
G1 X107.563 Y78.716 E8.26900
G1 X107.526 Y79.282 E8.27677
G1 X107.458 Y79.800 E8.28392
G1 X107.165 Y80.894 E8.29942
G1 X106.965 Y81.376 E8.30656
G1 X106.398 Y82.357 E8.32206
G1 X106.088 Y82.762 E8.32903
G1 X105.280 Y83.573 E8.34470
G1 X104.865 Y83.890 E8.35185
G1 X103.884 Y84.457 E8.36735
G1 X103.402 Y84.657 E8.37449
G1 X102.308 Y84.950 E8.38999
G1 X101.790 Y85.018 E8.39714
G1 X101.224 Y85.055 E8.40490
G1 X68.776 Y85.055 E8.84892
G1 X68.210 Y85.018 E8.85669
G1 X67.692 Y84.950 E8.86384
G1 X66.598 Y84.657 E8.87933
G1 X66.115 Y84.457 E8.88648
G1 X65.135 Y83.890 E8.90198
G1 X64.720 Y83.573 E8.90912
G1 X63.919 Y82.772 E8.92462
G1 X63.602 Y82.357 E8.93177
G1 X63.035 Y81.377 E8.94727
G1 X62.835 Y80.894 E8.95441
G1 X62.542 Y79.800 E8.96991
G1 X62.474 Y79.282 E8.97706
G1 X62.437 Y78.716 E8.98482
G1 X62.437 Y39.284 E9.52441
G1 X62.816 Y37.550 E9.54870
G1 X63.277 Y37.580 F7800.000
G4 P29
G1 X64.383 Y36.214 E9.57274 F1800.000
G1 X66.776 Y35.391 E9.60738
G1 X103.224 Y35.391 E10.10613
G1 X104.932 Y35.786 E10.13012
G1 X106.294 Y36.891 E10.15412 F1800.000
G1 X107.117 Y39.284 E10.18875
G1 X107.117 Y78.716 E10.72834
G1 X107.083 Y79.224 E10.73531
G1 X107.015 Y79.742 E10.74245
G1 X106.752 Y80.723 E10.75636
G1 X106.552 Y81.206 E10.76350
G1 X106.044 Y82.086 E10.77741
G1 X105.734 Y82.490 E10.78438
G1 X105.008 Y83.218 E10.79845
G1 X104.594 Y83.536 E10.80560
G1 X103.714 Y84.044 E10.81950
G1 X103.231 Y84.244 E10.82665
G1 X102.250 Y84.507 E10.84055
G1 X101.732 Y84.575 E10.84770
G1 X101.224 Y84.609 E10.85467
G1 X68.776 Y84.609 E11.29869
G1 X68.268 Y84.575 E11.30565
G1 X67.750 Y84.507 E11.31280
G1 X66.769 Y84.244 E11.32670
G1 X66.286 Y84.044 E11.33385
G1 X65.406 Y83.536 E11.34775
G1 X64.992 Y83.219 E11.35490
G1 X64.273 Y82.500 E11.36881
G1 X63.956 Y82.086 E11.37595
G1 X63.448 Y81.206 E11.38985
G1 X63.248 Y80.723 E11.39700
G1 X62.985 Y79.742 E11.41090
G1 X62.917 Y79.224 E11.41805
G1 X62.883 Y78.716 E11.42502
G1 X62.883 Y39.284 E11.96461
G1 X63.260 Y37.653 E11.98752
G1 X63.722 Y37.689 F7800.000
G4 P29
G1 X64.816 Y36.449 E12.01015 F1800.000
G1 X66.776 Y35.838 E12.03824
G1 X103.224 Y35.838 E12.53699
G1 X104.825 Y36.232 E12.55955
G1 X106.059 Y37.324 E12.58211 F1800.000
G1 X106.670 Y39.284 E12.61020
G1 X106.670 Y78.716 E13.14979
G1 X106.641 Y79.166 E13.15596
G1 X106.573 Y79.684 E13.16310
G1 X106.340 Y80.552 E13.17541
G1 X106.140 Y81.035 E13.18256
G1 X105.690 Y81.814 E13.19487
G1 X105.380 Y82.218 E13.20184
G1 X104.736 Y82.864 E13.21432
G1 X104.322 Y83.182 E13.22147
G1 X103.543 Y83.632 E13.23378
G1 X103.060 Y83.832 E13.24092
G1 X102.192 Y84.065 E13.25323
G1 X101.674 Y84.133 E13.26038
G1 X101.224 Y84.162 E13.26655
G1 X68.776 Y84.162 E13.71057
G1 X68.326 Y84.133 E13.71674
G1 X67.808 Y84.065 E13.72388
G1 X66.940 Y83.832 E13.73619
G1 X66.457 Y83.632 E13.74334
G1 X65.678 Y83.182 E13.75565
G1 X65.264 Y82.864 E13.76279
G1 X64.628 Y82.228 E13.77510
G1 X64.310 Y81.814 E13.78225
G1 X63.860 Y81.035 E13.79456
G1 X63.660 Y80.553 E13.80170
G1 X63.427 Y79.684 E13.81401
G1 X63.359 Y79.166 E13.82116
G1 X63.330 Y78.716 E13.82733
G1 X63.330 Y39.284 E14.36692
G1 X63.704 Y37.762 E14.38836
G1 E12.38836 F1920.00000
G92 E0
G1 X73.078 Y76.718 F7800.000
G1 E2.00000 F1920.00000
G1 X73.001 Y77.300 E2.00803 F1800.000
G1 X72.793 Y77.825 E2.01576
G1 X72.454 Y78.292 E2.02365
G1 X72.009 Y78.660 E2.03155
G1 X71.487 Y78.905 E2.03945
G1 X70.921 Y79.013 E2.04734
G1 X70.345 Y78.977 E2.05524
G1 X69.807 Y78.803 E2.06297
G1 X69.310 Y78.491 E2.07099
G1 X68.914 Y78.069 E2.07892
G1 X68.642 Y77.574 E2.08665
G1 X68.492 Y77.007 E2.09468
G1 X68.492 Y76.427 E2.10260
G1 X68.633 Y75.880 E2.11033
G1 X68.912 Y75.365 E2.11836
G1 X69.309 Y74.942 E2.12629
G1 X69.798 Y74.632 E2.13421
G1 X70.357 Y74.454 E2.14224
G1 X70.921 Y74.419 E2.14997 F1800.000
G1 X71.487 Y74.527 E2.15786
G1 X72.009 Y74.772 E2.16576
G1 X72.456 Y75.142 E2.17369
G1 X72.798 Y75.618 E2.18171
G1 X73.006 Y76.144 E2.18944
G1 X73.069 Y76.644 E2.19634
G1 X72.628 Y76.717 F7800.000
G1 X72.566 Y77.187 E2.20283 F1800.000
G1 X72.399 Y77.608 E2.20903
G1 X72.126 Y77.984 E2.21539
G1 X71.768 Y78.280 E2.22174
G1 X71.348 Y78.477 E2.22809
G1 X70.892 Y78.564 E2.23444
G1 X70.429 Y78.535 E2.24080
G1 X69.998 Y78.395 E2.24700
G1 X69.596 Y78.144 E2.25349
G1 X69.278 Y77.805 E2.25985
G1 X69.059 Y77.407 E2.26605
G1 X68.939 Y76.949 E2.27254
G1 X68.939 Y76.484 E2.27890
G1 X69.051 Y76.045 E2.28511
G1 X69.277 Y75.628 E2.29159
G1 X69.595 Y75.289 E2.29796
G1 X69.988 Y75.040 E2.30432
G1 X70.440 Y74.896 E2.31080
G1 X70.892 Y74.868 E2.31701 F1800.000
G1 X71.348 Y74.955 E2.32336
G1 X71.768 Y75.152 E2.32971
G1 X72.127 Y75.449 E2.33608
G1 X72.403 Y75.834 E2.34256
G1 X72.570 Y76.255 E2.34877
G1 X72.619 Y76.642 E2.35411
G1 X73.027 Y76.972 F7800.000
G1 E0.35411 F1920.00000
G92 E0
G1 X70.004 Y79.573 F7800.000
G1 E2.00000 F1920.00000
G1 X68.851 Y79.573 E2.01578 F1800.000
G1 X68.557 Y79.535 E2.01984
G1 X68.361 Y79.453 E2.02274
G1 X68.175 Y79.312 E2.02594
G1 X68.042 Y79.140 E2.02892
G1 X67.957 Y78.935 E2.03194
G1 X67.919 Y78.641 E2.03601
G1 X67.919 Y77.498 E2.05165
G1 X68.152 Y77.468 E2.05487
G1 X68.224 Y77.741 E2.05873
G1 X68.550 Y78.333 E2.06798
G1 X69.024 Y78.839 E2.07747
G1 X69.617 Y79.210 E2.08704
G1 X70.040 Y79.347 E2.09312
G1 X70.016 Y79.499 E2.09523
G4 P28
G1 X96.940 Y77.007 F7800.000
G1 X96.940 Y76.427 E2.10315 F1800.000
G1 X97.084 Y75.869 E2.11105
G1 X97.362 Y75.363 E2.11894
G1 X97.757 Y74.942 E2.12684
G1 X98.246 Y74.632 E2.13476
G1 X98.805 Y74.454 E2.14279
G1 X99.369 Y74.419 E2.15052 F1800.000
G1 X99.935 Y74.527 E2.15842
G1 X100.457 Y74.772 E2.16631
G1 X100.902 Y75.140 E2.17421
G1 X101.241 Y75.607 E2.18210
G1 X101.454 Y76.144 E2.19000
G1 X101.526 Y76.716 E2.19790
G1 X101.454 Y77.288 E2.20579
G1 X101.241 Y77.825 E2.21369
G1 X100.902 Y78.292 E2.22158
G1 X100.457 Y78.660 E2.22948
G1 X99.935 Y78.905 E2.23737
G1 X99.369 Y79.013 E2.24527
G1 X98.793 Y78.977 E2.25317
G1 X98.255 Y78.803 E2.26090
G1 X97.758 Y78.491 E2.26892
G1 X97.362 Y78.069 E2.27685
G1 X97.090 Y77.574 E2.28458
G1 X96.959 Y77.079 E2.29158
G1 X97.387 Y76.949 F7800.000
G1 X97.387 Y76.484 E2.29794 F1800.000
G1 X97.502 Y76.034 E2.30430
G1 X97.726 Y75.627 E2.31065
G1 X98.043 Y75.289 E2.31700
G1 X98.436 Y75.040 E2.32337
G1 X98.888 Y74.896 E2.32985
G1 X99.340 Y74.868 E2.33606 F1800.000
G1 X99.796 Y74.955 E2.34241
G1 X100.216 Y75.152 E2.34876
G1 X100.574 Y75.448 E2.35511
G1 X100.847 Y75.824 E2.36147
G1 X101.018 Y76.255 E2.36782
G1 X101.076 Y76.716 E2.37417
G1 X101.018 Y77.177 E2.38052
G1 X100.847 Y77.608 E2.38688
G1 X100.574 Y77.984 E2.39323
G1 X100.216 Y78.280 E2.39958
G1 X99.796 Y78.477 E2.40593
G1 X99.340 Y78.564 E2.41229
G1 X98.877 Y78.535 E2.41864
G1 X98.446 Y78.395 E2.42484
G1 X98.044 Y78.144 E2.43133
G1 X97.726 Y77.805 E2.43769
G1 X97.507 Y77.407 E2.44390
G1 X97.406 Y77.021 E2.44936
G1 X96.965 Y76.752 F7800.000
G1 E0.44936 F1920.00000
G92 E0
G1 X100.056 Y79.573 F7800.000
G1 E2.00000 F1920.00000
G4 P1
G1 X100.009 Y79.364 E2.00294 F1800.000
G4 P26
G1 X100.698 Y79.039 E2.01337
G1 X101.230 Y78.600 E2.02280
G1 X101.635 Y78.042 E2.03224
G1 X101.864 Y77.465 E2.04073
G1 X102.081 Y77.507 E2.04376
G1 X102.081 Y78.641 E2.05928
G1 X102.043 Y78.935 E2.06335
G1 X101.958 Y79.140 E2.06637
G1 X101.823 Y79.315 E2.06940
G1 X101.648 Y79.450 E2.07243
G1 X101.443 Y79.535 E2.07545
G1 X101.149 Y79.573 E2.07952
G1 X100.131 Y79.573 E2.09345
G1 X92.970 Y73.554 F7800.000
G1 X92.176 Y74.455 E2.10988 F1800.000
G1 X91.325 Y75.215 E2.12550
G1 X90.397 Y75.874 E2.14106
G1 X89.402 Y76.424 E2.15663
G1 X88.351 Y76.859 E2.17220
G1 X87.257 Y77.174 E2.18776
G1 X86.136 Y77.365 E2.20333
G1 X85.000 Y77.428 E2.21890
G1 X83.864 Y77.365 E2.23447
G1 X82.743 Y77.174 E2.25003
G1 X81.649 Y76.859 E2.26560
G1 X80.598 Y76.424 E2.28117
G1 X79.603 Y75.874 E2.29673
G1 X78.675 Y75.215 E2.31230
G1 X77.827 Y74.457 E2.32787
G1 X77.069 Y73.609 E2.34344
G1 X76.410 Y72.681 E2.35900
G1 X75.860 Y71.686 E2.37457
G1 X75.425 Y70.635 E2.39014
G1 X75.110 Y69.541 E2.40570
G1 X74.938 Y68.530 E2.41975
G1 X74.857 Y67.322 E2.43631
G1 X74.857 Y54.252 E2.61516
G1 X74.919 Y53.148 E2.63029
G1 X75.110 Y52.027 E2.64586
G1 X75.425 Y50.933 E2.66142
G1 X75.860 Y49.882 E2.67699
G1 X76.410 Y48.887 E2.69256
G1 X77.069 Y47.959 E2.70812
G1 X77.827 Y47.111 E2.72369
G1 X78.675 Y46.353 E2.73926
G1 X79.603 Y45.694 E2.75483
G1 X80.598 Y45.144 E2.77039
G1 X81.649 Y44.709 E2.78596
G1 X82.743 Y44.394 E2.80153
G1 X83.864 Y44.203 E2.81709
G1 X84.933 Y44.143 E2.83175 F1800.000
G1 X86.132 Y44.203 E2.84817
G1 X87.257 Y44.394 E2.86379
G1 X88.351 Y44.709 E2.87936
G1 X89.402 Y45.144 E2.89492
G1 X90.397 Y45.694 E2.91049
G1 X91.325 Y46.353 E2.92606
G1 X92.173 Y47.111 E2.94163
G1 X92.931 Y47.959 E2.95719
G1 X93.590 Y48.887 E2.97276
G1 X94.140 Y49.882 E2.98833
G1 X94.575 Y50.933 E3.00389
G1 X94.890 Y52.027 E3.01946
G1 X95.081 Y53.148 E3.03503
G1 X95.143 Y54.252 E3.05016
G1 X95.143 Y67.322 E3.22901
G1 X95.062 Y68.530 E3.24557
G1 X94.890 Y69.541 E3.25961
G1 X94.575 Y70.635 E3.27518
G1 X94.140 Y71.686 E3.29075
G1 X93.590 Y72.681 E3.30631
G1 X93.013 Y73.493 E3.31994
G1 X92.620 Y73.277 F7800.000
G4 P29
G1 X91.859 Y74.140 E3.33568 F1800.000
G1 X91.046 Y74.866 E3.35059
G1 X90.159 Y75.495 E3.36547
G1 X89.208 Y76.021 E3.38035
G1 X88.203 Y76.437 E3.39524
G1 X87.158 Y76.738 E3.41012
G1 X86.086 Y76.920 E3.42500
G1 X85.000 Y76.981 E3.43988
G1 X83.914 Y76.920 E3.45476
G1 X82.842 Y76.738 E3.46964
G1 X81.797 Y76.437 E3.48452
G1 X80.792 Y76.021 E3.49940
G1 X79.841 Y75.495 E3.51428
G1 X78.954 Y74.866 E3.52917
G1 X78.143 Y74.141 E3.54405
G1 X77.418 Y73.330 E3.55893
G1 X76.789 Y72.443 E3.57381
G1 X76.263 Y71.492 E3.58869
G1 X75.847 Y70.487 E3.60357
G1 X75.546 Y69.442 E3.61845
G1 X75.382 Y68.477 E3.63184
G1 X75.304 Y67.307 E3.64789
G1 X75.304 Y54.264 E3.82637
G1 X75.364 Y53.198 E3.84098
G1 X75.546 Y52.126 E3.85586
G1 X75.847 Y51.081 E3.87074
G1 X76.263 Y50.076 E3.88562
G1 X76.789 Y49.125 E3.90050
G1 X77.418 Y48.238 E3.91538
G1 X78.143 Y47.427 E3.93027
G1 X78.954 Y46.702 E3.94515
G1 X79.841 Y46.073 E3.96003
G1 X80.792 Y45.547 E3.97491
G1 X81.797 Y45.131 E3.98979
G1 X82.842 Y44.830 E4.00467
G1 X83.914 Y44.648 E4.01955
G1 X84.935 Y44.590 E4.03354 F1800.000
G1 X86.084 Y44.647 E4.04928
G1 X87.158 Y44.830 E4.06419
G1 X88.203 Y45.131 E4.07907
G1 X89.208 Y45.547 E4.09395
G1 X90.159 Y46.073 E4.10883
G1 X91.046 Y46.702 E4.12372
G1 X91.857 Y47.427 E4.13860
G1 X92.582 Y48.238 E4.15348
G1 X93.211 Y49.125 E4.16836
G1 X93.737 Y50.076 E4.18324
G1 X94.153 Y51.081 E4.19812
G1 X94.454 Y52.126 E4.21300
G1 X94.636 Y53.198 E4.22788
G1 X94.696 Y54.264 E4.24250
G1 X94.696 Y67.307 E4.42097
G1 X94.618 Y68.477 E4.43702
G1 X94.454 Y69.442 E4.45041
G1 X94.153 Y70.487 E4.46529
G1 X93.737 Y71.492 E4.48017
G1 X93.211 Y72.443 E4.49505
G1 X92.663 Y73.216 E4.50801
G1 X92.269 Y72.999 F7800.000
G4 P29
G1 X91.542 Y73.824 E4.52307 F1800.000
G1 X90.768 Y74.516 E4.53727
G1 X89.922 Y75.117 E4.55147
G1 X89.014 Y75.618 E4.56566
G1 X88.055 Y76.015 E4.57986
G1 X87.058 Y76.302 E4.59405
G1 X86.036 Y76.476 E4.60825
G1 X85.000 Y76.534 E4.62244
G1 X83.964 Y76.476 E4.63664
G1 X82.942 Y76.302 E4.65083
G1 X81.945 Y76.015 E4.66503
G1 X80.986 Y75.618 E4.67922
G1 X80.078 Y75.117 E4.69342
G1 X79.232 Y74.516 E4.70761
G1 X78.459 Y73.825 E4.72181
G1 X77.768 Y73.052 E4.73600
G1 X77.167 Y72.206 E4.75020
G1 X76.666 Y71.298 E4.76439
G1 X76.269 Y70.339 E4.77859
G1 X75.982 Y69.342 E4.79278
G1 X75.826 Y68.425 E4.80552
G1 X75.750 Y67.292 E4.82105
G1 X75.750 Y54.277 E4.99915
G1 X75.808 Y53.248 E5.01325
G1 X75.982 Y52.226 E5.02745
G1 X76.269 Y51.229 E5.04164
G1 X76.666 Y50.270 E5.05584
G1 X77.167 Y49.362 E5.07003
G1 X77.768 Y48.516 E5.08423
G1 X78.459 Y47.743 E5.09842
G1 X79.232 Y47.052 E5.11262
G1 X80.078 Y46.451 E5.12681
G1 X80.986 Y45.950 E5.14101
G1 X81.945 Y45.553 E5.15520
G1 X82.942 Y45.266 E5.16940
G1 X83.964 Y45.092 E5.18359
G1 X84.936 Y45.037 E5.19692 F1800.000
G1 X86.035 Y45.092 E5.21197
G1 X87.058 Y45.266 E5.22618
G1 X88.055 Y45.553 E5.24037
G1 X89.014 Y45.950 E5.25457
G1 X89.922 Y46.451 E5.26876
G1 X90.768 Y47.052 E5.28296
G1 X91.541 Y47.743 E5.29715
G1 X92.232 Y48.516 E5.31135
G1 X92.833 Y49.362 E5.32554
G1 X93.334 Y50.270 E5.33974
G1 X93.731 Y51.229 E5.35393
G1 X94.018 Y52.226 E5.36813
G1 X94.192 Y53.248 E5.38232
G1 X94.250 Y54.277 E5.39642
G1 X94.250 Y67.292 E5.57452
G1 X94.174 Y68.425 E5.59005
G1 X94.018 Y69.342 E5.60279
G1 X93.731 Y70.339 E5.61699
G1 X93.334 Y71.298 E5.63118
G1 X92.833 Y72.206 E5.64538
G1 X92.313 Y72.938 E5.65767
G1 X92.445 Y73.467 F7800.000
G1 X98.452 Y79.573 F7800.000
G1 X71.608 Y79.573 E6.02501 F1800.000
G1 X71.561 Y79.364 E6.02795
G1 X72.250 Y79.039 E6.03838
G1 X72.782 Y78.600 E6.04781
G1 X73.187 Y78.042 E6.05725
G1 X73.436 Y77.413 E6.06651
G1 X73.528 Y76.719 E6.07608
G1 X73.441 Y76.032 E6.08557
G1 X73.192 Y75.403 E6.09482
G1 X72.785 Y74.835 E6.10439
G1 X72.250 Y74.393 E6.11388
G1 X71.626 Y74.099 E6.12332
G1 X70.949 Y73.970 E6.13276
G1 X70.274 Y74.012 E6.14201
G1 X69.607 Y74.224 E6.15158
G1 X69.022 Y74.596 E6.16107
G1 X68.547 Y75.101 E6.17056
G1 X68.214 Y75.716 E6.18013
