; generated by Slic3r 1.2.9 on 2016-04-10 at 17:05:34

; external perimeters extrusion width = 0.50mm
; perimeters extrusion width = 0.50mm
; infill extrusion width = 0.50mm
; solid infill extrusion width = 0.50mm
; top infill extrusion width = 0.50mm

M107
M190 S70 ; set bed temperature
M104 S220 ; set temperature
G28 ; home all axes
M109 S220 ; wait for temperature to be reached
G21 ; set units to millimeters
G90 ; use absolute coordinates
M82 ; use absolute distances for extrusion
G92 E0
G1 Z0.350 F7800.000
G1 E-2.00000 F1920.00000
G92 E0
G1 X30.688 Y27.613 F7800.000
G1 E2.00000 F1920.00000
M204 S3000
G1 X32.378 Y26.477 E2.02786 F1800.000
G1 X33.590 Y26.135 E2.04509
G1 X109.366 Y14.325 E3.09453
G1 X110.931 Y14.109 E3.11614
G1 X112.768 Y13.971 E3.14135
G1 X114.967 Y13.971 E3.17145
G1 X116.804 Y14.109 E3.19666 F1800.000
G1 X118.275 Y14.311 E3.21698
G1 X120.081 Y14.674 E3.24219
G1 X121.859 Y15.160 E3.26740
G1 X123.931 Y15.896 E3.29749
G1 X125.616 Y16.641 E3.32270
G1 X127.246 Y17.499 E3.34791
G1 X128.813 Y18.467 E3.37312
G1 X130.027 Y19.323 E3.39344
G1 X131.463 Y20.477 E3.41865
G1 X132.818 Y21.725 E3.44386
G1 X134.319 Y23.332 E3.47395
G1 X135.472 Y24.769 E3.49916
G1 X136.329 Y25.982 E3.51948
G1 X137.296 Y27.550 E3.54469
G1 X138.154 Y29.180 E3.56990
G1 X139.031 Y31.197 E3.59999
G1 X139.636 Y32.937 E3.62520
G1 X140.037 Y34.367 E3.64553
G1 X140.423 Y36.168 E3.67073
G1 X140.723 Y38.347 E3.70083
G1 X140.836 Y40.186 E3.72604
G1 X140.835 Y41.794 E3.74804
G1 X139.514 Y97.932 E4.51646
G1 X139.470 Y98.492 E4.52414
G1 X139.368 Y99.268 E4.53486
G1 X139.015 Y100.588 E4.55354
G1 X138.715 Y101.311 E4.56426
G1 X138.032 Y102.494 E4.58295
G1 X137.555 Y103.115 E4.59367
G1 X136.590 Y104.081 E4.61236
G1 X135.968 Y104.558 E4.62307
G1 X134.786 Y105.241 E4.64176
G1 X134.062 Y105.540 E4.65248
G1 X132.743 Y105.894 E4.67117
G1 X131.966 Y105.996 E4.68189
G1 X131.283 Y106.041 E4.69125
G1 X92.851 Y106.041 E5.21715
G1 X92.098 Y105.986 E5.22749
G1 X33.642 Y97.482 E6.03583
G1 X31.723 Y96.802 E6.06369
G1 X30.208 Y95.441 E6.09155
G1 X29.328 Y93.606 E6.11941
G1 X29.164 Y92.304 E6.13735
G1 X29.164 Y31.304 E6.97208
G1 X29.560 Y29.307 E6.99994
G1 X30.647 Y27.675 E7.02678
G1 X31.074 Y27.885 F7800.000
G4 P29
G1 X31.128 Y27.808 E7.02806 F1800.000
G1 X33.658 Y26.576 E7.06657
G1 X109.435 Y14.766 E8.11602
G1 X110.991 Y14.551 E8.13752
G1 X112.798 Y14.417 E8.16231
G1 X114.936 Y14.417 E8.19157
G1 X116.751 Y14.552 E8.21647 F1800.000
G1 X118.537 Y14.809 E8.24116
G1 X119.991 Y15.111 E8.26148
G1 X121.738 Y15.589 E8.28627
G1 X123.753 Y16.305 E8.31553
G1 X125.410 Y17.037 E8.34032
G1 X127.014 Y17.881 E8.36511
G1 X128.556 Y18.832 E8.38991
G1 X129.769 Y19.688 E8.41023
G1 X131.182 Y20.823 E8.43502
G1 X132.513 Y22.051 E8.45981
G1 X133.973 Y23.614 E8.48907
G1 X135.107 Y25.026 E8.51387
G1 X135.964 Y26.240 E8.53419
G1 X136.915 Y27.782 E8.55898
G1 X137.758 Y29.385 E8.58377
G1 X138.610 Y31.347 E8.61303
G1 X139.206 Y33.057 E8.63782
G1 X139.607 Y34.487 E8.65815
G1 X139.986 Y36.259 E8.68294
G1 X140.278 Y38.377 E8.71220
G1 X140.390 Y40.186 E8.73699
G1 X140.389 Y41.783 E8.75885
G1 X139.068 Y97.922 E9.52727
G1 X139.028 Y98.434 E9.53429
G1 X138.926 Y99.210 E9.54501
G1 X138.602 Y100.417 E9.56211
G1 X138.303 Y101.140 E9.57282
G1 X137.678 Y102.222 E9.58992
G1 X137.201 Y102.844 E9.60063
G1 X136.318 Y103.727 E9.61773
G1 X135.697 Y104.204 E9.62844
G1 X134.615 Y104.828 E9.64554
G1 X133.891 Y105.128 E9.65626
G1 X132.685 Y105.451 E9.67335
G1 X131.908 Y105.554 E9.68407
G1 X131.283 Y105.595 E9.69263
G1 X92.851 Y105.595 E10.21854
G1 X92.162 Y105.545 E10.22799
G1 X33.706 Y97.040 E11.03633
G1 X31.878 Y96.374 E11.06296
G1 X30.465 Y95.035 E11.08960
G1 X29.610 Y92.304 E11.12875
G1 X29.610 Y31.304 E11.96347
G1 X30.006 Y29.399 E11.99011
G1 X31.031 Y27.946 E12.01444
G1 X31.450 Y28.168 F7800.000
G4 P29
G1 X31.566 Y28.015 E12.01706 F1800.000
G1 X33.727 Y27.017 E12.04964
G1 X109.504 Y15.207 E13.09908
G1 X111.052 Y14.994 E13.12047
G1 X112.829 Y14.862 E13.14485
G1 X114.906 Y14.862 E13.17328
G1 X116.682 Y14.994 E13.19765 F1800.000
G1 X118.154 Y15.196 E13.21797
G1 X119.900 Y15.548 E13.24235
G1 X121.618 Y16.019 E13.26672
G1 X123.575 Y16.715 E13.29515
G1 X125.205 Y17.434 E13.31953
G1 X126.782 Y18.262 E13.34390
G1 X128.298 Y19.196 E13.36828
G1 X129.512 Y20.053 E13.38860
G1 X130.900 Y21.169 E13.41297
G1 X132.209 Y22.377 E13.43735
G1 X133.626 Y23.896 E13.46577
G1 X134.743 Y25.284 E13.49015
G1 X135.599 Y26.497 E13.51047
G1 X136.533 Y28.014 E13.53485
G1 X137.362 Y29.591 E13.55922
G1 X138.189 Y31.496 E13.58765
G1 X138.776 Y33.178 E13.61202
G1 X139.177 Y34.608 E13.63235
G1 X139.549 Y36.350 E13.65672
G1 X139.832 Y38.408 E13.68515
G1 X139.944 Y40.186 E13.70952
G1 X139.943 Y41.773 E13.73124
G1 X138.621 Y97.911 E14.49966
G1 X138.585 Y98.376 E14.50603
G1 X138.483 Y99.152 E14.51674
G1 X138.190 Y100.246 E14.53224
G1 X137.890 Y100.970 E14.54296
G1 X137.324 Y101.951 E14.55846
G1 X136.847 Y102.572 E14.56918
G1 X136.046 Y103.373 E14.58468
G1 X135.425 Y103.850 E14.59539
G1 X134.444 Y104.416 E14.61089
G1 X133.720 Y104.716 E14.62161
G1 X132.626 Y105.009 E14.63711
G1 X131.850 Y105.111 E14.64783
G1 X131.283 Y105.148 E14.65560
G1 X92.851 Y105.148 E15.18150
G1 X92.227 Y105.103 E15.19007
G1 X33.771 Y96.598 E15.99841
G1 X32.037 Y95.947 E16.02376
G1 X30.733 Y94.631 E16.04910
G1 X30.056 Y92.304 E16.08226
G1 X30.056 Y31.304 E16.91698
G1 X30.452 Y29.495 E16.94233
G1 X31.405 Y28.228 E16.96403
G1 X31.816 Y28.464 F7800.000
G4 P29
G1 X32.002 Y28.234 E16.96808 F1800.000
G1 X33.796 Y27.458 E16.99483
G1 X109.572 Y15.648 E18.04427
G1 X111.113 Y15.436 E18.06555
G1 X112.859 Y15.307 E18.08951
G1 X114.876 Y15.307 E18.11711
G1 X116.622 Y15.436 E18.14106 F1800.000
G1 X118.093 Y15.638 E18.16139
G1 X119.809 Y15.985 E18.18534
G1 X121.497 Y16.449 E18.20930
G1 X123.397 Y17.124 E18.23689
G1 X124.999 Y17.830 E18.26085
G1 X126.550 Y18.644 E18.28481
G1 X127.819 Y19.415 E18.30513
G1 X129.254 Y20.417 E18.32909
G1 X130.618 Y21.515 E18.35305
G1 X131.904 Y22.704 E18.37701
G1 X133.280 Y24.177 E18.40460
G1 X134.378 Y25.541 E18.42856
G1 X135.235 Y26.755 E18.44888
G1 X136.152 Y28.246 E18.47284
G1 X136.966 Y29.796 E18.49680
G1 X137.769 Y31.646 E18.52439
G1 X138.347 Y33.298 E18.54835
G1 X138.747 Y34.728 E18.56867
G1 X139.112 Y36.441 E18.59263
G1 X139.387 Y38.438 E18.62022
G1 X139.497 Y40.186 E18.64418
G1 X139.496 Y41.762 E18.66576
G1 X138.175 Y97.901 E19.43417
G1 X138.143 Y98.317 E19.43989
G1 X138.041 Y99.094 E19.45060
G1 X137.778 Y100.075 E19.46451
G1 X137.478 Y100.799 E19.47523
G1 X136.970 Y101.679 E19.48913
G1 X136.493 Y102.300 E19.49985
G1 X135.774 Y103.019 E19.51375
G1 X135.153 Y103.495 E19.52447
G1 X134.273 Y104.004 E19.53838
G1 X133.550 Y104.303 E19.54909
G1 X132.568 Y104.566 E19.56300
G1 X131.792 Y104.669 E19.57372
G1 X131.283 Y104.702 E19.58068
G1 X92.851 Y104.702 E20.10659
G1 X92.291 Y104.661 E20.11428
G1 X33.835 Y96.157 E20.92261
G1 X32.201 Y95.520 E20.94661
G1 X31.013 Y94.231 E20.97060
G1 X30.503 Y92.304 E20.99787
G1 X30.503 Y31.304 E21.83260
G1 X30.898 Y29.596 E21.85659
G1 X31.768 Y28.523 E21.87550
G1 X32.166 Y28.774 F7800.000
G4 P29
G1 X32.436 Y28.470 E21.88107 F1800.000
G1 X33.865 Y27.899 E21.90213
G1 X109.641 Y16.089 E22.95157
G1 X111.174 Y15.878 E22.97275
G1 X112.890 Y15.753 E22.99629
G1 X114.845 Y15.753 E23.02305
G1 X116.561 Y15.878 E23.04659 F1800.000
G1 X118.032 Y16.080 E23.06691
G1 X119.718 Y16.422 E23.09045
G1 X121.377 Y16.879 E23.11399
G1 X123.219 Y17.534 E23.14075
G1 X124.794 Y18.226 E23.16429
G1 X126.318 Y19.025 E23.18784
G1 X127.784 Y19.926 E23.21138
G1 X128.997 Y20.782 E23.23170
G1 X130.336 Y21.862 E23.25524
G1 X131.766 Y23.196 E23.28200
G1 X132.934 Y24.459 E23.30554
G1 X134.013 Y25.799 E23.32908
G1 X134.870 Y27.012 E23.34941
G1 X135.771 Y28.478 E23.37295
G1 X136.569 Y30.001 E23.39649
G1 X137.348 Y31.795 E23.42325
G1 X137.917 Y33.419 E23.44679
G1 X138.317 Y34.849 E23.46711
G1 X138.675 Y36.531 E23.49065
G1 X138.942 Y38.469 E23.51741
G1 X139.051 Y40.186 E23.54095
G1 X139.050 Y41.752 E23.56239
G1 X137.729 Y97.890 E24.33080
G1 X137.700 Y98.259 E24.33586
G1 X137.598 Y99.035 E24.34658
G1 X137.365 Y99.904 E24.35889
G1 X137.066 Y100.628 E24.36960
G1 X136.616 Y101.407 E24.38191
G1 X136.139 Y102.028 E24.39263
G1 X135.503 Y102.665 E24.40494
G1 X134.881 Y103.141 E24.41566
G1 X134.102 Y103.591 E24.42797
G1 X133.379 Y103.891 E24.43869
G1 X132.510 Y104.124 E24.45100
G1 X131.733 Y104.226 E24.46172
G1 X131.283 Y104.255 E24.46788
G1 X92.851 Y104.255 E24.99379
G1 X92.355 Y104.220 E25.00060
G1 X33.899 Y95.715 E25.80893
G1 X32.372 Y95.094 E25.83149
G1 X31.308 Y93.836 E25.85405
G1 X30.949 Y92.304 E25.87557
G1 X30.949 Y31.304 E26.71029
G1 X31.343 Y29.704 E26.73285
G1 X32.116 Y28.831 E26.74881
G1 E24.74881 F1920.00000
G92 E0
G1 X104.886 Y51.995 F7800.000
G1 E2.00000 F1920.00000
G1 X104.950 Y52.682 E2.00944 F1800.000
G1 X104.843 Y53.363 E2.01888
G1 X104.569 Y53.996 E2.02832
G1 X104.146 Y54.541 E2.03776
G1 X103.601 Y54.964 E2.04719
G1 X102.968 Y55.238 E2.05663
G1 X102.287 Y55.346 E2.06607
G1 X101.600 Y55.281 E2.07551
G1 X100.951 Y55.047 E2.08495
G1 X100.380 Y54.660 E2.09439
G1 X99.924 Y54.142 E2.10383
G1 X99.626 Y53.557 E2.11281
G1 X99.458 Y52.855 E2.12270
G1 X99.492 Y52.133 E2.13259
G1 X99.675 Y51.503 E2.14157
G1 X100.026 Y50.909 E2.15100
G1 X100.513 Y50.421 E2.16044
G1 X101.107 Y50.070 E2.16988
G1 X101.770 Y49.878 E2.17932
G1 X102.411 Y49.857 E2.18810 F1800.000
G1 X103.121 Y50.001 E2.19802
G1 X103.747 Y50.320 E2.20762
G1 X104.264 Y50.776 E2.21706
G1 X104.652 Y51.346 E2.22650
G1 X104.860 Y51.925 E2.23492
G1 X104.447 Y52.093 F7800.000
G4 P29
G1 X104.501 Y52.668 E2.24281 F1800.000
G4 P14
G1 X104.411 Y53.238 E2.25071
G1 X104.181 Y53.767 E2.25860
G1 X103.828 Y54.223 E2.26650
G1 X103.372 Y54.577 E2.27439
G1 X102.842 Y54.806 E2.28229
G1 X102.272 Y54.896 E2.29019
G1 X101.698 Y54.842 E2.29808
G1 X101.155 Y54.646 E2.30598
G1 X100.678 Y54.322 E2.31387
G1 X100.296 Y53.889 E2.32177
G1 X100.048 Y53.402 E2.32925
G1 X99.907 Y52.812 E2.33755
G1 X99.935 Y52.206 E2.34585
G1 X100.088 Y51.681 E2.35333
G1 X100.381 Y51.185 E2.36123
G1 X100.789 Y50.777 E2.36912
G1 X101.286 Y50.483 E2.37702
G1 X101.840 Y50.322 E2.38492
G1 X102.373 Y50.305 E2.39221 F1800.000
G1 X102.973 Y50.426 E2.40059
G1 X103.494 Y50.692 E2.40859
G1 X103.927 Y51.073 E2.41648
G1 X104.251 Y51.550 E2.42438
G1 X104.421 Y52.023 E2.43125
G1 X104.007 Y52.191 F7800.000
G4 P29
G1 X104.051 Y52.654 E2.43760 F1800.000
G4 P17
G1 X103.979 Y53.112 E2.44395
G1 X103.794 Y53.538 E2.45031
G1 X103.510 Y53.905 E2.45666
G1 X103.143 Y54.190 E2.46301
G1 X102.717 Y54.374 E2.46936
G1 X102.258 Y54.447 E2.47572
G1 X101.796 Y54.403 E2.48207
G1 X101.359 Y54.246 E2.48842
G1 X100.975 Y53.985 E2.49478
G1 X100.668 Y53.636 E2.50113
G1 X100.470 Y53.247 E2.50711
G1 X100.356 Y52.770 E2.51382
G1 X100.378 Y52.280 E2.52053
G1 X100.500 Y51.860 E2.52652
G1 X100.737 Y51.460 E2.53287
G1 X101.065 Y51.132 E2.53922
G1 X101.465 Y50.896 E2.54558
G1 X101.910 Y50.766 E2.55193
G1 X102.335 Y50.753 E2.55775 F1800.000
G1 X102.825 Y50.852 E2.56458
G1 X103.241 Y51.064 E2.57097
G1 X103.589 Y51.371 E2.57732
G1 X103.850 Y51.755 E2.58368
G1 X103.982 Y52.121 E2.58900
G1 X104.444 Y52.349 F7800.000
G1 X108.878 Y46.588 F7800.000
G1 X108.208 Y45.918 E2.60197 F1800.000
G1 X107.627 Y45.169 E2.61493
G1 X107.145 Y44.354 E2.62790
G1 X106.768 Y43.484 E2.64087
G1 X106.504 Y42.574 E2.65383
G1 X106.356 Y41.638 E2.66680
G1 X106.326 Y40.691 E2.67976
G1 X106.415 Y39.752 E2.69267
G1 X106.622 Y38.824 E2.70569
G1 X106.943 Y37.932 E2.71866
G1 X107.373 Y37.087 E2.73162
G1 X107.906 Y36.304 E2.74459
G1 X108.532 Y35.593 E2.75756
G1 X109.243 Y34.966 E2.77052
G1 X110.027 Y34.434 E2.78349
G1 X110.871 Y34.004 E2.79645
G1 X111.763 Y33.683 E2.80942
G1 X112.692 Y33.476 E2.82245
G1 X113.630 Y33.387 E2.83535 F1800.000
G1 X114.577 Y33.417 E2.84832
G1 X115.513 Y33.565 E2.86128
G1 X116.423 Y33.829 E2.87425
G1 X117.293 Y34.206 E2.88721
G1 X118.108 Y34.688 E2.90018
G1 X118.857 Y35.269 E2.91314
G1 X119.527 Y35.939 E2.92611
G1 X120.108 Y36.687 E2.93908
G1 X120.590 Y37.503 E2.95204
G1 X120.966 Y38.372 E2.96501
G1 X121.231 Y39.282 E2.97797
G1 X121.379 Y40.218 E2.99094
G1 X121.409 Y41.165 E3.00390
G1 X121.319 Y42.108 E3.01687
G1 X121.113 Y43.033 E3.02984
G1 X120.792 Y43.925 E3.04280
G1 X120.362 Y44.769 E3.05577
G1 X119.829 Y45.553 E3.06873
G1 X119.202 Y46.263 E3.08170
G1 X118.492 Y46.890 E3.09466
G1 X117.708 Y47.422 E3.10763
G1 X116.864 Y47.853 E3.12059
G1 X115.972 Y48.174 E3.13356
G1 X115.048 Y48.380 E3.14653
G1 X114.104 Y48.469 E3.15949
G1 X113.157 Y48.440 E3.17246
G1 X112.221 Y48.291 E3.18543
G1 X111.307 Y48.025 E3.19845
G1 X110.442 Y47.651 E3.21135
G1 X109.626 Y47.168 E3.22432
G1 X108.937 Y46.634 E3.23626
G1 X109.174 Y46.252 F7800.000
G4 P29
G1 X108.543 Y45.622 E3.24846 F1800.000
G1 X107.997 Y44.918 E3.26065
G1 X107.543 Y44.150 E3.27285
G1 X107.189 Y43.332 E3.28505
G1 X106.941 Y42.477 E3.29724
G1 X106.801 Y41.596 E3.30944
G1 X106.773 Y40.705 E3.32164
G1 X106.857 Y39.822 E3.33378
G1 X107.051 Y38.948 E3.34603
G1 X107.353 Y38.109 E3.35823
G1 X107.758 Y37.315 E3.37043
G1 X108.259 Y36.578 E3.38262
G1 X108.848 Y35.909 E3.39482
G1 X109.517 Y35.320 E3.40702
G1 X110.254 Y34.819 E3.41922
G1 X111.048 Y34.414 E3.43141
G1 X111.887 Y34.112 E3.44361
G1 X112.761 Y33.917 E3.45587
G1 X113.644 Y33.834 E3.46800 F1800.000
G1 X114.535 Y33.862 E3.48020
G1 X115.416 Y34.001 E3.49240
G1 X116.272 Y34.250 E3.50459
G1 X117.090 Y34.604 E3.51679
G1 X117.857 Y35.058 E3.52899
G1 X118.561 Y35.604 E3.54119
G1 X119.191 Y36.234 E3.55338
G1 X119.738 Y36.939 E3.56558
G1 X120.191 Y37.706 E3.57778
G1 X120.545 Y38.524 E3.58997
G1 X120.794 Y39.380 E3.60217
G1 X120.934 Y40.260 E3.61437
G1 X120.962 Y41.151 E3.62657
G1 X120.878 Y42.039 E3.63876
G1 X120.683 Y42.908 E3.65096
G1 X120.381 Y43.747 E3.66316
G1 X119.977 Y44.541 E3.67535
G1 X119.476 Y45.278 E3.68755
G1 X118.886 Y45.947 E3.69975
G1 X118.218 Y46.536 E3.71195
G1 X117.480 Y47.037 E3.72414
G1 X116.686 Y47.442 E3.73634
G1 X115.848 Y47.744 E3.74854
G1 X114.978 Y47.939 E3.76073
G1 X114.090 Y48.022 E3.77293
G1 X113.199 Y47.994 E3.78513
G1 X112.319 Y47.855 E3.79733
G1 X111.459 Y47.605 E3.80958
G1 X110.645 Y47.252 E3.82172
G1 X109.878 Y46.799 E3.83392
G1 X109.233 Y46.298 E3.84509
G1 X109.469 Y45.917 F7800.000
G4 P29
G1 X108.879 Y45.326 E3.85652 F1800.000
G1 X108.367 Y44.666 E3.86795
G1 X107.942 Y43.947 E3.87937
G1 X107.610 Y43.181 E3.89080
G1 X107.377 Y42.379 E3.90223
G1 X107.246 Y41.554 E3.91366
G1 X107.220 Y40.719 E3.92509
G1 X107.298 Y39.892 E3.93646
G1 X107.481 Y39.073 E3.94794
G1 X107.764 Y38.287 E3.95937
G1 X108.143 Y37.543 E3.97080
G1 X108.612 Y36.852 E3.98223
G1 X109.165 Y36.226 E3.99366
G1 X109.791 Y35.673 E4.00509
G1 X110.482 Y35.204 E4.01652
G1 X111.226 Y34.825 E4.02794
G1 X112.012 Y34.542 E4.03937
G1 X112.831 Y34.359 E4.05086
G1 X113.658 Y34.281 E4.06223 F1800.000
G1 X114.493 Y34.307 E4.07366
G1 X115.318 Y34.438 E4.08509
G1 X116.120 Y34.671 E4.09652
G1 X116.887 Y35.003 E4.10794
G1 X117.605 Y35.428 E4.11937
G1 X118.265 Y35.940 E4.13080
G1 X118.856 Y36.530 E4.14223
G1 X119.368 Y37.190 E4.15366
G1 X119.793 Y37.909 E4.16509
G1 X120.125 Y38.675 E4.17652
G1 X120.358 Y39.477 E4.18794
G1 X120.488 Y40.302 E4.19937
G1 X120.515 Y41.137 E4.21080
G1 X120.436 Y41.969 E4.22223
G1 X120.254 Y42.784 E4.23366
G1 X119.971 Y43.569 E4.24509
G1 X119.592 Y44.314 E4.25652
G1 X119.122 Y45.004 E4.26794
G1 X118.570 Y45.631 E4.27937
G1 X117.943 Y46.183 E4.29080
G1 X117.253 Y46.653 E4.30223
G1 X116.509 Y47.032 E4.31366
G1 X115.723 Y47.315 E4.32509
G1 X114.908 Y47.497 E4.33652
G1 X114.076 Y47.575 E4.34794
G1 X113.241 Y47.549 E4.35937
G1 X112.416 Y47.419 E4.37080
G1 X111.611 Y47.184 E4.38229
G1 X110.848 Y46.854 E4.39366
G1 X110.129 Y46.429 E4.40509
G1 X109.529 Y45.963 E4.41549
G1 X108.992 Y46.066 F7800.000
G1 E2.41549 F1920.00000
G92 E0
G4 P29
G1 X101.457 Y32.557 F7800.000
G1 E2.00000 F1920.00000
G1 X101.457 Y31.895 E2.00906 F1800.000
G1 X100.951 Y31.713 E2.01642
G1 X100.380 Y31.325 E2.02586
G1 X99.924 Y30.808 E2.03530
G1 X99.626 Y30.223 E2.04428
G1 X99.458 Y29.520 E2.05417
G1 X99.492 Y28.798 E2.06406
G1 X99.675 Y28.168 E2.07304
G1 X100.026 Y27.574 E2.08248
G1 X100.513 Y27.087 E2.09192
G1 X101.107 Y26.735 E2.10136
