; generated by Slic3r 1.2.9 on 2016-04-06 at 21:11:29

; external perimeters extrusion width = 0.50mm
; perimeters extrusion width = 0.50mm
; infill extrusion width = 0.50mm
; solid infill extrusion width = 0.50mm
; top infill extrusion width = 0.50mm

M107
M190 S60 ; set bed temperature
M104 S210 ; set temperature
G28 ; home all axes
M109 S210 ; wait for temperature to be reached
G21 ; set units to millimeters
G90 ; use absolute coordinates
M82 ; use absolute distances for extrusion
G92 E0
G1 Z0.350 F7800.000
G1 E-2.00000 F1920.00000
G92 E0
G1 X52.380 Y50.990 F7800.000
G1 E2.00000 F1920.00000
M204 S3000
G1 X52.711 Y50.659 E2.00356 F1500.000
G1 X53.904 Y49.640 E2.01548
G1 X54.283 Y49.364 E2.01904
G1 X55.621 Y48.544 E2.03096
G1 X56.038 Y48.332 E2.03452
G1 X57.488 Y47.731 E2.04644
G1 X88.962 Y36.456 E2.30044
G1 X90.785 Y35.945 E2.31482
G1 X92.491 Y35.602 E2.32804
G1 X94.114 Y35.386 E2.34048
G1 X95.595 Y35.284 E2.35176
G1 X97.488 Y35.284 E2.36614
G1 X99.173 Y35.406 E2.37897 F1500.000
G1 X100.644 Y35.609 E2.39025
G1 X102.299 Y35.945 E2.40308
G1 X103.927 Y36.394 E2.41592
G1 X105.710 Y37.028 E2.43029
G1 X107.257 Y37.707 E2.44313
G1 X108.753 Y38.491 E2.45596
G1 X110.022 Y39.262 E2.46724
G1 X111.406 Y40.231 E2.48007
G1 X112.874 Y41.425 E2.49445
G1 X114.103 Y42.583 E2.50728
G1 X115.117 Y43.668 E2.51856
G1 X116.188 Y44.974 E2.53139
G1 X117.168 Y46.350 E2.54422
G1 X118.151 Y47.967 E2.55860
G1 X118.834 Y49.285 E2.56989
G1 X119.514 Y50.832 E2.58272
G1 X120.086 Y52.421 E2.59555
G1 X120.548 Y54.045 E2.60838
G1 X120.933 Y55.898 E2.62276
G1 X121.160 Y57.623 E2.63598
G1 X121.264 Y59.257 E2.64842
G1 X121.264 Y60.743 E2.65970
G1 X121.135 Y62.631 E2.67408
G1 X120.898 Y64.303 E2.68691
G1 X120.548 Y65.955 E2.69974
G1 X120.147 Y67.385 E2.71102
G1 X119.588 Y68.979 E2.72385
G1 X118.834 Y70.715 E2.73823
G1 X118.051 Y72.211 E2.75106
G1 X117.280 Y73.480 E2.76235
G1 X116.311 Y74.864 E2.77518
G1 X115.117 Y76.332 E2.78956
G1 X113.959 Y77.561 E2.80239
G1 X112.720 Y78.709 E2.81522
G1 X111.568 Y79.646 E2.82650
G1 X110.192 Y80.626 E2.83933
G1 X108.575 Y81.609 E2.85371
G1 X107.257 Y82.293 E2.86499
G1 X105.710 Y82.972 E2.87782
G1 X104.121 Y83.544 E2.89066
G1 X102.497 Y84.006 E2.90349
G1 X100.845 Y84.357 E2.91632
G1 X99.173 Y84.594 E2.92915
G1 X97.488 Y84.716 E2.94198
G1 X95.799 Y84.723 E2.95481
G1 X93.911 Y84.594 E2.96919
G1 X92.239 Y84.357 E2.98202
G1 X90.587 Y84.006 E2.99485
G1 X88.962 Y83.544 E3.00768
G1 X57.624 Y72.321 E3.26057
G1 X56.039 Y71.668 E3.27360
G1 X55.621 Y71.456 E3.27716
G1 X54.283 Y70.636 E3.28908
G1 X53.904 Y70.360 E3.29264
G1 X52.711 Y69.341 E3.30456
G1 X52.380 Y69.010 E3.30812
G1 X51.361 Y67.817 E3.32004
G1 X51.085 Y67.438 E3.32360
G1 X50.265 Y66.100 E3.33552
G1 X50.053 Y65.682 E3.33908
G1 X49.452 Y64.233 E3.35100
G1 X49.307 Y63.787 E3.35456
G1 X48.941 Y62.261 E3.36648
G1 X48.868 Y61.799 E3.37004
G1 X48.745 Y60.234 E3.38196
G1 X48.745 Y59.766 E3.38552
G1 X48.868 Y58.201 E3.39745
G1 X48.941 Y57.739 E3.40100
G1 X49.307 Y56.213 E3.41292
G1 X49.452 Y55.767 E3.41648
G1 X50.053 Y54.318 E3.42841
G1 X50.265 Y53.900 E3.43196
G1 X51.085 Y52.562 E3.44389
G1 X51.361 Y52.183 E3.44744
G1 X52.331 Y51.047 E3.45880
G1 X52.567 Y51.150 F7800.000
G4 P31
G1 X52.871 Y50.846 E3.46206 F1500.000
G1 X54.064 Y49.827 E3.47398
G1 X54.412 Y49.574 E3.47725
G1 X55.750 Y48.755 E3.48917
G1 X56.133 Y48.559 E3.49243
G1 X57.583 Y47.959 E3.50436
G1 X89.045 Y36.688 E3.75826
G1 X90.835 Y36.187 E3.77238
G1 X92.524 Y35.846 E3.78548
G1 X94.131 Y35.631 E3.79779
G1 X95.612 Y35.530 E3.80907
G1 X97.471 Y35.530 E3.82319
G1 X99.139 Y35.650 E3.83590 F1500.000
G1 X100.795 Y35.884 E3.84860
G1 X102.249 Y36.187 E3.85988
G1 X103.860 Y36.632 E3.87259
G1 X105.612 Y37.254 E3.88671
G1 X107.143 Y37.926 E3.89941
G1 X108.625 Y38.701 E3.91211
G1 X109.894 Y39.473 E3.92340
G1 X111.263 Y40.432 E3.93610
G1 X112.706 Y41.605 E3.95022
G1 X113.923 Y42.751 E3.96293
G1 X114.937 Y43.836 E3.97421
G1 X115.997 Y45.129 E3.98691
G1 X116.967 Y46.492 E3.99962
G1 X117.932 Y48.080 E4.01374
G1 X118.616 Y49.399 E4.02502
G1 X119.288 Y50.930 E4.03773
G1 X119.854 Y52.503 E4.05043
G1 X120.311 Y54.111 E4.06313
G1 X120.689 Y55.931 E4.07726
G1 X120.914 Y57.640 E4.09035
G1 X121.018 Y59.257 E4.10266
G1 X121.018 Y60.743 E4.11394
G1 X120.891 Y62.597 E4.12807
G1 X120.657 Y64.253 E4.14077
G1 X120.297 Y65.938 E4.15386
G1 X119.854 Y67.497 E4.16618
G1 X119.356 Y68.896 E4.17746
G1 X118.616 Y70.601 E4.19158
G1 X117.814 Y72.127 E4.20468
G1 X116.966 Y73.508 E4.21699
G1 X116.110 Y74.722 E4.22827
G1 X114.937 Y76.164 E4.24239
G1 X113.791 Y77.381 E4.25510
G1 X112.565 Y78.518 E4.26780
G1 X111.413 Y79.455 E4.27908
G1 X110.050 Y80.425 E4.29179
G1 X108.462 Y81.391 E4.30591
G1 X107.143 Y82.074 E4.31719
G1 X105.612 Y82.746 E4.32989
G1 X104.039 Y83.312 E4.34260
G1 X102.430 Y83.769 E4.35530
G1 X100.795 Y84.116 E4.36800
G1 X99.139 Y84.350 E4.38071
G1 X97.471 Y84.470 E4.39341
G1 X95.799 Y84.476 E4.40611
G1 X93.945 Y84.350 E4.42024
G1 X92.289 Y84.116 E4.43294
G1 X90.653 Y83.769 E4.44564
G1 X89.045 Y83.312 E4.45835
G1 X57.707 Y72.089 E4.71123
G1 X56.133 Y71.441 E4.72417
G1 X55.750 Y71.246 E4.72743
G1 X54.412 Y70.426 E4.73936
G1 X54.064 Y70.173 E4.74262
G1 X52.871 Y69.154 E4.75454
G1 X52.567 Y68.850 E4.75781
G1 X51.548 Y67.657 E4.76973
G1 X51.295 Y67.309 E4.77300
G1 X50.475 Y65.971 E4.78492
G1 X50.280 Y65.588 E4.78818
G1 X49.680 Y64.138 E4.80010
G1 X49.547 Y63.730 E4.80337
G1 X49.181 Y62.204 E4.81529
G1 X49.113 Y61.779 E4.81856
G1 X48.990 Y60.215 E4.83048
G1 X48.990 Y59.785 E4.83374
G1 X49.113 Y58.221 E4.84566
G1 X49.181 Y57.796 E4.84893
G1 X49.547 Y56.270 E4.86085
G1 X49.680 Y55.862 E4.86412
G1 X50.280 Y54.412 E4.87604
G1 X50.475 Y54.029 E4.87930
G1 X51.295 Y52.691 E4.89122
G1 X51.548 Y52.343 E4.89449
G1 X52.518 Y51.207 E4.90584
G1 X52.754 Y51.310 F7800.000
G4 P31
G1 X53.031 Y51.033 E4.90881 F1500.000
G1 X54.224 Y50.014 E4.92073
G1 X54.541 Y49.784 E4.92371
G1 X55.879 Y48.965 E4.93563
G1 X56.227 Y48.787 E4.93860
G1 X57.677 Y48.186 E4.95052
G1 X89.127 Y36.920 E5.20433
G1 X90.885 Y36.428 E5.21819
G1 X92.558 Y36.090 E5.23116
G1 X94.147 Y35.877 E5.24334
G1 X95.629 Y35.776 E5.25463
G1 X97.454 Y35.776 E5.26849
G1 X99.105 Y35.895 E5.28107 F1500.000
G1 X100.577 Y36.097 E5.29235
G1 X102.199 Y36.428 E5.30493
G1 X103.794 Y36.869 E5.31750
G1 X105.514 Y37.480 E5.33137
G1 X107.030 Y38.145 E5.34395
G1 X108.348 Y38.828 E5.35523
G1 X109.766 Y39.683 E5.36781
G1 X111.121 Y40.633 E5.38038
G1 X112.537 Y41.785 E5.39425
G1 X113.743 Y42.919 E5.40682
G1 X114.757 Y44.004 E5.41811
G1 X115.806 Y45.285 E5.43068
G1 X116.765 Y46.634 E5.44326
G1 X117.714 Y48.193 E5.45713
G1 X118.397 Y49.512 E5.46841
G1 X119.062 Y51.028 E5.48098
G1 X119.621 Y52.586 E5.49356
G1 X120.114 Y54.343 E5.50743
G1 X120.445 Y55.965 E5.52000
G1 X120.668 Y57.657 E5.53297
G1 X120.772 Y59.257 E5.54515
G1 X120.772 Y60.743 E5.55644
G1 X120.647 Y62.564 E5.57030
G1 X120.416 Y64.203 E5.58288
G1 X120.060 Y65.872 E5.59584
G1 X119.621 Y67.414 E5.60803
G1 X119.124 Y68.814 E5.61931
G1 X118.397 Y70.488 E5.63318
G1 X117.630 Y71.955 E5.64575
G1 X116.859 Y73.224 E5.65704
G1 X115.909 Y74.580 E5.66961
G1 X114.757 Y75.996 E5.68348
G1 X113.623 Y77.201 E5.69606
G1 X112.409 Y78.327 E5.70863
G1 X111.257 Y79.264 E5.71991
G1 X109.908 Y80.223 E5.73249
G1 X108.348 Y81.172 E5.74636
G1 X107.030 Y81.855 E5.75764
G1 X105.514 Y82.520 E5.77022
G1 X103.956 Y83.080 E5.78279
G1 X102.364 Y83.532 E5.79537
G1 X100.744 Y83.874 E5.80794
G1 X99.105 Y84.105 E5.82052
G1 X97.454 Y84.224 E5.83309
G1 X95.799 Y84.230 E5.84567
G1 X93.978 Y84.105 E5.85954
G1 X92.339 Y83.874 E5.87211
G1 X90.720 Y83.532 E5.88469
G1 X89.127 Y83.080 E5.89726
G1 X57.790 Y71.857 E6.15015
G1 X56.227 Y71.213 E6.16299
G1 X55.879 Y71.035 E6.16596
G1 X54.541 Y70.216 E6.17788
G1 X54.224 Y69.986 E6.18085
G1 X53.031 Y68.967 E6.19278
G1 X52.754 Y68.690 E6.19575
G1 X51.735 Y67.497 E6.20767
G1 X51.505 Y67.180 E6.21064
G1 X50.685 Y65.842 E6.22256
G1 X50.508 Y65.494 E6.22553
G1 X49.907 Y64.044 E6.23746
G1 X49.787 Y63.672 E6.24043
G1 X49.427 Y62.173 E6.25214
G1 X49.359 Y61.760 E6.25532
G1 X49.236 Y60.196 E6.26724
G1 X49.236 Y59.804 E6.27021
G1 X49.359 Y58.240 E6.28213
G1 X49.420 Y57.854 E6.28511
G1 X49.787 Y56.328 E6.29703
G1 X49.907 Y55.956 E6.30000
G1 X50.508 Y54.506 E6.31192
G1 X50.685 Y54.158 E6.31489
G1 X51.505 Y52.820 E6.32681
G1 X51.735 Y52.503 E6.32978
G1 X52.706 Y51.367 E6.34114
G1 X52.942 Y51.470 F7800.000
G4 P31
G1 X53.191 Y51.221 E6.34381 F1500.000
G1 X54.384 Y50.202 E6.35574
G1 X54.669 Y49.995 E6.35841
G1 X56.007 Y49.175 E6.37034
G1 X56.321 Y49.015 E6.37301
G1 X57.771 Y48.414 E6.38494
G1 X89.210 Y37.152 E6.63864
G1 X90.935 Y36.669 E6.65226
G1 X92.591 Y36.334 E6.66510
G1 X94.164 Y36.123 E6.67715
G1 X95.646 Y36.022 E6.68843
G1 X97.438 Y36.022 E6.70205
G1 X99.072 Y36.139 E6.71449 F1500.000
G1 X100.543 Y36.341 E6.72578
G1 X102.148 Y36.669 E6.73823
G1 X103.728 Y37.106 E6.75067
G1 X105.416 Y37.706 E6.76428
G1 X106.917 Y38.364 E6.77673
G1 X108.369 Y39.122 E6.78918
G1 X109.638 Y39.894 E6.80046
G1 X110.979 Y40.834 E6.81291
G1 X112.369 Y41.965 E6.82652
G1 X113.563 Y43.087 E6.83897
G1 X114.577 Y44.173 E6.85025
G1 X115.615 Y45.440 E6.86270
G1 X116.564 Y46.776 E6.87515
G1 X117.495 Y48.307 E6.88876
G1 X118.178 Y49.625 E6.90004
G1 X118.836 Y51.126 E6.91249
G1 X119.389 Y52.668 E6.92494
G1 X119.836 Y54.244 E6.93739
G1 X120.201 Y55.999 E6.95100
G1 X120.422 Y57.674 E6.96384
G1 X120.525 Y59.257 E6.97589
G1 X120.525 Y60.743 E6.98718
G1 X120.403 Y62.530 E7.00079
G1 X120.175 Y64.153 E7.01324
G1 X119.836 Y65.756 E7.02568
G1 X119.436 Y67.186 E7.03697
G1 X118.892 Y68.731 E7.04942
G1 X118.178 Y70.375 E7.06303
G1 X117.420 Y71.827 E7.07548
G1 X116.564 Y73.224 E7.08792
G1 X115.707 Y74.438 E7.09921
G1 X114.577 Y75.827 E7.11282
G1 X113.455 Y77.021 E7.12527
G1 X112.254 Y78.136 E7.13771
G1 X111.102 Y79.073 E7.14900
G1 X109.766 Y80.022 E7.16144
G1 X108.235 Y80.953 E7.17506
G1 X106.917 Y81.636 E7.18634
G1 X105.416 Y82.294 E7.19879
G1 X103.874 Y82.848 E7.21124
G1 X102.297 Y83.295 E7.22368
G1 X100.694 Y83.633 E7.23613
G1 X99.072 Y83.861 E7.24858
G1 X97.438 Y83.978 E7.26103
G1 X95.799 Y83.984 E7.27347
G1 X94.012 Y83.861 E7.28709
G1 X92.389 Y83.633 E7.29953
G1 X90.786 Y83.295 E7.31198
G1 X89.210 Y82.848 E7.32443
G1 X57.873 Y71.625 E7.57731
G1 X56.321 Y70.985 E7.59006
G1 X56.007 Y70.825 E7.59274
G1 X54.669 Y70.005 E7.60466
G1 X54.384 Y69.798 E7.60734
G1 X53.191 Y68.779 E7.61926
G1 X52.942 Y68.530 E7.62194
G1 X51.923 Y67.337 E7.63386
G1 X51.715 Y67.052 E7.63654
G1 X50.895 Y65.714 E7.64846
G1 X50.735 Y65.400 E7.65114
G1 X50.135 Y63.950 E7.66306
G1 X50.026 Y63.615 E7.66574
G1 X49.660 Y62.089 E7.67766
G1 X49.605 Y61.741 E7.68033
G1 X49.481 Y60.176 E7.69226
G1 X49.481 Y59.824 E7.69493
G1 X49.605 Y58.259 E7.70686
G1 X49.660 Y57.911 E7.70953
G1 X50.026 Y56.385 E7.72145
G1 X50.135 Y56.050 E7.72413
G1 X50.736 Y54.600 E7.73606
G1 X50.896 Y54.286 E7.73873
G1 X51.715 Y52.948 E7.75065
G1 X51.923 Y52.663 E7.75333
G1 X52.893 Y51.527 E7.76468
G1 E5.76468 F1920.00000
G92 E0
G1 X68.864 Y63.493 F7800.000
G1 E2.00000 F1920.00000
G1 X64.878 Y63.493 E2.03028 F1500.000
G1 X64.878 Y61.125 E2.04826
G1 X64.765 Y61.098 E2.04915
G1 X64.351 Y61.911 E2.05608
G1 X63.632 Y62.630 E2.06381
G1 X62.725 Y63.092 E2.07153
G1 X61.721 Y63.251 E2.07926
G1 X60.716 Y63.092 E2.08699
G1 X59.810 Y62.630 E2.09471
G1 X59.091 Y61.911 E2.10244
G1 X58.629 Y61.005 E2.11017
G1 X58.470 Y60.000 E2.11789
G1 X58.629 Y58.995 E2.12562
G1 X59.091 Y58.089 E2.13335
G1 X59.810 Y57.370 E2.14107
G1 X60.716 Y56.908 E2.14880
G1 X61.721 Y56.749 E2.15653
G1 X62.725 Y56.908 E2.16425
G1 X63.632 Y57.370 E2.17198
G1 X64.351 Y58.089 E2.17971
G1 X64.765 Y58.902 E2.18664
G1 X64.878 Y58.875 E2.18752
G1 X64.878 Y56.507 E2.20551
G1 X68.864 Y56.507 E2.23579
G1 X68.864 Y63.418 E2.28829
G1 X68.617 Y63.246 F7800.000
G1 X65.125 Y63.246 E2.31482 F1500.000
G1 X65.125 Y56.754 E2.36415
G1 X68.617 Y56.754 E2.39069
G1 X68.617 Y63.171 E2.43944
G1 X68.371 Y63.000 F7800.000
G1 X65.371 Y63.000 E2.46223 F1500.000
G1 X65.371 Y57.000 E2.50782
G1 X68.371 Y57.000 E2.53061
G1 X68.371 Y62.925 E2.57562
G1 X68.371 Y63.500 F7800.000
G1 E0.57562 F1920.00000
G92 E0
G1 X64.519 Y61.037 F7800.000
G1 E2.00000 F1920.00000
G1 X64.149 Y61.764 E2.00620 F1500.000
G1 X63.485 Y62.428 E2.01333
G1 X62.648 Y62.854 E2.02046
G1 X61.721 Y63.001 E2.02760
G1 X60.793 Y62.854 E2.03473
G1 X59.957 Y62.428 E2.04187
G1 X59.293 Y61.764 E2.04900
G1 X58.866 Y60.927 E2.05613
G1 X58.720 Y60.000 E2.06327
G1 X58.866 Y59.073 E2.07040
G1 X59.293 Y58.236 E2.07754
G1 X59.957 Y57.572 E2.08467
G1 X60.793 Y57.146 E2.09180
G1 X61.721 Y56.999 E2.09894 F1500.000
G1 X62.648 Y57.146 E2.10607
G1 X63.485 Y57.572 E2.11320
G1 X64.149 Y58.236 E2.12034
G1 X64.575 Y59.073 E2.12747
G1 X64.722 Y60.000 E2.13461
G1 X64.575 Y60.927 E2.14174
G1 X64.553 Y60.971 E2.14211
G1 X64.300 Y60.926 F7800.000
G4 P31
G1 X63.947 Y61.618 E2.14801 F1500.000
G1 X63.338 Y62.226 E2.15455
G1 X62.571 Y62.617 E2.16109
G1 X61.721 Y62.752 E2.16763
G1 X60.871 Y62.617 E2.17417
G1 X60.103 Y62.226 E2.18071
G1 X59.495 Y61.618 E2.18725
G1 X59.104 Y60.850 E2.19380
G1 X58.969 Y60.000 E2.20034
G1 X59.104 Y59.150 E2.20688
G1 X59.495 Y58.382 E2.21342
G1 X60.103 Y57.774 E2.21996
G1 X60.871 Y57.383 E2.22650
G1 X61.721 Y57.248 E2.23304 F1500.000
G1 X62.571 Y57.383 E2.23958
G1 X63.338 Y57.774 E2.24612
G1 X63.947 Y58.382 E2.25266
G1 X64.338 Y59.150 E2.25921
G1 X64.473 Y60.000 E2.26575
G1 X64.334 Y60.859 E2.27236
G1 X64.611 Y61.317 F7800.000
G1 E0.27236 F1920.00000
G92 E0
G1 X70.388 Y63.447 F7800.000
G1 E2.00000 F1920.00000
G1 X70.057 Y64.247 E2.00658 F1500.000
G1 X69.304 Y65.476 E2.01752
G1 X68.335 Y66.616 E2.02889
G1 X67.220 Y67.569 E2.04003
G1 X65.968 Y68.336 E2.05119
G1 X64.612 Y68.897 E2.06234
G1 X63.184 Y69.240 E2.07349
G1 X61.721 Y69.355 E2.08465
G1 X60.257 Y69.240 E2.09580
G1 X58.830 Y68.897 E2.10695
G1 X57.474 Y68.336 E2.11810
G1 X56.222 Y67.569 E2.12926
G1 X55.106 Y66.615 E2.14041
G1 X54.152 Y65.499 E2.15156
G1 X53.385 Y64.247 E2.16272
G1 X52.823 Y62.891 E2.17387
G1 X52.481 Y61.463 E2.18502
G1 X52.366 Y60.000 E2.19617
G1 X52.481 Y58.537 E2.20733
G1 X52.823 Y57.109 E2.21848
G1 X53.385 Y55.753 E2.22963
G1 X54.138 Y54.524 E2.24058
G1 X55.106 Y53.384 E2.25194
G1 X56.222 Y52.431 E2.26309
G1 X57.474 Y51.664 E2.27424
G1 X58.830 Y51.103 E2.28539
G1 X60.257 Y50.760 E2.29654
G1 X61.748 Y50.647 E2.30790
G1 X63.184 Y50.760 E2.31885
G1 X64.612 Y51.103 E2.33000 F1500.000
G1 X65.968 Y51.664 E2.34116
G1 X67.220 Y52.431 E2.35231
G1 X68.336 Y53.385 E2.36346
G1 X69.289 Y54.501 E2.37462
G1 X70.057 Y55.753 E2.38577
G1 X70.618 Y57.109 E2.39692
G1 X70.961 Y58.537 E2.40807
G1 X71.076 Y60.000 E2.41923
G1 X70.961 Y61.463 E2.43038
G1 X70.618 Y62.891 E2.44153
G1 X70.417 Y63.378 E2.44554
G1 X70.615 Y63.542 F7800.000
G4 P31
G1 X70.277 Y64.359 E2.45226 F1500.000
G1 X69.504 Y65.621 E2.46350
G1 X68.510 Y66.790 E2.47516
G1 X67.365 Y67.769 E2.48660
G1 X66.080 Y68.556 E2.49805
G1 X64.688 Y69.132 E2.50950
G1 X63.223 Y69.484 E2.52095
G1 X61.721 Y69.602 E2.53239
G1 X60.219 Y69.484 E2.54384
G1 X58.754 Y69.132 E2.55529
G1 X57.361 Y68.556 E2.56674
G1 X56.077 Y67.769 E2.57818
G1 X54.931 Y66.790 E2.58963
G1 X53.952 Y65.644 E2.60108
G1 X53.165 Y64.359 E2.61253
G1 X52.588 Y62.967 E2.62397
G1 X52.237 Y61.502 E2.63542
G1 X52.118 Y60.000 E2.64687
G1 X52.237 Y58.498 E2.65832
G1 X52.588 Y57.033 E2.66976
G1 X53.165 Y55.641 E2.68121
G1 X53.938 Y54.379 E2.69245
G1 X54.931 Y53.210 E2.70411
G1 X56.077 Y52.231 E2.71555
G1 X57.361 Y51.444 E2.72700
G1 X58.754 Y50.868 E2.73845
G1 X60.218 Y50.516 E2.74989
G1 X61.748 Y50.400 E2.76155
G1 X63.223 Y50.516 E2.77279
G1 X64.688 Y50.868 E2.78423 F1500.000
G1 X66.080 Y51.444 E2.79568
G1 X67.365 Y52.231 E2.80713
G1 X68.511 Y53.210 E2.81858
G1 X69.489 Y54.356 E2.83002
G1 X70.277 Y55.641 E2.84147
G1 X70.853 Y57.033 E2.85292
G1 X71.205 Y58.498 E2.86437
G1 X71.323 Y60.000 E2.87581
G1 X71.205 Y61.502 E2.88726
G1 X70.853 Y62.967 E2.89871
G1 X70.644 Y63.472 E2.90286
G1 X70.843 Y63.636 F7800.000
G4 P31
G1 X70.497 Y64.472 E2.90973 F1500.000
G1 X69.704 Y65.766 E2.92126
G1 X68.685 Y66.965 E2.93322
G1 X67.510 Y67.968 E2.94496
G1 X66.192 Y68.776 E2.95670
G1 X64.765 Y69.367 E2.96844
G1 X63.262 Y69.728 E2.98018
