; generated by Slic3r 1.2.9 on 2016-04-07 at 00:53:57

; external perimeters extrusion width = 0.50mm
; perimeters extrusion width = 0.50mm
; infill extrusion width = 0.50mm
; solid infill extrusion width = 0.50mm
; top infill extrusion width = 0.50mm

M107
M190 S70 ; set bed temperature
M104 S220 ; set temperature
G28 ; home all axes
M109 S220 ; wait for temperature to be reached
G21 ; set units to millimeters
G90 ; use absolute coordinates
M82 ; use absolute distances for extrusion
G92 E0
G1 Z0.350 F7800.000
G1 E-2.00000 F1920.00000
G92 E0
G1 X30.536 Y36.588 F7800.000
G1 E2.00000 F1920.00000
M204 S3000
G1 X31.336 Y35.990 E2.01368 F1800.000
G1 X31.965 Y35.586 E2.02390
G1 X32.842 Y35.108 E2.03757
G1 X33.522 Y34.798 E2.04779
G1 X34.459 Y34.450 E2.06147
G1 X35.176 Y34.240 E2.07169
G1 X36.520 Y33.962 E2.09048
G1 X78.789 Y27.924 E2.67476
G1 X81.976 Y27.550 E2.71866
G1 X85.053 Y27.337 E2.76088
G1 X88.014 Y27.268 E2.80140
G1 X132.092 Y27.279 E3.40457
G1 X133.006 Y27.339 E3.41710 F1800.000
G1 X133.684 Y27.429 E3.42646
G1 X134.582 Y27.607 E3.43899
G1 X135.243 Y27.784 E3.44836
G1 X136.110 Y28.079 E3.46089
G1 X136.743 Y28.341 E3.47025
G1 X137.564 Y28.746 E3.48278
G1 X138.157 Y29.088 E3.49215
G1 X138.918 Y29.596 E3.50468
G1 X139.490 Y30.038 E3.51456
G1 X140.149 Y30.617 E3.52657
G1 X140.633 Y31.101 E3.53594
G1 X141.237 Y31.789 E3.54846
G1 X141.653 Y32.332 E3.55782
G1 X142.162 Y33.093 E3.57036
G1 X142.504 Y33.686 E3.57972
G1 X142.909 Y34.507 E3.59225
G1 X143.171 Y35.140 E3.60162
G1 X143.466 Y36.007 E3.61415
G1 X143.643 Y36.668 E3.62351
G1 X143.821 Y37.566 E3.63604
G1 X143.911 Y38.244 E3.64541
G1 X143.982 Y39.500 E3.66262
G1 X143.982 Y80.500 E4.22367
G1 X143.911 Y81.756 E4.24088
G1 X143.821 Y82.434 E4.25024
G1 X143.643 Y83.332 E4.26277
G1 X143.466 Y83.993 E4.27214
G1 X143.171 Y84.860 E4.28467
G1 X142.909 Y85.493 E4.29403
G1 X142.504 Y86.314 E4.30656
G1 X142.162 Y86.907 E4.31593
G1 X141.653 Y87.668 E4.32846
G1 X141.237 Y88.211 E4.33782
G1 X140.633 Y88.899 E4.35035
G1 X140.149 Y89.383 E4.35971
G1 X139.490 Y89.962 E4.37172
G1 X138.918 Y90.404 E4.38161
G1 X138.157 Y90.912 E4.39414
G1 X137.564 Y91.254 E4.40350
G1 X136.743 Y91.659 E4.41603
G1 X136.111 Y91.921 E4.42540
G1 X135.243 Y92.216 E4.43793
G1 X134.582 Y92.393 E4.44729
G1 X133.684 Y92.571 E4.45982
G1 X133.006 Y92.661 E4.46918
G1 X131.750 Y92.732 E4.48640
G1 X88.014 Y92.732 E5.08488
G1 X85.053 Y92.663 E5.12541
G1 X81.976 Y92.450 E5.16762
G1 X78.789 Y92.076 E5.21153
G1 X36.520 Y86.038 E5.79581
G1 X35.176 Y85.760 E5.81460
G1 X34.459 Y85.550 E5.82482
G1 X33.522 Y85.202 E5.83849
G1 X32.843 Y84.892 E5.84871
G1 X31.965 Y84.414 E5.86239
G1 X31.336 Y84.010 E5.87261
G1 X30.536 Y83.412 E5.88629
G1 X29.971 Y82.923 E5.89651
G1 X29.264 Y82.217 E5.91018
G1 X28.775 Y81.652 E5.92040
G1 X28.176 Y80.853 E5.93408
G1 X27.772 Y80.224 E5.94430
G1 X27.292 Y79.347 E5.95797
G1 X26.982 Y78.668 E5.96820
G1 X26.632 Y77.732 E5.98187
G1 X26.422 Y77.015 E5.99209
G1 X26.209 Y76.038 E6.00577
G1 X26.103 Y75.299 E6.01599
G1 X26.018 Y73.929 E6.03478
G1 X26.018 Y46.071 E6.41598
G1 X26.103 Y44.701 E6.43477
G1 X26.209 Y43.961 E6.44499
G1 X26.413 Y43.026 E6.45810
G1 X26.632 Y42.268 E6.46889
G1 X26.982 Y41.332 E6.48256
G1 X27.292 Y40.653 E6.49278
G1 X27.772 Y39.776 E6.50646
G1 X28.176 Y39.147 E6.51668
G1 X28.775 Y38.348 E6.53036
G1 X29.264 Y37.783 E6.54058
G1 X29.971 Y37.077 E6.55425
G1 X30.479 Y36.637 E6.56345
G1 X30.803 Y36.946 F7800.000
G4 P29
G1 X31.604 Y36.347 E6.57712 F1800.000
G1 X32.179 Y35.978 E6.58647
G1 X33.056 Y35.500 E6.60015
G1 X33.678 Y35.217 E6.60950
G1 X34.614 Y34.868 E6.62317
G1 X35.270 Y34.676 E6.63252
G1 X36.583 Y34.404 E6.65087
G1 X78.852 Y28.366 E7.23515
G1 X82.007 Y27.995 E7.27863
G1 X85.064 Y27.783 E7.32055
G1 X88.014 Y27.715 E7.36093
G1 X132.063 Y27.725 E7.96370
G1 X132.977 Y27.785 E7.97623 F1800.000
G1 X133.597 Y27.866 E7.98479
G1 X134.495 Y28.045 E7.99732
G1 X135.100 Y28.207 E8.00589
G1 X135.967 Y28.501 E8.01842
G1 X136.545 Y28.741 E8.02699
G1 X137.367 Y29.146 E8.03952
G1 X137.909 Y29.459 E8.04808
G1 X138.670 Y29.968 E8.06061
G1 X139.195 Y30.374 E8.06970
G1 X139.855 Y30.952 E8.08171
G1 X140.298 Y31.395 E8.09027
G1 X140.901 Y32.083 E8.10280
G1 X141.282 Y32.580 E8.11136
G1 X141.791 Y33.341 E8.12390
G1 X142.104 Y33.883 E8.13246
G1 X142.509 Y34.705 E8.14499
G1 X142.749 Y35.283 E8.15356
G1 X143.043 Y36.150 E8.16609
G1 X143.205 Y36.755 E8.17465
G1 X143.384 Y37.653 E8.18718
G1 X143.465 Y38.273 E8.19575
G1 X143.535 Y39.500 E8.21256
G1 X143.535 Y80.500 E8.77361
G1 X143.465 Y81.727 E8.79042
G1 X143.384 Y82.347 E8.79899
G1 X143.205 Y83.245 E8.81152
G1 X143.043 Y83.850 E8.82008
G1 X142.749 Y84.717 E8.83261
G1 X142.509 Y85.295 E8.84118
G1 X142.104 Y86.117 E8.85371
G1 X141.791 Y86.659 E8.86227
G1 X141.282 Y87.420 E8.87481
G1 X140.901 Y87.917 E8.88337
G1 X140.298 Y88.605 E8.89590
G1 X139.855 Y89.048 E8.90446
G1 X139.195 Y89.626 E8.91647
G1 X138.670 Y90.032 E8.92556
G1 X137.909 Y90.541 E8.93809
G1 X137.367 Y90.854 E8.94665
G1 X136.545 Y91.259 E8.95918
G1 X135.967 Y91.499 E8.96775
G1 X135.100 Y91.793 E8.98028
G1 X134.495 Y91.955 E8.98884
G1 X133.597 Y92.134 E9.00137
G1 X132.977 Y92.215 E9.00994
G1 X131.750 Y92.285 E9.02675
G1 X88.014 Y92.285 E9.62523
G1 X85.064 Y92.217 E9.66561
G1 X82.007 Y92.005 E9.70754
G1 X78.852 Y91.634 E9.75102
G1 X36.583 Y85.596 E10.33530
G1 X35.270 Y85.324 E10.35365
G1 X34.614 Y85.132 E10.36300
G1 X33.678 Y84.783 E10.37667
G1 X33.056 Y84.500 E10.38602
G1 X32.179 Y84.022 E10.39970
G1 X31.604 Y83.653 E10.40904
G1 X30.803 Y83.054 E10.42272
G1 X30.287 Y82.607 E10.43207
G1 X29.580 Y81.901 E10.44575
G1 X29.132 Y81.385 E10.45509
G1 X28.533 Y80.585 E10.46877
G1 X28.163 Y80.010 E10.47812
G1 X27.684 Y79.133 E10.49179
G1 X27.400 Y78.512 E10.50114
G1 X27.051 Y77.576 E10.51482
G1 X26.858 Y76.920 E10.52417
G1 X26.645 Y75.944 E10.53784
G1 X26.548 Y75.267 E10.54719
G1 X26.477 Y74.270 E10.56087
G1 X26.465 Y46.071 E10.94675
G1 X26.548 Y44.732 E10.96510
G1 X26.645 Y44.056 E10.97445
G1 X26.849 Y43.121 E10.98756
G1 X27.051 Y42.424 E10.99747
G1 X27.400 Y41.488 E11.01115
G1 X27.684 Y40.867 E11.02050
G1 X28.163 Y39.990 E11.03417
G1 X28.533 Y39.415 E11.04352
G1 X29.132 Y38.615 E11.05720
G1 X29.580 Y38.099 E11.06655
G1 X30.287 Y37.393 E11.08022
G1 X30.747 Y36.995 E11.08855
G1 X31.071 Y37.303 F7800.000
G4 P29
G1 X31.871 Y36.705 E11.10222 F1800.000
G1 X32.392 Y36.370 E11.11070
G1 X33.270 Y35.892 E11.12437
G1 X33.833 Y35.635 E11.13285
G1 X34.770 Y35.286 E11.14653
G1 X35.365 Y35.112 E11.15500
G1 X36.646 Y34.846 E11.17292
G1 X78.915 Y28.808 E11.75720
G1 X82.039 Y28.440 E11.80024
G1 X85.075 Y28.229 E11.84188
G1 X88.014 Y28.161 E11.88211
G1 X132.034 Y28.170 E12.48448
G1 X132.947 Y28.230 E12.49701 F1800.000
G1 X133.510 Y28.304 E12.50478
G1 X134.408 Y28.483 E12.51731
G1 X134.956 Y28.630 E12.52507
G1 X135.824 Y28.924 E12.53760
G1 X136.348 Y29.141 E12.54537
G1 X137.169 Y29.546 E12.55790
G1 X137.661 Y29.830 E12.56567
G1 X138.422 Y30.339 E12.57819
G1 X138.901 Y30.709 E12.58648
G1 X139.561 Y31.288 E12.59849
G1 X139.962 Y31.689 E12.60626
G1 X140.566 Y32.378 E12.61879
G1 X140.911 Y32.828 E12.62655
G1 X141.420 Y33.589 E12.63908
G1 X141.704 Y34.081 E12.64685
G1 X142.109 Y34.902 E12.65938
G1 X142.326 Y35.426 E12.66715
G1 X142.620 Y36.294 E12.67968
G1 X142.767 Y36.842 E12.68744
G1 X142.946 Y37.740 E12.69997
G1 X143.020 Y38.303 E12.70774
G1 X143.089 Y39.500 E12.72415
G1 X143.089 Y80.500 E13.28520
G1 X143.020 Y81.697 E13.30161
G1 X142.946 Y82.260 E13.30938
G1 X142.767 Y83.158 E13.32191
G1 X142.620 Y83.706 E13.32968
G1 X142.326 Y84.574 E13.34220
G1 X142.109 Y85.098 E13.34997
G1 X141.704 Y85.919 E13.36250
G1 X141.420 Y86.411 E13.37027
G1 X140.911 Y87.172 E13.38280
G1 X140.566 Y87.622 E13.39056
G1 X139.962 Y88.311 E13.40309
G1 X139.561 Y88.712 E13.41086
G1 X138.872 Y89.316 E13.42339
G1 X138.422 Y89.661 E13.43116
G1 X137.661 Y90.170 E13.44369
G1 X137.169 Y90.454 E13.45145
G1 X136.348 Y90.859 E13.46398
G1 X135.824 Y91.076 E13.47175
G1 X134.957 Y91.370 E13.48428
G1 X134.408 Y91.517 E13.49205
G1 X133.510 Y91.696 E13.50458
G1 X132.947 Y91.770 E13.51234
G1 X131.750 Y91.839 E13.52876
G1 X88.014 Y91.839 E14.12724
G1 X85.075 Y91.771 E14.16748
G1 X82.039 Y91.560 E14.20911
G1 X78.915 Y91.192 E14.25216
G1 X36.646 Y85.154 E14.83644
G1 X35.365 Y84.888 E14.85435
G1 X34.770 Y84.714 E14.86283
G1 X33.833 Y84.365 E14.87650
G1 X33.270 Y84.108 E14.88498
G1 X32.392 Y83.630 E14.89865
G1 X31.871 Y83.295 E14.90713
G1 X31.071 Y82.697 E14.92081
G1 X30.602 Y82.291 E14.92928
G1 X29.895 Y81.585 E14.94296
G1 X29.489 Y81.117 E14.95144
G1 X28.890 Y80.317 E14.96511
G1 X28.555 Y79.796 E14.97359
G1 X28.076 Y78.919 E14.98726
G1 X27.818 Y78.356 E14.99574
G1 X27.469 Y77.420 E15.00942
G1 X27.294 Y76.825 E15.01789
G1 X27.082 Y75.849 E15.03157
G1 X26.993 Y75.236 E15.04005
G1 X26.922 Y74.239 E15.05372
G1 X26.911 Y46.071 E15.43917
G1 X26.993 Y44.764 E15.45709
G1 X27.082 Y44.151 E15.46556
G1 X27.285 Y43.215 E15.47867
G1 X27.469 Y42.580 E15.48771
G1 X27.818 Y41.644 E15.50139
G1 X28.076 Y41.081 E15.50986
G1 X28.555 Y40.204 E15.52354
G1 X28.890 Y39.683 E15.53202
G1 X29.489 Y38.883 E15.54569
G1 X29.895 Y38.415 E15.55417
G1 X30.602 Y37.709 E15.56784
G1 X31.014 Y37.352 E15.57530
G1 X31.338 Y37.661 F7800.000
G4 P29
G1 X32.138 Y37.062 E15.58897 F1800.000
G1 X32.606 Y36.762 E15.59658
G1 X33.483 Y36.284 E15.61025
G1 X33.989 Y36.053 E15.61786
G1 X34.926 Y35.705 E15.63153
G1 X35.459 Y35.549 E15.63914
G1 X36.710 Y35.288 E15.65662
G1 X78.978 Y29.249 E16.24089
G1 X82.071 Y28.885 E16.28350
G1 X85.085 Y28.675 E16.32485
G1 X88.014 Y28.607 E16.36494
G1 X132.005 Y28.616 E16.96691
G1 X132.918 Y28.676 E16.97944 F1800.000
G1 X133.423 Y28.742 E16.98641
G1 X134.321 Y28.921 E16.99894
G1 X134.813 Y29.052 E17.00591
G1 X135.680 Y29.347 E17.01844
G1 X136.150 Y29.542 E17.02540
G1 X136.972 Y29.947 E17.03793
G1 X137.413 Y30.201 E17.04490
G1 X138.174 Y30.710 E17.05743
G1 X138.607 Y31.045 E17.06492
G1 X139.266 Y31.624 E17.07693
G1 X139.626 Y31.984 E17.08390
G1 X140.230 Y32.672 E17.09643
G1 X140.540 Y33.076 E17.10339
G1 X141.049 Y33.837 E17.11592
G1 X141.303 Y34.278 E17.12289
G1 X141.708 Y35.100 E17.13542
G1 X141.903 Y35.570 E17.14239
G1 X142.198 Y36.437 E17.15492
G1 X142.329 Y36.929 E17.16189
G1 X142.508 Y37.827 E17.17441
G1 X142.574 Y38.332 E17.18138
G1 X142.643 Y39.500 E17.19740
G1 X142.643 Y80.500 E17.75844
G1 X142.574 Y81.668 E17.77446
G1 X142.508 Y82.173 E17.78142
G1 X142.329 Y83.071 E17.79395
G1 X142.198 Y83.563 E17.80092
G1 X141.903 Y84.430 E17.81345
G1 X141.708 Y84.900 E17.82042
G1 X141.303 Y85.722 E17.83295
G1 X141.049 Y86.163 E17.83992
G1 X140.540 Y86.924 E17.85245
G1 X140.230 Y87.328 E17.85941
G1 X139.626 Y88.016 E17.87194
G1 X139.266 Y88.376 E17.87891
G1 X138.578 Y88.980 E17.89144
G1 X138.174 Y89.290 E17.89841
G1 X137.413 Y89.799 E17.91094
G1 X136.972 Y90.053 E17.91791
G1 X136.150 Y90.458 E17.93044
G1 X135.680 Y90.653 E17.93740
G1 X134.813 Y90.948 E17.94993
G1 X134.321 Y91.079 E17.95690
G1 X133.423 Y91.258 E17.96943
G1 X132.918 Y91.324 E17.97640
G1 X131.750 Y91.393 E17.99241
G1 X88.014 Y91.393 E18.59090
G1 X85.085 Y91.325 E18.63099
G1 X82.071 Y91.115 E18.67234
G1 X78.978 Y90.751 E18.71495
G1 X36.710 Y84.712 E19.29923
G1 X35.459 Y84.451 E19.31670
G1 X34.926 Y84.295 E19.32431
G1 X33.989 Y83.947 E19.33798
G1 X33.483 Y83.716 E19.34559
G1 X32.606 Y83.238 E19.35926
G1 X32.138 Y82.938 E19.36687
G1 X31.338 Y82.339 E19.38055
G1 X30.918 Y81.976 E19.38815
G1 X30.211 Y81.269 E19.40183
G1 X29.847 Y80.849 E19.40943
G1 X29.247 Y80.050 E19.42311
G1 X28.947 Y79.582 E19.43071
G1 X28.467 Y78.705 E19.44439
G1 X28.236 Y78.200 E19.45199
G1 X27.887 Y77.263 E19.46567
G1 X27.730 Y76.730 E19.47327
G1 X27.518 Y75.754 E19.48695
G1 X27.439 Y75.204 E19.49455
G1 X27.367 Y74.207 E19.50823
G1 X27.357 Y46.071 E19.89324
G1 X27.439 Y44.796 E19.91072
G1 X27.518 Y44.246 E19.91832
G1 X27.721 Y43.310 E19.93143
G1 X27.887 Y42.737 E19.93960
G1 X28.236 Y41.800 E19.95328
G1 X28.467 Y41.295 E19.96088
G1 X28.947 Y40.418 E19.97456
G1 X29.247 Y39.950 E19.98216
G1 X29.847 Y39.151 E19.99584
G1 X30.211 Y38.731 E20.00344
G1 X30.918 Y38.024 E20.01712
G1 X31.281 Y37.710 E20.02370
G1 X31.605 Y38.018 F7800.000
G4 P29
G1 X32.406 Y37.420 E20.03737 F1800.000
G1 X32.820 Y37.154 E20.04411
G1 X33.697 Y36.676 E20.05778
G1 X34.145 Y36.472 E20.06451
G1 X35.081 Y36.123 E20.07819
G1 X35.554 Y35.985 E20.08492
G1 X36.773 Y35.730 E20.10197
G1 X79.041 Y29.691 E20.68624
G1 X82.102 Y29.331 E20.72842
G1 X85.096 Y29.122 E20.76948
G1 X88.014 Y29.054 E20.80943
G1 X131.975 Y29.061 E21.41100
G1 X132.889 Y29.121 E21.42353 F1800.000
G1 X133.336 Y29.180 E21.42969
G1 X134.234 Y29.358 E21.44222
G1 X134.670 Y29.475 E21.44839
G1 X135.537 Y29.769 E21.46092
G1 X135.953 Y29.942 E21.46709
G1 X136.774 Y30.347 E21.47962
G1 X137.165 Y30.572 E21.48579
G1 X137.926 Y31.081 E21.49832
G1 X138.312 Y31.380 E21.50501
G1 X138.972 Y31.959 E21.51702
G1 X139.291 Y32.278 E21.52319
G1 X139.895 Y32.966 E21.53572
G1 X140.169 Y33.324 E21.54188
G1 X140.678 Y34.085 E21.55441
G1 X140.903 Y34.476 E21.56058
G1 X141.308 Y35.297 E21.57311
G1 X141.481 Y35.713 E21.57928
G1 X141.775 Y36.580 E21.59181
G1 X141.892 Y37.016 E21.59798
G1 X142.070 Y37.914 E21.61051
G1 X142.129 Y38.361 E21.61668
G1 X142.196 Y39.500 E21.63229
G1 X142.196 Y80.500 E22.19334
G1 X142.129 Y81.639 E22.20895
G1 X142.070 Y82.086 E22.21512
G1 X141.892 Y82.984 E22.22765
G1 X141.775 Y83.420 E22.23382
G1 X141.481 Y84.287 E22.24635
G1 X141.308 Y84.703 E22.25252
G1 X140.903 Y85.524 E22.26505
G1 X140.678 Y85.915 E22.27122
G1 X140.169 Y86.676 E22.28375
G1 X139.895 Y87.034 E22.28992
G1 X139.291 Y87.722 E22.30245
G1 X138.972 Y88.041 E22.30861
G1 X138.284 Y88.645 E22.32115
G1 X137.926 Y88.919 E22.32731
G1 X137.165 Y89.428 E22.33984
G1 X136.774 Y89.653 E22.34601
G1 X135.953 Y90.058 E22.35854
G1 X135.537 Y90.231 E22.36471
G1 X134.670 Y90.525 E22.37724
G1 X134.234 Y90.642 E22.38341
G1 X133.336 Y90.820 E22.39594
G1 X132.889 Y90.879 E22.40211
G1 X131.750 Y90.946 E22.41772
G1 X88.014 Y90.946 E23.01621
G1 X85.096 Y90.878 E23.05615
G1 X82.102 Y90.669 E23.09721
G1 X79.041 Y90.309 E23.13939
G1 X36.773 Y84.270 E23.72367
G1 X35.554 Y84.015 E23.74071
G1 X35.081 Y83.877 E23.74744
G1 X34.145 Y83.528 E23.76112
G1 X33.697 Y83.324 E23.76785
G1 X32.820 Y82.846 E23.78153
G1 X32.406 Y82.580 E23.78826
G1 X31.605 Y81.982 E23.80194
G1 X31.233 Y81.660 E23.80867
G1 X30.526 Y80.953 E23.82234
G1 X30.204 Y80.582 E23.82908
G1 X29.604 Y79.782 E23.84275
G1 X29.338 Y79.368 E23.84948
G1 X28.859 Y78.491 E23.86316
G1 X28.655 Y78.044 E23.86989
G1 X28.305 Y77.107 E23.88357
G1 X28.166 Y76.635 E23.89030
G1 X27.954 Y75.659 E23.90398
G1 X27.884 Y75.172 E23.91071
G1 X27.812 Y74.175 E23.92439
G1 X27.804 Y46.071 E24.30896
G1 X27.884 Y44.828 E24.32601
G1 X27.954 Y44.341 E24.33274
G1 X28.158 Y43.405 E24.34584
G1 X28.305 Y42.893 E24.35314
G1 X28.655 Y41.956 E24.36682
G1 X28.859 Y41.509 E24.37355
G1 X29.338 Y40.632 E24.38723
G1 X29.604 Y40.218 E24.39396
G1 X30.204 Y39.418 E24.40764
G1 X30.526 Y39.047 E24.41437
G1 X31.233 Y38.340 E24.42804
G1 X31.548 Y38.067 E24.43375
G1 E22.43375 F1920.00000
G92 E0
G1 X129.758 Y80.703 F7800.000
G1 E2.00000 F1920.00000
G1 X129.973 Y80.042 E2.00952 F1800.000
G1 X130.343 Y79.459 E2.01896
G1 X130.846 Y78.987 E2.02840
G1 X131.450 Y78.655 E2.03783
G1 X132.118 Y78.483 E2.04727
G1 X132.808 Y78.483 E2.05671 F1800.000
G1 X133.476 Y78.655 E2.06615
G1 X134.081 Y78.987 E2.07559
G1 X134.583 Y79.459 E2.08503
G1 X134.941 Y80.023 E2.09416
G1 X135.166 Y80.692 E2.10382
G1 X135.210 Y81.386 E2.11334
G1 X135.080 Y82.064 E2.12278
G1 X134.787 Y82.688 E2.13222
G1 X134.347 Y83.219 E2.14166
G1 X133.789 Y83.625 E2.15110
G1 X133.148 Y83.879 E2.16053
G1 X132.463 Y83.965 E2.16997
G1 X131.779 Y83.879 E2.17941
G1 X131.138 Y83.625 E2.18885
G1 X130.579 Y83.219 E2.19829
G1 X130.140 Y82.688 E2.20773
G1 X129.846 Y82.064 E2.21717
G1 X129.721 Y81.408 E2.22630
G1 X129.754 Y80.778 E2.23493
G1 X130.201 Y80.785 F7800.000
G4 P29
G1 X130.380 Y80.233 E2.24288 F1800.000
G1 X130.690 Y79.746 E2.25077
G1 X131.110 Y79.351 E2.25867
G1 X131.616 Y79.073 E2.26656
G1 X132.175 Y78.929 E2.27446
G1 X132.752 Y78.929 E2.28236 F1800.000
G1 X133.311 Y79.073 E2.29025
G1 X133.816 Y79.351 E2.29815
