; generated by Slic3r 1.2.9 on 2016-04-10 at 16:25:58

; external perimeters extrusion width = 0.50mm
; perimeters extrusion width = 0.50mm
; infill extrusion width = 0.50mm
; solid infill extrusion width = 0.50mm
; top infill extrusion width = 0.50mm

M107
M190 S70 ; set bed temperature
M104 S220 ; set temperature
G28 ; home all axes
M109 S220 ; wait for temperature to be reached
G21 ; set units to millimeters
G90 ; use absolute coordinates
M82 ; use absolute distances for extrusion
G92 E0
G1 Z0.350 F7800.000
G1 E-2.00000 F1920.00000
G92 E0
G1 X30.192 Y25.808 F7800.000
G1 E2.00000 F1920.00000
M204 S3000
G1 X31.882 Y24.673 E2.02786 F1800.000
G1 X33.899 Y24.268 E2.05601
G1 X88.899 Y24.268 E2.80863
G1 X90.418 Y24.494 E2.82965
G1 X122.695 Y34.292 E3.29122 F1800.000
G1 X124.427 Y34.920 E3.31643
G1 X126.111 Y35.665 E3.34164
G1 X127.741 Y36.523 E3.36685
G1 X129.309 Y37.491 E3.39206
G1 X130.522 Y38.347 E3.41238
G1 X131.959 Y39.501 E3.43759
G1 X133.314 Y40.749 E3.46280
G1 X134.815 Y42.356 E3.49289
G1 X135.752 Y43.508 E3.51321
G1 X136.824 Y45.006 E3.53843
G1 X137.792 Y46.574 E3.56363
G1 X138.650 Y48.204 E3.58884
G1 X139.395 Y49.889 E3.61405
G1 X140.024 Y51.620 E3.63926
G1 X140.617 Y53.738 E3.66935
G1 X140.980 Y55.544 E3.69456
G1 X141.219 Y57.371 E3.71977
G1 X141.320 Y58.853 E3.74009
G1 X141.332 Y60.695 E3.76530
G1 X141.219 Y62.533 E3.79051
G1 X141.175 Y62.940 E3.79610
G1 X140.919 Y64.712 E3.82061
G1 X140.533 Y66.513 E3.84581
G1 X140.024 Y68.284 E3.87103
G1 X139.395 Y70.016 E3.89623
G1 X138.650 Y71.700 E3.92144
G1 X137.967 Y73.019 E3.94177
G1 X137.020 Y74.599 E3.96697
G1 X135.968 Y76.111 E3.99218
G1 X134.580 Y77.817 E4.02228
G1 X133.314 Y79.155 E4.04749
G1 X131.959 Y80.404 E4.07269
G1 X130.522 Y81.557 E4.09790
G1 X129.309 Y82.413 E4.11823
G1 X127.741 Y83.381 E4.14343
G1 X126.111 Y84.239 E4.16864
G1 X124.427 Y84.984 E4.19385
G1 X122.475 Y85.685 E4.22222
G1 X90.432 Y95.502 E4.68082
G1 X88.899 Y95.732 E4.70203
G1 X33.899 Y95.732 E5.45465
G1 X31.902 Y95.336 E5.48251
G1 X30.208 Y94.207 E5.51037
G1 X29.072 Y92.517 E5.53823
G1 X28.668 Y90.500 E5.56639
G1 X28.668 Y29.500 E6.40111
G1 X29.064 Y27.503 E6.42897
G1 X30.151 Y25.871 E6.45581
G1 X30.578 Y26.080 F7800.000
G4 P29
G1 X30.632 Y26.004 E6.45709 F1800.000
G1 X32.294 Y24.992 E6.48372
G1 X33.899 Y24.715 E6.50601
G1 X88.899 Y24.715 E7.25863
G1 X90.289 Y24.921 E7.27785
G1 X122.545 Y34.712 E7.73914 F1800.000
G1 X124.249 Y35.329 E7.76393
G1 X125.906 Y36.061 E7.78873
G1 X127.510 Y36.905 E7.81352
G1 X129.052 Y37.856 E7.83831
G1 X130.265 Y38.712 E7.85863
G1 X131.677 Y39.847 E7.88342
G1 X133.009 Y41.075 E7.90822
G1 X134.469 Y42.638 E7.93748
G1 X135.603 Y44.050 E7.96227
G1 X136.460 Y45.264 E7.98259
G1 X137.411 Y46.806 E8.00738
G1 X138.254 Y48.409 E8.03218
G1 X139.106 Y50.371 E8.06143
G1 X139.702 Y52.081 E8.08623
G1 X140.180 Y53.829 E8.11102
G1 X140.538 Y55.605 E8.13581
G1 X140.773 Y57.401 E8.16060
G1 X140.875 Y58.883 E8.18092
G1 X140.886 Y60.695 E8.20572
G1 X140.773 Y62.503 E8.23051
G1 X140.733 Y62.879 E8.23569
G1 X140.482 Y64.621 E8.25977
G1 X140.103 Y66.393 E8.28456
G1 X139.702 Y67.823 E8.30489
G1 X139.106 Y69.534 E8.32968
G1 X138.394 Y71.200 E8.35447
G1 X137.571 Y72.814 E8.37926
G1 X136.639 Y74.367 E8.40405
G1 X135.603 Y75.854 E8.42885
G1 X134.254 Y77.513 E8.45810
G1 X133.009 Y78.829 E8.48290
G1 X131.678 Y80.057 E8.50769
G1 X130.525 Y80.995 E8.52801
G1 X129.052 Y82.049 E8.55281
G1 X127.510 Y83.000 E8.57760
G1 X125.906 Y83.843 E8.60239
G1 X124.249 Y84.575 E8.62718
G1 X122.345 Y85.259 E8.65486
G1 X90.301 Y95.075 E9.11347
G1 X88.899 Y95.285 E9.13286
G1 X33.899 Y95.285 E9.88548
G1 X31.994 Y94.890 E9.91212
G1 X30.403 Y93.768 E9.93875
G1 X29.391 Y92.105 E9.96539
G1 X29.114 Y90.500 E9.98767
G1 X29.114 Y29.500 E10.82240
G1 X29.510 Y27.594 E10.84903
G1 X30.535 Y26.142 E10.87336
G1 X30.954 Y26.364 F7800.000
G4 P29
G1 X31.070 Y26.210 E10.87599 F1800.000
G1 X32.700 Y25.330 E10.90134
G1 X33.899 Y25.161 E10.91792
G1 X88.899 Y25.161 E11.67054
G1 X90.159 Y25.348 E11.68796
G1 X122.396 Y35.133 E12.14897 F1800.000
G1 X124.071 Y35.739 E12.17334
G1 X125.701 Y36.458 E12.19772
G1 X127.278 Y37.286 E12.22209
G1 X128.794 Y38.220 E12.24647
G1 X130.008 Y39.077 E12.26679
G1 X131.396 Y40.193 E12.29117
G1 X132.704 Y41.401 E12.31554
G1 X133.928 Y42.696 E12.33992
G1 X135.239 Y44.308 E12.36834
G1 X136.258 Y45.769 E12.39272
G1 X137.174 Y47.296 E12.41709
G1 X137.858 Y48.615 E12.43742
G1 X138.577 Y50.244 E12.46179
G1 X139.183 Y51.919 E12.48617
G1 X139.673 Y53.632 E12.51054
G1 X140.045 Y55.374 E12.53492
G1 X140.298 Y57.137 E12.55929
G1 X140.430 Y58.913 E12.58367
G1 X140.440 Y60.695 E12.60804
G1 X140.328 Y62.473 E12.63242
G1 X140.291 Y62.818 E12.63718
G1 X140.045 Y64.531 E12.66085
G1 X139.673 Y66.272 E12.68522
G1 X139.183 Y67.985 E12.70959
G1 X138.685 Y69.384 E12.72992
G1 X137.985 Y71.022 E12.75429
G1 X137.174 Y72.608 E12.77867
G1 X136.258 Y74.135 E12.80304
G1 X135.239 Y75.597 E12.82742
G1 X133.928 Y77.208 E12.85584
G1 X132.704 Y78.503 E12.88022
G1 X131.396 Y79.711 E12.90459
G1 X130.244 Y80.649 E12.92492
G1 X128.794 Y81.684 E12.94929
G1 X127.278 Y82.618 E12.97367
G1 X125.701 Y83.447 E12.99804
G1 X124.071 Y84.166 E13.02242
G1 X122.214 Y84.832 E13.04942
G1 X90.170 Y94.649 E13.50802
G1 X88.899 Y94.839 E13.52560
G1 X33.899 Y94.839 E14.27822
G1 X32.090 Y94.444 E14.30357
G1 X30.610 Y93.330 E14.32892
G1 X29.730 Y91.700 E14.35427
G1 X29.560 Y90.500 E14.37085
G1 X29.560 Y29.500 E15.20557
G1 X29.956 Y27.690 E15.23092
G1 X30.909 Y26.424 E15.25262
G1 X31.320 Y26.660 F7800.000
G4 P29
G1 X31.506 Y26.430 E15.25667 F1800.000
G1 X33.899 Y25.607 E15.29130
G1 X88.899 Y25.607 E16.04392
G1 X90.030 Y25.775 E16.05956
G1 X122.247 Y35.553 E16.52027 F1800.000
G1 X123.893 Y36.148 E16.54423
G1 X125.495 Y36.854 E16.56819
G1 X127.046 Y37.668 E16.59215
G1 X128.537 Y38.585 E16.61611
G1 X129.750 Y39.441 E16.63643
G1 X131.114 Y40.539 E16.66039
G1 X132.400 Y41.728 E16.68434
G1 X133.601 Y43.001 E16.70830
G1 X134.874 Y44.565 E16.73590
G1 X135.876 Y46.001 E16.75985
G1 X136.778 Y47.501 E16.78381
G1 X137.461 Y48.820 E16.80414
G1 X138.167 Y50.422 E16.82809
G1 X138.762 Y52.069 E16.85205
G1 X139.243 Y53.752 E16.87601
G1 X139.608 Y55.465 E16.89997
G1 X139.856 Y57.198 E16.92393
G1 X139.984 Y58.944 E16.94788
G1 X139.993 Y60.695 E16.97184
G1 X139.849 Y62.757 E17.00014
G1 X139.608 Y64.440 E17.02339
G1 X139.243 Y66.152 E17.04735
G1 X138.762 Y67.835 E17.07131
G1 X138.167 Y69.482 E17.09527
G1 X137.461 Y71.084 E17.11922
G1 X136.778 Y72.403 E17.13955
G1 X135.876 Y73.904 E17.16350
G1 X134.874 Y75.339 E17.18746
G1 X133.601 Y76.903 E17.21506
G1 X132.400 Y78.177 E17.23901
G1 X131.114 Y79.365 E17.26297
G1 X129.962 Y80.302 E17.28329
G1 X128.537 Y81.319 E17.30725
G1 X127.046 Y82.237 E17.33121
G1 X125.495 Y83.050 E17.35517
G1 X123.893 Y83.756 E17.37913
G1 X122.083 Y84.405 E17.40544
G1 X90.040 Y94.222 E17.86404
G1 X88.899 Y94.393 E17.87982
G1 X33.899 Y94.393 E18.63244
G1 X32.191 Y93.998 E18.65643
G1 X30.829 Y92.893 E18.68042
G1 X30.007 Y90.500 E18.71506
G1 X30.007 Y29.500 E19.54978
G1 X30.402 Y27.792 E19.57377
G1 X31.272 Y26.718 E19.59269
G1 X31.670 Y26.970 F7800.000
G4 P29
G1 X31.940 Y26.665 E19.59826 F1800.000
G1 X33.899 Y26.054 E19.62635
G1 X88.899 Y26.054 E20.37897
G1 X89.900 Y26.202 E20.39282
G1 X122.097 Y35.974 E20.85325 F1800.000
G1 X123.715 Y36.558 E20.87679
G1 X125.290 Y37.250 E20.90033
G1 X126.814 Y38.049 E20.92387
G1 X128.280 Y38.950 E20.94741
G1 X129.493 Y39.806 E20.96773
G1 X130.832 Y40.886 E20.99128
G1 X132.095 Y42.054 E21.01482
G1 X133.275 Y43.306 E21.03836
G1 X134.367 Y44.635 E21.06190
G1 X135.366 Y46.036 E21.08544
G1 X136.266 Y47.502 E21.10898
G1 X137.041 Y48.980 E21.13182
G1 X137.844 Y50.819 E21.15928
G1 X138.413 Y52.443 E21.18282
G1 X138.869 Y54.101 E21.20636
G1 X139.211 Y55.787 E21.22991
G1 X139.438 Y57.493 E21.25345
G1 X139.539 Y58.974 E21.27377
G1 X139.547 Y60.695 E21.29731
G1 X139.406 Y62.697 E21.32477
G1 X139.171 Y64.349 E21.34761
G1 X138.813 Y66.031 E21.37115
G1 X138.342 Y67.686 E21.39469
G1 X137.758 Y69.304 E21.41823
G1 X137.065 Y70.879 E21.44177
G1 X136.382 Y72.198 E21.46210
G1 X135.495 Y73.672 E21.48564
G1 X134.509 Y75.082 E21.50918
G1 X133.275 Y76.599 E21.53594
G1 X132.095 Y77.850 E21.55948
G1 X130.832 Y79.019 E21.58302
G1 X129.680 Y79.956 E21.60334
G1 X128.279 Y80.955 E21.62689
G1 X126.814 Y81.855 E21.65043
G1 X125.290 Y82.654 E21.67397
G1 X123.715 Y83.347 E21.69751
G1 X121.952 Y83.978 E21.72313
G1 X89.909 Y93.795 E22.18173
G1 X88.899 Y93.946 E22.19570
G1 X33.899 Y93.946 E22.94832
G1 X32.299 Y93.552 E22.97088
G1 X31.065 Y92.460 E22.99344
G1 X30.453 Y90.500 E23.02153
G1 X30.453 Y29.500 E23.85626
G1 X30.847 Y27.899 E23.87881
G1 X31.620 Y27.026 E23.89477
G1 E21.89477 F1920.00000
G92 E0
G1 X105.381 Y71.019 F7800.000
G1 E2.00000 F1920.00000
G1 X105.446 Y71.706 E2.00944 F1800.000
G1 X105.339 Y72.387 E2.01888
G1 X105.065 Y73.020 E2.02832
G1 X104.642 Y73.565 E2.03776
G1 X104.097 Y73.988 E2.04719
G1 X103.464 Y74.262 E2.05663
G1 X102.782 Y74.370 E2.06607
G1 X102.096 Y74.305 E2.07551
G1 X101.447 Y74.071 E2.08495
G1 X100.876 Y73.684 E2.09439
G1 X100.420 Y73.166 E2.10383
G1 X100.122 Y72.581 E2.11281
G1 X99.954 Y71.879 E2.12270
G1 X99.987 Y71.157 E2.13259
G1 X100.171 Y70.527 E2.14157
G1 X100.522 Y69.933 E2.15100
G1 X101.009 Y69.445 E2.16044
G1 X101.603 Y69.094 E2.16988
G1 X102.266 Y68.902 E2.17932
G1 X102.907 Y68.881 E2.18810 F1800.000
G1 X103.617 Y69.025 E2.19802
G1 X104.243 Y69.343 E2.20762
G1 X104.760 Y69.800 E2.21706
G1 X105.148 Y70.370 E2.22650
G1 X105.356 Y70.949 E2.23492
G1 X104.942 Y71.117 F7800.000
G4 P29
G1 X104.997 Y71.692 E2.24281 F1800.000
G4 P14
G1 X104.906 Y72.262 E2.25071
G1 X104.677 Y72.791 E2.25860
G1 X104.324 Y73.247 E2.26650
G1 X103.868 Y73.601 E2.27439
G1 X103.338 Y73.830 E2.28229
G1 X102.768 Y73.920 E2.29019
G1 X102.194 Y73.866 E2.29808
G1 X101.651 Y73.670 E2.30598
G1 X101.174 Y73.346 E2.31387
G1 X100.792 Y72.913 E2.32177
G1 X100.544 Y72.426 E2.32925
G1 X100.403 Y71.836 E2.33755
G1 X100.431 Y71.230 E2.34585
G1 X100.583 Y70.705 E2.35333
G1 X100.877 Y70.209 E2.36123
G1 X101.285 Y69.801 E2.36912
G1 X101.782 Y69.507 E2.37702
G1 X102.336 Y69.346 E2.38492
G1 X102.869 Y69.329 E2.39221 F1800.000
G1 X103.469 Y69.450 E2.40059
G1 X103.990 Y69.716 E2.40859
G1 X104.423 Y70.097 E2.41648
G1 X104.747 Y70.574 E2.42438
G1 X104.917 Y71.047 E2.43125
G1 X104.503 Y71.215 F7800.000
G4 P29
G1 X104.547 Y71.678 E2.43760 F1800.000
G4 P17
G1 X104.474 Y72.136 E2.44395
G1 X104.290 Y72.562 E2.45031
G1 X104.006 Y72.929 E2.45666
G1 X103.639 Y73.214 E2.46301
G1 X103.213 Y73.398 E2.46936
G1 X102.754 Y73.470 E2.47572
G1 X102.292 Y73.427 E2.48207
G1 X101.855 Y73.270 E2.48842
G1 X101.471 Y73.009 E2.49478
G1 X101.164 Y72.660 E2.50113
G1 X100.966 Y72.271 E2.50711
G1 X100.852 Y71.794 E2.51382
G1 X100.874 Y71.304 E2.52053
G1 X100.996 Y70.884 E2.52652
G1 X101.233 Y70.484 E2.53287
G1 X101.561 Y70.156 E2.53922
G1 X101.960 Y69.920 E2.54558
G1 X102.406 Y69.790 E2.55193
G1 X102.831 Y69.777 E2.55775 F1800.000
G1 X103.321 Y69.876 E2.56458
G1 X103.737 Y70.088 E2.57097
G1 X104.085 Y70.395 E2.57732
G1 X104.346 Y70.779 E2.58368
G1 X104.478 Y71.145 E2.58900
G1 X104.940 Y71.373 F7800.000
G1 X109.374 Y65.612 F7800.000
G1 X108.704 Y64.942 E2.60197 F1800.000
G1 X108.123 Y64.193 E2.61493
G1 X107.641 Y63.377 E2.62790
G1 X107.264 Y62.508 E2.64087
G1 X107.000 Y61.598 E2.65383
G1 X106.852 Y60.662 E2.66680
G1 X106.822 Y59.715 E2.67976
G1 X106.911 Y58.776 E2.69267
G1 X107.118 Y57.848 E2.70569
G1 X107.439 Y56.956 E2.71866
G1 X107.869 Y56.111 E2.73162
G1 X108.402 Y55.328 E2.74459
G1 X109.028 Y54.617 E2.75756
G1 X109.739 Y53.990 E2.77052
G1 X110.523 Y53.458 E2.78349
G1 X111.367 Y53.028 E2.79645
G1 X112.259 Y52.707 E2.80942
G1 X113.187 Y52.500 E2.82245
G1 X114.126 Y52.411 E2.83535 F1800.000
G1 X115.073 Y52.441 E2.84832
G1 X116.009 Y52.589 E2.86128
G1 X116.919 Y52.853 E2.87425
G1 X117.789 Y53.230 E2.88721
G1 X118.604 Y53.712 E2.90018
G1 X119.353 Y54.293 E2.91314
G1 X120.023 Y54.963 E2.92611
G1 X120.604 Y55.711 E2.93908
G1 X121.086 Y56.527 E2.95204
G1 X121.462 Y57.396 E2.96501
G1 X121.726 Y58.306 E2.97797
G1 X121.875 Y59.242 E2.99094
G1 X121.904 Y60.189 E3.00390
G1 X121.815 Y61.132 E3.01687
G1 X121.609 Y62.057 E3.02984
G1 X121.288 Y62.949 E3.04280
G1 X120.858 Y63.793 E3.05577
G1 X120.325 Y64.577 E3.06873
G1 X119.698 Y65.287 E3.08170
G1 X118.988 Y65.914 E3.09466
G1 X118.204 Y66.446 E3.10763
G1 X117.360 Y66.877 E3.12059
G1 X116.468 Y67.198 E3.13356
G1 X115.544 Y67.404 E3.14653
G1 X114.600 Y67.493 E3.15949
G1 X113.653 Y67.464 E3.17246
G1 X112.717 Y67.315 E3.18543
G1 X111.803 Y67.049 E3.19845
G1 X110.938 Y66.675 E3.21135
G1 X110.122 Y66.192 E3.22432
G1 X109.433 Y65.658 E3.23626
G1 X109.669 Y65.276 F7800.000
G4 P29
G1 X109.039 Y64.646 E3.24846 F1800.000
G1 X108.493 Y63.942 E3.26065
G1 X108.039 Y63.174 E3.27285
G1 X107.685 Y62.356 E3.28505
G1 X107.436 Y61.500 E3.29724
G1 X107.297 Y60.620 E3.30944
G1 X107.269 Y59.729 E3.32164
G1 X107.352 Y58.846 E3.33378
G1 X107.547 Y57.972 E3.34603
G1 X107.849 Y57.133 E3.35823
G1 X108.254 Y56.339 E3.37043
G1 X108.755 Y55.602 E3.38262
G1 X109.344 Y54.933 E3.39482
G1 X110.013 Y54.344 E3.40702
G1 X110.750 Y53.843 E3.41922
G1 X111.544 Y53.438 E3.43141
G1 X112.383 Y53.136 E3.44361
G1 X113.257 Y52.941 E3.45587
G1 X114.140 Y52.858 E3.46800 F1800.000
G1 X115.031 Y52.886 E3.48020
G1 X115.912 Y53.025 E3.49240
G1 X116.768 Y53.274 E3.50459
G1 X117.586 Y53.628 E3.51679
G1 X118.353 Y54.082 E3.52899
G1 X119.057 Y54.628 E3.54119
G1 X119.687 Y55.258 E3.55338
G1 X120.234 Y55.963 E3.56558
G1 X120.687 Y56.730 E3.57778
G1 X121.041 Y57.548 E3.58997
G1 X121.290 Y58.404 E3.60217
G1 X121.429 Y59.284 E3.61437
G1 X121.457 Y60.175 E3.62657
G1 X121.374 Y61.062 E3.63876
G1 X121.179 Y61.932 E3.65096
G1 X120.877 Y62.771 E3.66316
G1 X120.473 Y63.565 E3.67535
G1 X119.972 Y64.302 E3.68755
G1 X119.382 Y64.971 E3.69975
G1 X118.713 Y65.560 E3.71195
G1 X117.976 Y66.061 E3.72414
G1 X117.182 Y66.466 E3.73634
G1 X116.343 Y66.768 E3.74854
G1 X115.474 Y66.962 E3.76073
G1 X114.586 Y67.046 E3.77293
G1 X113.695 Y67.018 E3.78513
G1 X112.815 Y66.879 E3.79733
G1 X111.955 Y66.629 E3.80958
G1 X111.141 Y66.276 E3.82172
G1 X110.374 Y65.823 E3.83392
G1 X109.729 Y65.322 E3.84509
G1 X109.965 Y64.941 F7800.000
G4 P29
G1 X109.375 Y64.350 E3.85652 F1800.000
G1 X108.863 Y63.690 E3.86795
G1 X108.438 Y62.971 E3.87937
G1 X108.106 Y62.205 E3.89080
G1 X107.873 Y61.403 E3.90223
G1 X107.742 Y60.578 E3.91366
G1 X107.716 Y59.743 E3.92509
G1 X107.794 Y58.916 E3.93646
G1 X107.977 Y58.097 E3.94794
G1 X108.260 Y57.311 E3.95937
G1 X108.639 Y56.567 E3.97080
G1 X109.108 Y55.876 E3.98223
G1 X109.661 Y55.250 E3.99366
G1 X110.287 Y54.697 E4.00509
G1 X110.978 Y54.228 E4.01652
G1 X111.722 Y53.849 E4.02794
G1 X112.508 Y53.566 E4.03937
G1 X113.327 Y53.383 E4.05086
G1 X114.154 Y53.305 E4.06223 F1800.000
G1 X114.989 Y53.331 E4.07366
G1 X115.814 Y53.462 E4.08509
G1 X116.616 Y53.695 E4.09652
G1 X117.383 Y54.027 E4.10794
G1 X118.101 Y54.452 E4.11937
G1 X118.761 Y54.964 E4.13080
G1 X119.352 Y55.554 E4.14223
G1 X119.864 Y56.214 E4.15366
G1 X120.289 Y56.933 E4.16509
G1 X120.621 Y57.699 E4.17652
G1 X120.854 Y58.501 E4.18794
G1 X120.984 Y59.326 E4.19937
G1 X121.010 Y60.161 E4.21080
G1 X120.932 Y60.993 E4.22223
G1 X120.750 Y61.808 E4.23366
G1 X120.467 Y62.593 E4.24509
G1 X120.088 Y63.338 E4.25652
G1 X119.618 Y64.028 E4.26794
G1 X119.066 Y64.655 E4.27937
G1 X118.439 Y65.207 E4.29080
G1 X117.749 Y65.677 E4.30223
G1 X117.004 Y66.056 E4.31366
G1 X116.219 Y66.339 E4.32509
G1 X115.404 Y66.521 E4.33652
G1 X114.572 Y66.599 E4.34794
G1 X113.737 Y66.573 E4.35937
G1 X112.912 Y66.442 E4.37080
G1 X112.107 Y66.208 E4.38229
G1 X111.344 Y65.878 E4.39366
G1 X110.625 Y65.453 E4.40509
G1 X110.024 Y64.987 E4.41549
G1 X109.488 Y65.090 F7800.000
G1 E2.41549 F1920.00000
G92 E0
G4 P29
G1 X101.953 Y51.581 F7800.000
G1 E2.00000 F1920.00000
G1 X101.953 Y50.919 E2.00906 F1800.000
G1 X101.447 Y50.737 E2.01642
G1 X100.876 Y50.349 E2.02586
G1 X100.420 Y49.832 E2.03530
G1 X100.122 Y49.247 E2.04428
G1 X99.954 Y48.544 E2.05417
G1 X99.987 Y47.822 E2.06406
G1 X100.171 Y47.192 E2.07304
G1 X100.522 Y46.598 E2.08248
G1 X101.009 Y46.111 E2.09192
G1 X101.603 Y45.759 E2.10136
