; generated by Slic3r 1.2.9 on 2016-04-05 at 21:24:45

; external perimeters extrusion width = 0.50mm
; perimeters extrusion width = 0.50mm
; infill extrusion width = 0.50mm
; solid infill extrusion width = 0.50mm
; top infill extrusion width = 0.50mm

M107
M190 S60 ; set bed temperature
M104 S210 ; set temperature
G28 ; home all axes
M109 S210 ; wait for temperature to be reached
G21 ; set units to millimeters
G90 ; use absolute coordinates
M82 ; use absolute distances for extrusion
G92 E0
G1 Z0.350 F7800.000
G1 E-2.00000 F1920.00000
G92 E0
G1 X62.608 Y44.725 F7800.000
G1 E2.00000 F1920.00000
M204 S3000
G1 X63.501 Y43.486 E2.01161 F1500.000
G1 X64.622 Y42.121 E2.02502
G1 X65.829 Y40.832 E2.03844
G1 X67.118 Y39.625 E2.05185
G1 X68.482 Y38.504 E2.06527
G1 X69.917 Y37.474 E2.07868
G1 X71.415 Y36.540 E2.09210
G1 X72.859 Y35.762 E2.10456
G1 X74.578 Y34.974 E2.11893
G1 X76.230 Y34.348 E2.13235
G1 X77.918 Y33.832 E2.14576
G1 X79.530 Y33.449 E2.15834
G1 X81.378 Y33.134 E2.17259
G1 X83.034 Y32.963 E2.18523
G1 X84.802 Y32.893 E2.19868
G1 X85.198 Y32.893 E2.20169
G1 X86.966 Y32.963 E2.21513 F1500.000
G1 X88.622 Y33.134 E2.22777
G1 X90.082 Y33.373 E2.23902
G1 X92.082 Y33.832 E2.25460
G1 X93.770 Y34.348 E2.26802
G1 X95.533 Y35.022 E2.28236
G1 X97.029 Y35.705 E2.29485
G1 X98.353 Y36.410 E2.30624
G1 X98.696 Y36.606 E2.30925
G1 X100.083 Y37.474 E2.32168
G1 X101.626 Y38.589 E2.33614
G1 X102.988 Y39.719 E2.34959
G1 X104.171 Y40.832 E2.36193
G1 X105.212 Y41.939 E2.37347
G1 X105.476 Y42.234 E2.37648
G1 X106.499 Y43.486 E2.38876
G1 X107.615 Y45.052 E2.40337
G1 X108.462 Y46.419 E2.41559
G1 X109.190 Y47.771 E2.42726
G1 X109.369 Y48.124 E2.43026
G1 X110.028 Y49.582 E2.44242
G1 X110.708 Y51.398 E2.45715
G1 X111.169 Y52.923 E2.46925
G1 X111.527 Y54.433 E2.48104
G1 X111.609 Y54.819 E2.48404
G1 X111.867 Y56.383 E2.49608
G1 X112.057 Y58.329 E2.51094
G1 X112.109 Y59.904 E2.52291
G1 X112.102 Y60.296 E2.52589
G1 X112.045 Y61.860 E2.53778
G1 X111.891 Y63.433 E2.54979
G1 X111.574 Y65.359 E2.56461
G1 X111.215 Y66.906 E2.57668
G1 X111.112 Y67.269 E2.57955
G1 X110.653 Y68.766 E2.59144
G1 X110.092 Y70.261 E2.60357
G1 X109.369 Y71.876 E2.61702
G1 X108.462 Y73.581 E2.63169
G1 X107.615 Y74.948 E2.64391
G1 X107.392 Y75.275 E2.64691
G1 X106.499 Y76.514 E2.65852
G1 X105.476 Y77.766 E2.67080
G1 X104.171 Y79.168 E2.68535
G1 X102.882 Y80.375 E2.69877
G1 X101.626 Y81.411 E2.71114
G1 X101.311 Y81.650 E2.71414
G1 X100.083 Y82.526 E2.72560
G1 X98.696 Y83.394 E2.73803
G1 X97.141 Y84.238 E2.75148
G1 X95.422 Y85.026 E2.76584
G1 X93.881 Y85.612 E2.77837
G1 X93.506 Y85.738 E2.78137
G1 X92.082 Y86.168 E2.79268
G1 X90.470 Y86.551 E2.80526
G1 X88.622 Y86.866 E2.81951
G1 X86.665 Y87.058 E2.83444
G1 X84.802 Y87.107 E2.84860
G1 X83.135 Y87.045 E2.86127
G1 X81.666 Y86.902 E2.87248
G1 X79.637 Y86.573 E2.88810
G1 X77.809 Y86.137 E2.90238
G1 X76.230 Y85.652 E2.91493
G1 X74.833 Y85.128 E2.92627
G1 X74.467 Y84.978 E2.92927
G1 X72.971 Y84.295 E2.94176
G1 X71.415 Y83.460 E2.95518
G1 X69.806 Y82.451 E2.96961
G1 X68.482 Y81.496 E2.98201
G1 X67.311 Y80.540 E2.99349
G1 X67.012 Y80.281 E2.99650
G1 X65.829 Y79.168 E3.00884
G1 X64.622 Y77.879 E3.02226
G1 X63.501 Y76.514 E3.03567
G1 X62.385 Y74.948 E3.05028
G1 X61.538 Y73.581 E3.06250
G1 X60.810 Y72.229 E3.07417
G1 X60.631 Y71.876 E3.07718
G1 X59.972 Y70.418 E3.08933
G1 X59.292 Y68.602 E3.10407
G1 X58.831 Y67.077 E3.11617
G1 X58.473 Y65.567 E3.12795
G1 X58.391 Y65.181 E3.13096
G1 X58.133 Y63.617 E3.14300
G1 X57.943 Y61.671 E3.15785
G1 X57.891 Y60.096 E3.16983
G1 X57.898 Y59.702 E3.17282
G1 X57.955 Y58.140 E3.18470
G1 X58.109 Y56.567 E3.19670
G1 X58.426 Y54.641 E3.21153
G1 X58.831 Y52.923 E3.22494
G1 X59.292 Y51.398 E3.23704
G1 X59.424 Y51.025 E3.24005
G1 X59.972 Y49.582 E3.25177
G1 X60.631 Y48.124 E3.26393
G1 X61.538 Y46.419 E3.27860
G1 X62.565 Y44.786 E3.29326
G1 X62.808 Y44.868 F7800.000
G4 P31
G1 X63.694 Y43.639 E3.30477 F1500.000
G1 X64.804 Y42.287 E3.31806
G1 X66.000 Y41.009 E3.33136
G1 X67.277 Y39.812 E3.34465
G1 X68.629 Y38.701 E3.35795
G1 X70.051 Y37.681 E3.37125
G1 X71.536 Y36.755 E3.38454
G1 X72.975 Y35.979 E3.39696
G1 X74.671 Y35.202 E3.41113
G1 X76.307 Y34.582 E3.42443
G1 X77.981 Y34.070 E3.43772
G1 X79.586 Y33.689 E3.45025
G1 X81.410 Y33.378 E3.46431
G1 X83.058 Y33.209 E3.47690
G1 X85.190 Y33.139 E3.49310
G1 X86.942 Y33.209 E3.50643 F1500.000
G1 X88.590 Y33.378 E3.51901
G1 X90.042 Y33.616 E3.53019
G1 X92.019 Y34.070 E3.54560
G1 X93.693 Y34.582 E3.55890
G1 X95.432 Y35.246 E3.57304
G1 X96.922 Y35.927 E3.58549
G1 X98.237 Y36.627 E3.59681
G1 X98.566 Y36.815 E3.59969
G1 X99.949 Y37.681 E3.61208
G1 X101.470 Y38.779 E3.62634
G1 X102.820 Y39.899 E3.63966
G1 X104.000 Y41.009 E3.65197
G1 X105.033 Y42.107 E3.66342
G1 X105.285 Y42.390 E3.66631
G1 X106.306 Y43.639 E3.67856
G1 X107.406 Y45.182 E3.69295
G1 X108.252 Y46.547 E3.70515
G1 X108.973 Y47.887 E3.71672
G1 X109.145 Y48.226 E3.71960
G1 X109.803 Y49.682 E3.73174
G1 X110.472 Y51.470 E3.74625
G1 X110.933 Y52.993 E3.75833
G1 X111.287 Y54.488 E3.77001
G1 X111.366 Y54.860 E3.77289
G1 X111.624 Y56.422 E3.78492
G1 X111.811 Y58.337 E3.79954
G1 X111.863 Y59.912 E3.81151
G1 X111.856 Y60.288 E3.81437
G1 X111.800 Y61.837 E3.82614
G1 X111.646 Y63.409 E3.83815
G1 X111.334 Y65.304 E3.85273
G1 X110.975 Y66.850 E3.86479
G1 X110.876 Y67.199 E3.86755
G1 X110.422 Y68.681 E3.87933
G1 X109.862 Y70.174 E3.89144
G1 X109.145 Y71.774 E3.90476
G1 X108.252 Y73.453 E3.91921
G1 X107.406 Y74.818 E3.93141
G1 X107.192 Y75.132 E3.93429
G1 X106.306 Y76.361 E3.94580
G1 X105.285 Y77.610 E3.95806
G1 X104.000 Y78.991 E3.97239
G1 X102.723 Y80.188 E3.98569
G1 X101.470 Y81.221 E3.99803
G1 X101.167 Y81.450 E4.00091
G1 X99.949 Y82.319 E4.01228
G1 X98.566 Y83.185 E4.02467
G1 X97.025 Y84.021 E4.03800
G1 X95.329 Y84.798 E4.05217
G1 X93.434 Y85.502 E4.06752
G1 X92.019 Y85.930 E4.07876
G1 X90.414 Y86.311 E4.09129
G1 X88.590 Y86.622 E4.10535
G1 X86.649 Y86.812 E4.12016
G1 X84.810 Y86.861 E4.13414
G1 X83.151 Y86.799 E4.14675
G1 X81.690 Y86.657 E4.15790
G1 X79.684 Y86.332 E4.17334
G1 X77.881 Y85.901 E4.18743
G1 X76.307 Y85.418 E4.19993
G1 X74.920 Y84.898 E4.21119
G1 X73.078 Y84.073 E4.22652
G1 X71.536 Y83.245 E4.23982
G1 X69.950 Y82.250 E4.25405
G1 X68.629 Y81.299 E4.26641
G1 X67.468 Y80.349 E4.27781
G1 X67.180 Y80.101 E4.28069
G1 X66.000 Y78.991 E4.29300
G1 X64.804 Y77.713 E4.30630
G1 X63.694 Y76.361 E4.31959
G1 X62.594 Y74.818 E4.33399
G1 X61.748 Y73.453 E4.34618
G1 X61.027 Y72.113 E4.35775
G1 X60.855 Y71.774 E4.36063
G1 X60.197 Y70.318 E4.37277
G1 X59.528 Y68.530 E4.38728
G1 X59.067 Y67.007 E4.39937
G1 X58.713 Y65.512 E4.41104
G1 X58.634 Y65.140 E4.41393
G1 X58.376 Y63.578 E4.42596
G1 X58.189 Y61.663 E4.44057
G1 X58.137 Y60.088 E4.45255
G1 X58.144 Y59.710 E4.45542
G1 X58.200 Y58.163 E4.46718
G1 X58.354 Y56.591 E4.47918
G1 X58.666 Y54.696 E4.49377
G1 X59.067 Y52.993 E4.50706
G1 X59.528 Y51.470 E4.51915
G1 X59.654 Y51.112 E4.52203
G1 X60.197 Y49.682 E4.53365
G1 X60.855 Y48.226 E4.54580
G1 X61.748 Y46.547 E4.56025
G1 X62.765 Y44.930 E4.57476
G1 X63.009 Y45.012 F7800.000
G4 P31
G1 X63.886 Y43.793 E4.58617 F1500.000
G1 X64.987 Y42.452 E4.59934
G1 X66.172 Y41.186 E4.61252
G1 X67.437 Y40.000 E4.62570
G1 X68.777 Y38.899 E4.63887
G1 X70.185 Y37.887 E4.65205
G1 X71.657 Y36.969 E4.66522
G1 X73.091 Y36.197 E4.67760
G1 X74.763 Y35.430 E4.69157
G1 X76.385 Y34.816 E4.70475
G1 X78.043 Y34.309 E4.71793
G1 X79.642 Y33.929 E4.73041
G1 X81.441 Y33.622 E4.74428
G1 X83.082 Y33.454 E4.75681
G1 X85.182 Y33.385 E4.77277
G1 X86.918 Y33.454 E4.78597 F1500.000
G1 X88.559 Y33.622 E4.79850
G1 X90.002 Y33.859 E4.80961
G1 X91.957 Y34.309 E4.82485
G1 X93.615 Y34.816 E4.83802
G1 X95.330 Y35.470 E4.85197
G1 X96.815 Y36.149 E4.86437
G1 X98.120 Y36.844 E4.87561
G1 X99.815 Y37.887 E4.89072
G1 X101.314 Y38.969 E4.90477
G1 X102.651 Y40.079 E4.91797
G1 X103.828 Y41.186 E4.93025
G1 X104.853 Y42.276 E4.94161
G1 X105.095 Y42.547 E4.94437
G1 X106.114 Y43.793 E4.95660
G1 X107.197 Y45.312 E4.97077
G1 X108.041 Y46.674 E4.98295
G1 X108.756 Y48.003 E4.99442
G1 X108.920 Y48.327 E4.99718
G1 X109.577 Y49.782 E5.00930
G1 X110.237 Y51.541 E5.02358
G1 X110.697 Y53.063 E5.03565
G1 X111.047 Y54.544 E5.04722
G1 X111.123 Y54.900 E5.04998
G1 X111.380 Y56.462 E5.06201
G1 X111.565 Y58.345 E5.07638
G1 X111.616 Y59.920 E5.08836
G1 X111.610 Y60.282 E5.09110
G1 X111.555 Y61.813 E5.10275
G1 X111.400 Y63.385 E5.11475
G1 X111.094 Y65.249 E5.12910
G1 X110.735 Y66.794 E5.14115
G1 X110.640 Y67.129 E5.14379
G1 X110.191 Y68.596 E5.15545
G1 X109.631 Y70.087 E5.16755
G1 X108.920 Y71.673 E5.18075
G1 X108.041 Y73.326 E5.19497
G1 X107.197 Y74.688 E5.20715
G1 X106.991 Y74.988 E5.20991
G1 X106.114 Y76.207 E5.22133
G1 X105.095 Y77.453 E5.23355
G1 X103.828 Y78.814 E5.24768
G1 X102.563 Y80.000 E5.26085
G1 X101.314 Y81.031 E5.27316
G1 X101.024 Y81.250 E5.27592
G1 X99.815 Y82.113 E5.28720
G1 X98.436 Y82.976 E5.29956
G1 X96.909 Y83.803 E5.31276
G1 X95.237 Y84.570 E5.32673
G1 X93.363 Y85.267 E5.34192
G1 X91.957 Y85.691 E5.35308
G1 X90.358 Y86.071 E5.36556
G1 X88.559 Y86.378 E5.37943
G1 X86.633 Y86.566 E5.39413
G1 X84.818 Y86.615 E5.40792
G1 X83.167 Y86.553 E5.42048
G1 X81.715 Y86.412 E5.43156
G1 X79.731 Y86.090 E5.44683
G1 X77.952 Y85.666 E5.46072
G1 X76.385 Y85.184 E5.47318
G1 X75.006 Y84.667 E5.48436
G1 X73.185 Y83.851 E5.49953
G1 X71.657 Y83.031 E5.51270
G1 X70.093 Y82.050 E5.52672
G1 X68.777 Y81.101 E5.53905
G1 X67.624 Y80.159 E5.55037
G1 X67.349 Y79.921 E5.55313
G1 X66.172 Y78.814 E5.56540
G1 X64.987 Y77.548 E5.57858
G1 X63.886 Y76.207 E5.59176
G1 X62.803 Y74.688 E5.60593
G1 X61.959 Y73.326 E5.61811
G1 X61.244 Y71.997 E5.62957
G1 X61.080 Y71.673 E5.63233
G1 X60.423 Y70.218 E5.64446
G1 X59.763 Y68.459 E5.65873
G1 X59.303 Y66.937 E5.67081
G1 X58.953 Y65.456 E5.68238
G1 X58.877 Y65.100 E5.68514
G1 X58.620 Y63.539 E5.69716
G1 X58.435 Y61.655 E5.71154
G1 X58.384 Y60.080 E5.72351
G1 X58.390 Y59.720 E5.72625
G1 X58.445 Y58.187 E5.73790
G1 X58.600 Y56.615 E5.74990
G1 X58.906 Y54.751 E5.76425
G1 X59.303 Y53.063 E5.77743
G1 X59.763 Y51.541 E5.78950
G1 X59.885 Y51.199 E5.79226
G1 X60.423 Y49.782 E5.80378
G1 X61.080 Y48.327 E5.81591
G1 X61.959 Y46.674 E5.83013
G1 X62.965 Y45.073 E5.84450
G1 X63.209 Y45.155 F7800.000
G4 P31
G1 X64.079 Y43.946 E5.85581 F1500.000
G1 X65.169 Y42.618 E5.86887
G1 X66.343 Y41.363 E5.88193
G1 X67.597 Y40.188 E5.89498
G1 X68.924 Y39.096 E5.90804
G1 X70.320 Y38.093 E5.92109
G1 X71.778 Y37.184 E5.93415
G1 X73.208 Y36.414 E5.94649
G1 X74.856 Y35.659 E5.96026
G1 X76.463 Y35.050 E5.97331
G1 X78.106 Y34.547 E5.98637
G1 X79.698 Y34.169 E5.99880
G1 X81.473 Y33.867 E6.01248
G1 X83.106 Y33.699 E6.02496
G1 X85.174 Y33.631 E6.04067
G1 X86.894 Y33.699 E6.05375 F1500.000
G1 X88.527 Y33.867 E6.06622
G1 X89.962 Y34.102 E6.07727
G1 X91.894 Y34.547 E6.09233
G1 X93.537 Y35.050 E6.10539
G1 X95.228 Y35.695 E6.11914
G1 X96.708 Y36.371 E6.13150
G1 X98.004 Y37.062 E6.14266
G1 X99.680 Y38.093 E6.15761
G1 X101.157 Y39.160 E6.17145
G1 X102.483 Y40.258 E6.18453
G1 X103.657 Y41.363 E6.19677
G1 X104.673 Y42.444 E6.20805
G1 X104.905 Y42.703 E6.21069
G1 X105.921 Y43.946 E6.22289
G1 X106.987 Y45.442 E6.23684
G1 X107.830 Y46.802 E6.24900
G1 X108.538 Y48.120 E6.26036
G1 X108.696 Y48.429 E6.26300
G1 X109.352 Y49.882 E6.27511
G1 X110.001 Y51.613 E6.28916
G1 X110.461 Y53.133 E6.30122
G1 X110.807 Y54.600 E6.31267
G1 X110.880 Y54.940 E6.31531
G1 X111.137 Y56.501 E6.32733
G1 X111.319 Y58.353 E6.34147
G1 X111.370 Y59.928 E6.35344
G1 X111.364 Y60.272 E6.35606
G1 X111.310 Y61.789 E6.36759
G1 X111.155 Y63.361 E6.37959
G1 X110.854 Y65.194 E6.39370
G1 X110.495 Y66.738 E6.40574
G1 X110.404 Y67.059 E6.40828
G1 X109.959 Y68.511 E6.41981
G1 X109.400 Y70.000 E6.43190
G1 X108.696 Y71.571 E6.44498
G1 X107.830 Y73.198 E6.45898
G1 X106.987 Y74.558 E6.47114
G1 X106.791 Y74.845 E6.47378
G1 X105.921 Y76.054 E6.48509
G1 X104.905 Y77.297 E6.49729
G1 X103.657 Y78.637 E6.51120
G1 X102.403 Y79.812 E6.52426
G1 X100.880 Y81.049 E6.53917
G1 X99.680 Y81.907 E6.55037
G1 X98.306 Y82.766 E6.56268
G1 X96.792 Y83.586 E6.57576
G1 X95.144 Y84.341 E6.58954
G1 X93.291 Y85.031 E6.60456
G1 X91.894 Y85.453 E6.61565
G1 X90.302 Y85.831 E6.62807
G1 X88.527 Y86.133 E6.64176
G1 X86.618 Y86.320 E6.65633
G1 X84.826 Y86.369 E6.66995
G1 X83.183 Y86.307 E6.68244
G1 X81.739 Y86.166 E6.69346
G1 X79.778 Y85.848 E6.70855
G1 X78.024 Y85.430 E6.72226
G1 X76.463 Y84.950 E6.73466
G1 X75.093 Y84.437 E6.74578
G1 X73.292 Y83.629 E6.76077
G1 X71.778 Y82.816 E6.77383
G1 X70.237 Y81.850 E6.78765
G1 X68.924 Y80.904 E6.79994
G1 X67.780 Y79.968 E6.81117
G1 X66.343 Y78.637 E6.82605
G1 X65.169 Y77.382 E6.83911
G1 X64.079 Y76.054 E6.85216
G1 X63.013 Y74.558 E6.86612
G1 X62.170 Y73.198 E6.87827
G1 X61.462 Y71.880 E6.88964
G1 X61.304 Y71.571 E6.89227
G1 X60.648 Y70.118 E6.90438
G1 X59.999 Y68.387 E6.91843
G1 X59.539 Y66.867 E6.93050
G1 X59.193 Y65.400 E6.94195
G1 X59.120 Y65.060 E6.94459
G1 X58.863 Y63.499 E6.95661
G1 X58.681 Y61.647 E6.97074
G1 X58.630 Y60.072 E6.98272
G1 X58.636 Y59.726 E6.98534
G1 X58.690 Y58.211 E6.99687
G1 X58.845 Y56.639 E7.00886
G1 X59.146 Y54.806 E7.02298
G1 X59.539 Y53.133 E7.03603
G1 X59.999 Y51.613 E7.04810
G1 X60.115 Y51.286 E7.05074
G1 X60.648 Y49.882 E7.06215
G1 X61.304 Y48.429 E7.07426
G1 X62.170 Y46.802 E7.08826
G1 X63.166 Y45.217 E7.10248
G1 E5.10248 F1920.00000
G92 E0
G1 X87.248 Y80.000 F7800.000
G1 E2.00000 F1920.00000
G1 X87.177 Y80.559 E2.00428 F1500.000
G1 X86.970 Y81.083 E2.00856
G1 X86.639 Y81.539 E2.01284
G1 X86.204 Y81.898 E2.01712
G1 X85.695 Y82.138 E2.02140
G1 X85.141 Y82.243 E2.02568
G1 X84.579 Y82.208 E2.02996
G1 X84.043 Y82.034 E2.03425
G1 X83.567 Y81.732 E2.03853
G1 X83.181 Y81.321 E2.04281
G1 X82.910 Y80.827 E2.04709
G1 X82.770 Y80.282 E2.05137
G1 X82.770 Y79.718 E2.05565
G1 X82.910 Y79.173 E2.05993
G1 X83.181 Y78.679 E2.06421
G1 X83.567 Y78.268 E2.06849
G1 X84.045 Y77.965 E2.07279
G1 X84.591 Y77.791 E2.07714
G1 X85.141 Y77.757 E2.08133 F1500.000
G1 X85.695 Y77.862 E2.08561
G1 X86.204 Y78.102 E2.08989
G1 X86.639 Y78.461 E2.09417
G1 X86.970 Y78.917 E2.09845
G1 X87.177 Y79.441 E2.10273
G1 X87.238 Y79.926 E2.10644
G1 X86.999 Y80.000 F7800.000
G1 X86.937 Y80.497 E2.11025 F1500.000
G1 X86.752 Y80.963 E2.11406
G1 X86.458 Y81.369 E2.11787
G1 X86.071 Y81.688 E2.12168
G1 X85.618 Y81.902 E2.12548
G1 X85.126 Y81.996 E2.12929
G1 X84.625 Y81.964 E2.13310
G1 X84.149 Y81.809 E2.13691
G1 X83.725 Y81.541 E2.14071
G1 X83.382 Y81.175 E2.14452
G1 X83.141 Y80.736 E2.14833
G1 X83.016 Y80.251 E2.15214
G1 X83.016 Y79.749 E2.15595
G1 X83.141 Y79.264 E2.15975
G1 X83.382 Y78.825 E2.16356
G1 X83.725 Y78.459 E2.16737
G1 X84.150 Y78.190 E2.17119
G1 X84.637 Y78.035 E2.17507
G1 X85.126 Y78.004 E2.17879 F1500.000
G1 X85.618 Y78.098 E2.18260
G1 X86.071 Y78.312 E2.18641
G1 X86.458 Y78.631 E2.19021
G1 X86.752 Y79.037 E2.19402
G1 X86.937 Y79.503 E2.19783
G1 X86.990 Y79.926 E2.20107
G1 X86.751 Y80.000 F7800.000
G1 X86.696 Y80.436 E2.20440 F1500.000
G1 X86.535 Y80.844 E2.20774
G1 X86.277 Y81.199 E2.21107
G1 X85.938 Y81.479 E2.21441
G1 X85.541 Y81.665 E2.21774
G1 X85.110 Y81.748 E2.22108
G1 X84.672 Y81.720 E2.22441
G1 X84.254 Y81.585 E2.22775
G1 X83.884 Y81.349 E2.23108
G1 X83.583 Y81.029 E2.23442
G1 X83.372 Y80.645 E2.23775
G1 X83.263 Y80.219 E2.24109
G1 X83.263 Y79.781 E2.24442
G1 X83.372 Y79.355 E2.24776
G1 X83.583 Y78.971 E2.25109
G1 X83.884 Y78.651 E2.25443
G1 X84.255 Y78.415 E2.25777
G1 X84.682 Y78.279 E2.26117
G1 X85.110 Y78.252 E2.26443 F1500.000
G1 X85.541 Y78.335 E2.26776
G1 X85.938 Y78.521 E2.27110
G1 X86.277 Y78.801 E2.27443
G1 X86.535 Y79.156 E2.27777
G1 X86.696 Y79.564 E2.28110
G1 X86.742 Y79.926 E2.28387
G1 X87.122 Y80.235 F7800.000
G1 E0.28387 F1920.00000
G92 E0
G1 X103.566 Y61.731 F7800.000
G1 E2.00000 F1920.00000
G1 X103.176 Y61.311 E2.00435 F1500.000
G1 X102.910 Y60.827 E2.00854
G1 X102.769 Y60.280 E2.01284
G1 X102.773 Y59.707 E2.01719
G1 X102.910 Y59.173 E2.02138
G1 X103.181 Y58.679 E2.02566
G1 X103.567 Y58.268 E2.02994
G1 X104.045 Y57.965 E2.03424
G1 X104.591 Y57.791 E2.03860
G1 X105.141 Y57.757 E2.04278 F1500.000
G1 X105.695 Y57.862 E2.04707
G1 X106.204 Y58.102 E2.05135
G1 X106.640 Y58.463 E2.05564
G1 X106.974 Y58.928 E2.06000
G1 X107.177 Y59.441 E2.06419
