; generated by Slic3r 1.2.9 on 2016-04-05 at 20:30:20

; external perimeters extrusion width = 0.50mm
; perimeters extrusion width = 0.50mm
; infill extrusion width = 0.50mm
; solid infill extrusion width = 0.50mm
; top infill extrusion width = 0.50mm

M107
M190 S60 ; set bed temperature
M104 S210 ; set temperature
G28 ; home all axes
M109 S210 ; wait for temperature to be reached
G21 ; set units to millimeters
G90 ; use absolute coordinates
M82 ; use absolute distances for extrusion
G92 E0
G1 Z0.350 F7800.000
G1 E-2.00000 F1920.00000
G92 E0
G1 X28.079 Y32.240 F7800.000
G1 E2.00000 F1920.00000
M204 S3000
G1 X29.052 Y31.399 E2.00977 F1500.000
G1 X30.663 Y30.151 E2.02526
G1 X32.203 Y29.083 E2.03949
G1 X33.937 Y28.012 E2.05498
G1 X35.727 Y27.038 E2.07046
G1 X37.568 Y26.164 E2.08595
G1 X39.609 Y25.335 E2.10268
G1 X41.538 Y24.677 E2.11817
G1 X43.501 Y24.127 E2.13365
G1 X45.329 Y23.717 E2.14788
G1 X47.339 Y23.378 E2.16337
G1 X49.528 Y23.135 E2.18010
G1 X51.563 Y23.028 E2.19559
G1 X53.601 Y23.032 E2.21107
G1 X55.636 Y23.149 E2.22656 F1500.000
G1 X57.568 Y23.364 E2.24133
G1 X130.138 Y33.136 E2.79763
G1 X131.970 Y33.449 E2.81175
G1 X133.582 Y33.832 E2.82434
G1 X135.006 Y34.262 E2.83564
G1 X135.381 Y34.388 E2.83865
G1 X136.922 Y34.974 E2.85117
G1 X138.529 Y35.705 E2.86458
G1 X140.085 Y36.540 E2.87800
G1 X141.363 Y37.332 E2.88942
G1 X141.694 Y37.549 E2.89243
G1 X143.018 Y38.504 E2.90483
G1 X144.382 Y39.625 E2.91825
G1 X145.491 Y40.658 E2.92976
G1 X145.773 Y40.936 E2.93277
G1 X146.878 Y42.121 E2.94508
G1 X148.092 Y43.608 E2.95966
G1 X149.028 Y44.920 E2.97191
G1 X149.962 Y46.419 E2.98532
G1 X150.869 Y48.124 E3.00000
G1 X151.528 Y49.582 E3.01216
G1 X152.153 Y51.234 E3.02557
G1 X152.715 Y53.094 E3.04033
G1 X153.074 Y54.641 E3.05240
G1 X153.367 Y56.383 E3.06582
G1 X153.545 Y58.140 E3.07923
G1 X153.602 Y59.702 E3.09111
G1 X153.609 Y60.096 E3.09410
G1 X153.545 Y61.860 E3.10752
G1 X153.367 Y63.617 E3.12093
G1 X153.109 Y65.181 E3.13297
G1 X152.669 Y67.077 E3.14776
G1 X152.153 Y68.766 E3.16118
G1 X151.592 Y70.261 E3.17331
G1 X150.797 Y72.025 E3.18801
G1 X149.962 Y73.581 E3.20142
G1 X149.028 Y75.080 E3.21484
G1 X147.999 Y76.514 E3.22826
G1 X146.976 Y77.766 E3.24054
G1 X145.773 Y79.064 E3.25398
G1 X145.491 Y79.342 E3.25699
G1 X144.382 Y80.375 E3.26850
G1 X143.018 Y81.496 E3.28192
G1 X141.583 Y82.526 E3.29533
G1 X140.196 Y83.394 E3.30776
G1 X138.641 Y84.238 E3.32121
G1 X138.285 Y84.411 E3.32422
G1 X136.922 Y85.026 E3.33558
G1 X135.270 Y85.652 E3.34900
G1 X133.582 Y86.168 E3.36241
G1 X131.863 Y86.573 E3.37583
G1 X130.138 Y86.864 E3.38911
G1 X57.568 Y96.636 E3.94542
G1 X55.636 Y96.851 E3.96019
G1 X53.437 Y96.972 E3.97693
G1 X51.399 Y96.968 E3.99241
G1 X49.364 Y96.851 E4.00790
G1 X47.339 Y96.622 E4.02338
G1 X45.329 Y96.283 E4.03886
G1 X43.341 Y95.832 E4.05435
G1 X41.381 Y95.273 E4.06983
G1 X39.455 Y94.607 E4.08532
G1 X37.568 Y93.836 E4.10080
G1 X35.874 Y93.036 E4.11504
G1 X34.079 Y92.071 E4.13052
G1 X32.340 Y91.007 E4.14601
G1 X30.663 Y89.849 E4.16149
G1 X28.925 Y88.497 E4.17822
G1 X27.512 Y87.266 E4.19246
G1 X26.048 Y85.848 E4.20794
G1 X24.664 Y84.352 E4.22343
G1 X23.365 Y82.781 E4.23891
G1 X22.060 Y81.006 E4.25564
G1 X20.949 Y79.298 E4.27113
G1 X19.934 Y77.530 E4.28662
G1 X19.088 Y75.858 E4.30085
G1 X18.265 Y73.994 E4.31633
G1 X17.546 Y72.087 E4.33182
G1 X16.934 Y70.143 E4.34730
G1 X16.393 Y68.007 E4.36404
G1 X16.007 Y66.006 E4.37952
G1 X15.749 Y64.150 E4.39376
G1 X15.576 Y62.120 E4.40924
G1 X15.516 Y60.082 E4.42473
G1 X15.567 Y58.045 E4.44021
G1 X15.731 Y56.013 E4.45569
G1 X16.034 Y53.831 E4.47243
G1 X16.429 Y51.832 E4.48791
G1 X16.889 Y50.016 E4.50215
G1 X17.493 Y48.069 E4.51763
G1 X18.203 Y46.159 E4.53312
G1 X19.088 Y44.142 E4.54985
G1 X19.934 Y42.470 E4.56408
G1 X20.949 Y40.702 E4.57957
G1 X22.060 Y38.994 E4.59505
G1 X23.264 Y37.349 E4.61054
G1 X24.664 Y35.648 E4.62727
G1 X26.048 Y34.152 E4.64276
G1 X27.391 Y32.846 E4.65699
G1 X28.022 Y32.290 E4.66338
G1 X28.240 Y32.426 F7800.000
G4 P31
G1 X29.203 Y31.593 E4.67305 F1500.000
G1 X30.803 Y30.353 E4.68843
G1 X32.343 Y29.285 E4.70267
G1 X34.066 Y28.222 E4.71805
G1 X35.844 Y27.254 E4.73343
G1 X37.673 Y26.387 E4.74881
G1 X39.689 Y25.568 E4.76534
G1 X41.605 Y24.914 E4.78072
G1 X43.554 Y24.368 E4.79610
G1 X45.383 Y23.958 E4.81034
G1 X47.379 Y23.621 E4.82572
G1 X49.541 Y23.381 E4.84225
G1 X51.563 Y23.274 E4.85763
G1 X53.588 Y23.278 E4.87301
G1 X55.609 Y23.394 E4.88839 F1500.000
G1 X57.536 Y23.608 E4.90312
G1 X130.105 Y33.380 E5.45943
G1 X131.914 Y33.689 E5.47337
G1 X133.519 Y34.070 E5.48590
G1 X134.934 Y34.498 E5.49713
G1 X136.829 Y35.202 E5.51249
G1 X138.422 Y35.927 E5.52578
G1 X139.964 Y36.755 E5.53908
G1 X141.233 Y37.541 E5.55042
G1 X141.550 Y37.750 E5.55331
G1 X142.871 Y38.701 E5.56567
G1 X144.223 Y39.812 E5.57897
G1 X145.323 Y40.838 E5.59039
G1 X145.593 Y41.104 E5.59328
G1 X146.696 Y42.287 E5.60556
G1 X147.891 Y43.751 E5.61992
G1 X148.826 Y45.061 E5.63215
G1 X149.752 Y46.547 E5.64544
G1 X150.645 Y48.226 E5.65989
G1 X151.303 Y49.682 E5.67204
G1 X151.922 Y51.319 E5.68533
G1 X152.475 Y53.150 E5.69986
G1 X152.834 Y54.696 E5.71192
G1 X153.124 Y56.422 E5.72522
G1 X153.300 Y58.163 E5.73851
G1 X153.356 Y59.712 E5.75029
G1 X153.363 Y60.088 E5.75314
G1 X153.300 Y61.837 E5.76644
G1 X153.124 Y63.578 E5.77973
G1 X152.866 Y65.140 E5.79176
G1 X152.433 Y67.007 E5.80632
G1 X151.922 Y68.681 E5.81962
G1 X151.362 Y70.174 E5.83173
G1 X150.578 Y71.911 E5.84621
G1 X149.752 Y73.453 E5.85951
G1 X148.826 Y74.939 E5.87280
G1 X147.806 Y76.361 E5.88610
G1 X146.785 Y77.610 E5.89835
G1 X145.593 Y78.896 E5.91167
G1 X145.323 Y79.162 E5.91456
G1 X144.223 Y80.188 E5.92598
G1 X142.871 Y81.299 E5.93928
G1 X141.449 Y82.319 E5.95257
G1 X140.066 Y83.185 E5.96497
G1 X138.525 Y84.021 E5.97829
G1 X138.183 Y84.187 E5.98117
G1 X136.829 Y84.798 E5.99246
G1 X135.193 Y85.418 E6.00576
G1 X133.519 Y85.930 E6.01905
G1 X131.816 Y86.332 E6.03235
G1 X130.105 Y86.620 E6.04553
G1 X57.536 Y96.392 E6.60183
G1 X55.609 Y96.606 E6.61656
G1 X53.437 Y96.726 E6.63309
G1 X51.412 Y96.722 E6.64847
G1 X49.391 Y96.606 E6.66385
G1 X47.379 Y96.379 E6.67923
G1 X45.383 Y96.042 E6.69461
G1 X43.408 Y95.595 E6.70999
G1 X41.461 Y95.040 E6.72538
G1 X39.548 Y94.379 E6.74076
G1 X37.673 Y93.613 E6.75614
G1 X35.979 Y92.814 E6.77037
G1 X34.196 Y91.854 E6.78575
G1 X32.469 Y90.797 E6.80114
G1 X30.682 Y89.558 E6.81766
G1 X29.087 Y88.311 E6.83305
G1 X27.674 Y87.080 E6.84728
G1 X26.219 Y85.671 E6.86266
G1 X24.845 Y84.185 E6.87804
G1 X23.555 Y82.624 E6.89342
G1 X22.267 Y80.872 E6.90995
G1 X21.163 Y79.174 E6.92533
G1 X20.154 Y77.419 E6.94072
G1 X19.308 Y75.747 E6.95495
G1 X18.491 Y73.895 E6.97033
G1 X17.777 Y72.000 E6.98571
G1 X17.128 Y69.924 E7.00224
G1 X16.635 Y67.960 E7.01762
G1 X16.251 Y65.972 E7.03300
G1 X15.993 Y64.116 E7.04724
G1 X15.822 Y62.099 E7.06262
G1 X15.762 Y60.075 E7.07800
G1 X15.814 Y58.052 E7.09338
G1 X15.977 Y56.033 E7.10876
G1 X16.275 Y53.879 E7.12529
G1 X16.668 Y51.892 E7.14067
G1 X17.169 Y49.931 E7.15605
G1 X17.728 Y48.143 E7.17029
G1 X18.434 Y46.245 E7.18567
G1 X19.308 Y44.253 E7.20220
G1 X20.154 Y42.581 E7.21643
G1 X21.163 Y40.826 E7.23181
G1 X22.267 Y39.128 E7.24720
G1 X23.555 Y37.376 E7.26372
G1 X24.845 Y35.815 E7.27910
G1 X26.219 Y34.329 E7.29448
G1 X27.562 Y33.022 E7.30872
G1 X28.184 Y32.475 E7.31501
G1 X28.402 Y32.612 F7800.000
G4 P31
G1 X29.354 Y31.788 E7.32458 F1500.000
G1 X30.944 Y30.556 E7.33985
G1 X32.483 Y29.488 E7.35409
G1 X34.195 Y28.432 E7.36937
G1 X35.962 Y27.471 E7.38465
G1 X37.779 Y26.609 E7.39992
G1 X39.769 Y25.801 E7.41624
G1 X41.672 Y25.152 E7.43152
G1 X43.608 Y24.608 E7.44680
G1 X45.572 Y24.172 E7.46208
G1 X47.420 Y23.864 E7.47631
G1 X49.555 Y23.627 E7.49263
G1 X51.563 Y23.520 E7.50791
G1 X53.574 Y23.524 E7.52319
G1 X55.582 Y23.639 E7.53847 F1500.000
G1 X57.503 Y23.852 E7.55315
G1 X130.072 Y33.624 E8.10946
G1 X131.858 Y33.929 E8.12322
G1 X133.457 Y34.309 E8.13570
G1 X134.863 Y34.733 E8.14686
G1 X136.737 Y35.430 E8.16205
G1 X138.315 Y36.149 E8.17523
G1 X139.843 Y36.969 E8.18840
G1 X141.103 Y37.750 E8.19967
G1 X142.723 Y38.899 E8.21475
G1 X144.063 Y40.000 E8.22793
G1 X145.154 Y41.018 E8.23927
G1 X145.413 Y41.273 E8.24203
G1 X146.513 Y42.452 E8.25428
G1 X147.691 Y43.895 E8.26843
G1 X148.624 Y45.202 E8.28063
G1 X149.541 Y46.674 E8.29381
G1 X150.420 Y48.327 E8.30803
G1 X151.077 Y49.782 E8.32016
G1 X151.691 Y51.404 E8.33334
G1 X152.235 Y53.206 E8.34764
G1 X152.594 Y54.751 E8.35969
G1 X152.880 Y56.461 E8.37286
G1 X153.055 Y58.187 E8.38604
G1 X153.110 Y59.718 E8.39768
G1 X153.116 Y60.080 E8.40043
G1 X153.055 Y61.813 E8.41360
G1 X152.880 Y63.539 E8.42678
G1 X152.623 Y65.100 E8.43880
G1 X152.197 Y66.937 E8.45313
G1 X151.691 Y68.596 E8.46630
G1 X151.131 Y70.087 E8.47840
G1 X150.360 Y71.797 E8.49265
G1 X149.541 Y73.326 E8.50583
G1 X148.624 Y74.798 E8.51901
G1 X147.614 Y76.207 E8.53218
G1 X146.595 Y77.453 E8.54441
G1 X145.413 Y78.727 E8.55761
G1 X145.154 Y78.982 E8.56037
G1 X144.063 Y80.000 E8.57171
G1 X142.723 Y81.101 E8.58488
G1 X141.315 Y82.113 E8.59806
G1 X139.936 Y82.976 E8.61041
G1 X138.409 Y83.803 E8.62361
G1 X138.082 Y83.962 E8.62638
G1 X136.737 Y84.570 E8.63759
G1 X135.115 Y85.184 E8.65076
G1 X133.457 Y85.691 E8.66394
G1 X131.769 Y86.090 E8.67711
G1 X130.072 Y86.376 E8.69018
G1 X57.503 Y96.148 E9.24649
G1 X55.582 Y96.361 E9.26117
G1 X53.437 Y96.480 E9.27749
G1 X51.426 Y96.476 E9.29277
G1 X49.418 Y96.361 E9.30805
G1 X47.420 Y96.136 E9.32333
G1 X45.437 Y95.802 E9.33861
G1 X43.475 Y95.358 E9.35388
G1 X41.541 Y94.807 E9.36916
G1 X39.640 Y94.151 E9.38444
G1 X37.779 Y93.391 E9.39972
G1 X36.084 Y92.591 E9.41396
G1 X34.314 Y91.637 E9.42923
G1 X32.598 Y90.587 E9.44451
G1 X30.944 Y89.444 E9.45979
G1 X29.248 Y88.125 E9.47611
G1 X27.835 Y86.894 E9.49035
G1 X26.391 Y85.495 E9.50562
G1 X25.026 Y84.018 E9.52090
G1 X23.745 Y82.468 E9.53618
G1 X22.473 Y80.737 E9.55250
G1 X21.376 Y79.051 E9.56778
G1 X20.374 Y77.308 E9.58306
G1 X19.528 Y75.636 E9.59729
G1 X18.716 Y73.796 E9.61257
G1 X18.008 Y71.914 E9.62785
G1 X17.404 Y69.996 E9.64313
G1 X16.876 Y67.913 E9.65945
G1 X16.495 Y65.939 E9.67473
G1 X16.237 Y64.083 E9.68896
G1 X16.067 Y62.079 E9.70424
G1 X16.008 Y60.069 E9.71952
G1 X16.060 Y58.058 E9.73480
G1 X16.222 Y56.054 E9.75008
G1 X16.517 Y53.926 E9.76640
G1 X16.906 Y51.953 E9.78168
G1 X17.366 Y50.137 E9.79591
G1 X17.963 Y48.216 E9.81119
G1 X18.665 Y46.331 E9.82647
G1 X19.528 Y44.364 E9.84279
G1 X20.374 Y42.692 E9.85702
G1 X21.376 Y40.949 E9.87230
G1 X22.473 Y39.263 E9.88758
G1 X23.745 Y37.532 E9.90390
G1 X25.026 Y35.982 E9.91918
G1 X26.391 Y34.505 E9.93446
G1 X27.734 Y33.199 E9.94869
G1 X28.346 Y32.661 E9.95488
G1 X28.564 Y32.798 F7800.000
G4 P31
G1 X29.506 Y31.982 E9.96434 F1500.000
G1 X31.084 Y30.758 E9.97952
G1 X32.624 Y29.690 E9.99375
G1 X34.324 Y28.641 E10.00893
G1 X36.079 Y27.688 E10.02410
G1 X37.884 Y26.832 E10.03928
G1 X39.849 Y26.034 E10.05539
G1 X41.739 Y25.389 E10.07057
G1 X43.662 Y24.848 E10.08574
G1 X45.491 Y24.439 E10.09998
G1 X47.460 Y24.107 E10.11515
G1 X49.569 Y23.873 E10.13127
G1 X51.563 Y23.767 E10.14644
G1 X53.561 Y23.770 E10.16162
G1 X55.555 Y23.883 E10.17679 F1500.000
G1 X57.470 Y24.096 E10.19143
G1 X130.040 Y33.868 E10.74774
G1 X131.802 Y34.169 E10.76132
G1 X133.394 Y34.547 E10.77375
G1 X134.791 Y34.969 E10.78484
G1 X136.644 Y35.659 E10.79986
G1 X138.208 Y36.371 E10.81292
G1 X139.722 Y37.184 E10.82597
G1 X140.973 Y37.959 E10.83715
G1 X142.576 Y39.096 E10.85208
G1 X143.903 Y40.188 E10.86514
G1 X144.986 Y41.198 E10.87639
G1 X145.234 Y41.441 E10.87903
G1 X146.331 Y42.618 E10.89125
G1 X147.491 Y44.038 E10.90518
G1 X148.422 Y45.343 E10.91736
G1 X149.330 Y46.802 E10.93042
G1 X150.196 Y48.429 E10.94442
G1 X150.852 Y49.882 E10.95653
G1 X151.459 Y51.489 E10.96958
G1 X151.995 Y53.262 E10.98365
G1 X152.354 Y54.806 E10.99570
G1 X152.637 Y56.501 E11.00875
G1 X152.810 Y58.211 E11.02181
G1 X152.864 Y59.726 E11.03333
G1 X152.870 Y60.072 E11.03596
G1 X152.810 Y61.789 E11.04901
G1 X152.637 Y63.499 E11.06207
G1 X152.380 Y65.060 E11.07409
G1 X151.961 Y66.867 E11.08818
G1 X151.459 Y68.511 E11.10123
G1 X150.900 Y70.000 E11.11332
G1 X150.141 Y71.683 E11.12734
G1 X149.330 Y73.198 E11.14040
G1 X148.487 Y74.558 E11.15256
G1 X147.491 Y75.962 E11.16563
G1 X147.276 Y76.235 E11.16827
G1 X146.331 Y77.382 E11.17957
G1 X145.157 Y78.637 E11.19262
G1 X143.903 Y79.812 E11.20568
G1 X142.576 Y80.904 E11.21874
G1 X141.180 Y81.907 E11.23179
G1 X139.806 Y82.766 E11.24411
G1 X138.292 Y83.586 E11.25718
G1 X137.980 Y83.738 E11.25982
G1 X136.644 Y84.341 E11.27096
G1 X135.037 Y84.950 E11.28401
G1 X133.394 Y85.453 E11.29707
G1 X131.722 Y85.848 E11.31012
G1 X130.040 Y86.132 E11.32308
G1 X57.470 Y95.904 E11.87939
G1 X55.555 Y96.117 E11.89403
G1 X53.437 Y96.233 E11.91015
G1 X51.439 Y96.230 E11.92532
G1 X49.445 Y96.117 E11.94050
G1 X47.460 Y95.893 E11.95567
G1 X45.491 Y95.561 E11.97085
G1 X43.542 Y95.121 E11.98602
G1 X41.621 Y94.574 E12.00120
G1 X39.733 Y93.923 E12.01637
G1 X37.884 Y93.168 E12.03155
G1 X36.189 Y92.368 E12.04578
G1 X34.431 Y91.421 E12.06096
G1 X32.727 Y90.377 E12.07613
G1 X30.984 Y89.169 E12.09225
G1 X29.410 Y87.939 E12.10742
G1 X27.997 Y86.709 E12.12166
G1 X26.563 Y85.318 E12.13683
G1 X25.208 Y83.851 E12.15201
G1 X23.935 Y82.311 E12.16718
G1 X22.679 Y80.602 E12.18330
G1 X21.589 Y78.928 E12.19847
G1 X20.594 Y77.196 E12.21365
G1 X19.695 Y75.413 E12.22882
G1 X18.942 Y73.697 E12.24306
G1 X18.238 Y71.827 E12.25823
G1 X17.639 Y69.922 E12.27341
G1 X17.118 Y67.866 E12.28952
G1 X16.739 Y65.905 E12.30470
G1 X16.481 Y64.049 E12.31893
G1 X16.313 Y62.059 E12.33411
G1 X16.255 Y60.062 E12.34928
G1 X16.306 Y58.065 E12.36446
G1 X16.468 Y56.074 E12.37963
G1 X16.759 Y53.973 E12.39575
G1 X17.145 Y52.013 E12.41092
G1 X17.605 Y50.197 E12.42516
G1 X18.198 Y48.290 E12.44033
G1 X18.895 Y46.418 E12.45551
G1 X19.748 Y44.475 E12.47162
G1 X20.594 Y42.804 E12.48586
G1 X21.589 Y41.072 E12.50103
G1 X22.679 Y39.398 E12.51621
G1 X23.935 Y37.689 E12.53232
G1 X25.208 Y36.149 E12.54750
G1 X26.563 Y34.682 E12.56267
G1 X27.906 Y33.375 E12.57691
G1 X28.507 Y32.847 E12.58299
G1 E10.58299 F1920.00000
G92 E0
G1 X127.195 Y77.862 F7800.000
G1 E2.00000 F1920.00000
G1 X127.704 Y78.102 E2.00428 F1500.000
G1 X128.139 Y78.461 E2.00856
G1 X128.470 Y78.917 E2.01284
G1 X128.677 Y79.441 E2.01712
G1 X128.748 Y80.000 E2.02140
G1 X128.677 Y80.559 E2.02568
G1 X128.470 Y81.083 E2.02996
G1 X128.139 Y81.539 E2.03425
G1 X127.704 Y81.898 E2.03853
G1 X127.195 Y82.138 E2.04281
G1 X126.641 Y82.243 E2.04709
G1 X126.079 Y82.208 E2.05137
G1 X125.543 Y82.034 E2.05565
G1 X125.067 Y81.732 E2.05993
G1 X124.681 Y81.321 E2.06421
G1 X124.410 Y80.827 E2.06849
G1 X124.270 Y80.282 E2.07277
G1 X124.270 Y79.718 E2.07705
G1 X124.410 Y79.173 E2.08133
G1 X124.681 Y78.679 E2.08561
G1 X125.067 Y78.268 E2.08989
G1 X125.545 Y77.965 E2.09419
G1 X126.091 Y77.791 E2.09854
G1 X126.641 Y77.757 E2.10273 F1500.000
G1 X127.121 Y77.848 E2.10644
G1 X127.118 Y78.098 F7800.000
G4 P31
G1 X127.571 Y78.312 E2.11025 F1500.000
G1 X127.958 Y78.631 E2.11406
G1 X128.252 Y79.037 E2.11787
G1 X128.437 Y79.503 E2.12168
G1 X128.499 Y80.000 E2.12548
G1 X128.437 Y80.497 E2.12929
G1 X128.252 Y80.963 E2.13310
G1 X127.958 Y81.369 E2.13691
G1 X127.571 Y81.688 E2.14071
G1 X127.118 Y81.902 E2.14452
G1 X126.626 Y81.996 E2.14833
G1 X126.125 Y81.964 E2.15214
G1 X125.649 Y81.809 E2.15595
G1 X125.225 Y81.541 E2.15975
G1 X124.882 Y81.175 E2.16356
G1 X124.641 Y80.736 E2.16737
G1 X124.516 Y80.251 E2.17118
G1 X124.516 Y79.749 E2.17499
G1 X124.641 Y79.264 E2.17879
G1 X124.882 Y78.825 E2.18260
G1 X125.225 Y78.459 E2.18641
G1 X125.650 Y78.190 E2.19023
G1 X126.137 Y78.035 E2.19411
G1 X126.626 Y78.004 E2.19783 F1500.000
G1 X127.044 Y78.084 E2.20107
G1 X127.041 Y78.335 F7800.000
G4 P31
G1 X127.438 Y78.521 E2.20440 F1500.000
G1 X127.777 Y78.801 E2.20774
G1 X128.035 Y79.156 E2.21107
G1 X128.196 Y79.564 E2.21441
G1 X128.251 Y80.000 E2.21774
G1 X128.196 Y80.436 E2.22108
G1 X128.035 Y80.844 E2.22441
G1 X127.777 Y81.199 E2.22775
G1 X127.438 Y81.479 E2.23108
G1 X127.041 Y81.665 E2.23442
G1 X126.610 Y81.748 E2.23775
G1 X126.172 Y81.720 E2.24109
G1 X125.754 Y81.585 E2.24442
G1 X125.384 Y81.349 E2.24776
G1 X125.083 Y81.029 E2.25109
G1 X124.872 Y80.645 E2.25443
