; generated by Slic3r 1.2.9 on 2016-04-10 at 16:00:42

; external perimeters extrusion width = 0.50mm
; perimeters extrusion width = 0.50mm
; infill extrusion width = 0.50mm
; solid infill extrusion width = 0.50mm
; top infill extrusion width = 0.50mm

M107
M190 S70 ; set bed temperature
M104 S220 ; set temperature
G28 ; home all axes
M109 S220 ; wait for temperature to be reached
G21 ; set units to millimeters
G90 ; use absolute coordinates
M82 ; use absolute distances for extrusion
G92 E0
G1 Z0.350 F7800.000
G1 E-2.00000 F1920.00000
G92 E0
G1 X53.345 Y30.705 F7800.000
G1 E2.00000 F1920.00000
M204 S3000
G1 X53.619 Y30.313 E2.00655 F1800.000
G1 X54.168 Y29.618 E2.01866
G1 X54.901 Y28.935 E2.03238
G1 X55.314 Y28.618 E2.03951
G1 X56.319 Y28.013 E2.05555
G1 X56.979 Y27.735 E2.06536
G1 X57.779 Y27.477 E2.07686
G1 X58.302 Y27.381 E2.08413
G1 X59.098 Y27.284 E2.09511
G1 X59.500 Y27.268 E2.10061
G1 X110.500 Y27.268 E2.79850
G1 X111.183 Y27.313 E2.80786
G1 X111.977 Y27.425 E2.81883 F1800.000
G1 X113.022 Y27.735 E2.83375
G1 X113.499 Y27.933 E2.84082
G1 X114.131 Y28.246 E2.85048
G1 X114.688 Y28.619 E2.85965
G1 X115.097 Y28.934 E2.86671
G1 X115.744 Y29.522 E2.87867
G1 X116.381 Y30.313 E2.89257
G1 X116.793 Y30.937 E2.90280
G1 X117.067 Y31.500 E2.91137
G1 X117.402 Y32.349 E2.92386
G1 X117.585 Y33.078 E2.93414
G1 X117.687 Y33.814 E2.94431
G1 X117.732 Y34.500 E2.95372
G1 X117.732 Y85.500 E3.65160
G1 X117.687 Y86.186 E3.66101
G1 X117.585 Y86.923 E3.67119
G1 X117.402 Y87.650 E3.68145
G1 X117.264 Y88.023 E3.68689
G1 X117.067 Y88.500 E3.69395
G1 X116.792 Y89.064 E3.70254
G1 X116.381 Y89.687 E3.71275
G1 X115.744 Y90.478 E3.72666
G1 X115.097 Y91.066 E3.73862
G1 X114.688 Y91.381 E3.74568
G1 X114.131 Y91.754 E3.75486
G1 X113.499 Y92.067 E3.76450
G1 X113.022 Y92.265 E3.77157
G1 X111.976 Y92.575 E3.78650
G1 X111.183 Y92.687 E3.79746
G1 X110.500 Y92.732 E3.80682
G1 X59.500 Y92.732 E4.50471
G1 X58.817 Y92.687 E4.51407
G1 X58.024 Y92.575 E4.52503
G1 X56.978 Y92.265 E4.53996
G1 X56.501 Y92.067 E4.54703
G1 X55.869 Y91.754 E4.55668
G1 X55.312 Y91.381 E4.56586
G1 X54.903 Y91.066 E4.57292
G1 X54.253 Y90.475 E4.58495
G1 X53.619 Y89.687 E4.59879
G1 X53.206 Y89.061 E4.60904
G1 X52.933 Y88.500 E4.61759
G1 X52.736 Y88.023 E4.62464
G1 X52.598 Y87.651 E4.63007
G1 X52.415 Y86.921 E4.64037
G1 X52.313 Y86.186 E4.65053
G1 X52.268 Y85.500 E4.65993
G1 X52.268 Y34.500 E5.35782
G1 X52.313 Y33.813 E5.36724
G1 X52.381 Y33.302 E5.37429
G1 X52.489 Y32.730 E5.38226
G1 X52.735 Y31.979 E5.39308
G1 X52.932 Y31.502 E5.40013
G1 X53.310 Y30.772 E5.41139
G1 X53.722 Y30.944 F7800.000
G4 P29
G1 X53.973 Y30.584 E5.41738 F1800.000
G1 X54.502 Y29.915 E5.42907
G1 X55.173 Y29.289 E5.44162
G1 X55.586 Y28.972 E5.44875
G1 X56.505 Y28.418 E5.46342
G1 X57.150 Y28.147 E5.47300
G1 X57.881 Y27.911 E5.48352
G1 X58.360 Y27.823 E5.49017
G1 X59.133 Y27.729 E5.50083
G1 X59.500 Y27.715 E5.50586
G1 X110.500 Y27.715 E6.20374
G1 X111.125 Y27.756 E6.21231
G1 X111.895 Y27.864 E6.22295 F1800.000
G1 X112.851 Y28.148 E6.23660
G1 X113.328 Y28.345 E6.24367
G1 X113.907 Y28.632 E6.25250
G1 X114.416 Y28.974 E6.26090
G1 X114.826 Y29.288 E6.26796
G1 X115.417 Y29.826 E6.27890
G1 X116.027 Y30.585 E6.29223
G1 X116.404 Y31.156 E6.30158
G1 X116.654 Y31.671 E6.30943
G1 X116.978 Y32.488 E6.32145
G1 X117.145 Y33.155 E6.33086
G1 X117.244 Y33.873 E6.34077
G1 X117.285 Y34.500 E6.34937
G1 X117.285 Y85.500 E7.04726
G1 X117.244 Y86.127 E7.05587
G1 X117.145 Y86.846 E7.06578
G1 X116.978 Y87.511 E7.07517
G1 X116.852 Y87.852 E7.08015
G1 X116.654 Y88.329 E7.08721
G1 X116.403 Y88.845 E7.09507
G1 X116.027 Y89.415 E7.10441
G1 X115.417 Y90.174 E7.11774
G1 X114.826 Y90.712 E7.12868
G1 X114.416 Y91.026 E7.13574
G1 X113.906 Y91.368 E7.14415
G1 X113.328 Y91.655 E7.15297
G1 X112.851 Y91.852 E7.16004
G1 X111.895 Y92.136 E7.17369
G1 X111.125 Y92.244 E7.18433
G1 X110.500 Y92.285 E7.19290
G1 X59.500 Y92.285 E7.89078
G1 X58.875 Y92.244 E7.89935
G1 X58.106 Y92.136 E7.90998
G1 X57.149 Y91.852 E7.92364
G1 X56.672 Y91.655 E7.93071
G1 X56.094 Y91.368 E7.93953
G1 X55.584 Y91.026 E7.94794
G1 X55.174 Y90.712 E7.95500
G1 X54.579 Y90.171 E7.96601
G1 X53.973 Y89.415 E7.97927
G1 X53.595 Y88.843 E7.98865
G1 X53.346 Y88.329 E7.99647
G1 X53.148 Y87.852 E8.00353
G1 X53.022 Y87.512 E8.00849
G1 X52.855 Y86.844 E8.01791
G1 X52.756 Y86.127 E8.02781
G1 X52.715 Y85.500 E8.03642
G1 X52.715 Y34.500 E8.73430
G1 X52.756 Y33.871 E8.74292
G1 X52.823 Y33.360 E8.74998
G1 X52.922 Y32.837 E8.75727
G1 X53.147 Y32.150 E8.76717
G1 X53.345 Y31.673 E8.77422
G1 X53.688 Y31.010 E8.78443
G1 X54.100 Y31.182 F7800.000
G4 P29
G1 X54.327 Y30.856 E8.78988 F1800.000
G1 X54.836 Y30.211 E8.80113
G1 X55.445 Y29.643 E8.81251
G1 X55.858 Y29.326 E8.81964
G1 X56.691 Y28.824 E8.83295
G1 X57.321 Y28.560 E8.84230
G1 X57.984 Y28.346 E8.85183
G1 X58.418 Y28.266 E8.85787
G1 X59.167 Y28.174 E8.86820
G1 X59.500 Y28.161 E8.87276
G1 X110.500 Y28.161 E9.57064
G1 X111.066 Y28.198 E9.57841
G1 X111.813 Y28.303 E9.58873 F1800.000
G1 X112.680 Y28.560 E9.60110
G1 X113.157 Y28.758 E9.60817
G1 X113.682 Y29.018 E9.61618
G1 X114.145 Y29.328 E9.62380
G1 X114.554 Y29.642 E9.63087
G1 X115.090 Y30.130 E9.64079
G1 X115.673 Y30.857 E9.65354
G1 X116.015 Y31.374 E9.66202
G1 X116.242 Y31.842 E9.66914
G1 X116.554 Y32.628 E9.68071
G1 X116.706 Y33.232 E9.68923
G1 X116.802 Y33.931 E9.69889
G1 X116.839 Y34.500 E9.70669
G1 X116.839 Y85.500 E10.40458
G1 X116.802 Y86.069 E10.41238
G1 X116.706 Y86.768 E10.42204
G1 X116.554 Y87.371 E10.43055
G1 X116.439 Y87.681 E10.43507
G1 X116.242 Y88.158 E10.44213
G1 X116.014 Y88.627 E10.44926
G1 X115.673 Y89.143 E10.45773
G1 X115.090 Y89.870 E10.47049
G1 X114.554 Y90.358 E10.48040
G1 X114.145 Y90.672 E10.48747
G1 X113.681 Y90.983 E10.49510
G1 X113.157 Y91.242 E10.50310
G1 X112.680 Y91.440 E10.51016
G1 X111.813 Y91.697 E10.52254
G1 X111.066 Y91.802 E10.53286
G1 X110.500 Y91.839 E10.54063
G1 X59.500 Y91.839 E11.23851
G1 X58.934 Y91.802 E11.24628
G1 X58.187 Y91.697 E11.25659
G1 X57.320 Y91.440 E11.26897
G1 X56.843 Y91.242 E11.27604
G1 X56.319 Y90.983 E11.28404
G1 X55.855 Y90.672 E11.29167
G1 X55.446 Y90.358 E11.29874
G1 X54.911 Y89.871 E11.30864
G1 X54.327 Y89.143 E11.32141
G1 X53.985 Y88.625 E11.32991
G1 X53.758 Y88.158 E11.33701
G1 X53.561 Y87.681 E11.34407
G1 X53.446 Y87.372 E11.34858
G1 X53.294 Y86.767 E11.35712
G1 X53.198 Y86.069 E11.36676
G1 X53.161 Y85.500 E11.37456
G1 X53.161 Y34.500 E12.07245
G1 X53.198 Y33.930 E12.08027
G1 X53.266 Y33.418 E12.08733
G1 X53.355 Y32.943 E12.09394
G1 X53.560 Y32.320 E12.10291
G1 X53.757 Y31.844 E12.10997
G1 X54.065 Y31.249 E12.11914
G1 X54.477 Y31.421 F7800.000
G4 P29
G1 X54.681 Y31.128 E12.12403 F1800.000
G1 X55.170 Y30.507 E12.13484
G1 X55.716 Y29.997 E12.14506
G1 X56.130 Y29.680 E12.15219
G1 X56.877 Y29.230 E12.16413
G1 X57.492 Y28.972 E12.17325
G1 X58.087 Y28.780 E12.18181
G1 X58.476 Y28.708 E12.18723
G1 X59.201 Y28.619 E12.19723
G1 X110.500 Y28.607 E12.89920
G1 X111.008 Y28.641 E12.90617
G1 X111.732 Y28.742 E12.91617 F1800.000
G1 X112.509 Y28.972 E12.92727
G1 X112.987 Y29.170 E12.93433
G1 X113.457 Y29.403 E12.94152
G1 X113.873 Y29.682 E12.94837
G1 X114.282 Y29.996 E12.95543
G1 X114.764 Y30.434 E12.96433
G1 X115.319 Y31.128 E12.97650
G1 X115.625 Y31.593 E12.98411
G1 X115.830 Y32.013 E12.99051
G1 X116.129 Y32.763 E13.00156
G1 X116.266 Y33.309 E13.00927
G1 X116.386 Y34.271 E13.02252
G1 X116.393 Y85.500 E13.72355
G1 X116.359 Y86.011 E13.73055
G1 X116.266 Y86.691 E13.73995
G1 X116.130 Y87.232 E13.74758
G1 X116.027 Y87.511 E13.75165
G1 X115.830 Y87.987 E13.75870
G1 X115.625 Y88.408 E13.76511
G1 X115.319 Y88.872 E13.77271
G1 X114.763 Y89.566 E13.78488
G1 X114.282 Y90.004 E13.79378
G1 X113.873 Y90.318 E13.80084
G1 X113.457 Y90.597 E13.80770
G1 X112.987 Y90.830 E13.81488
G1 X112.509 Y91.028 E13.82195
G1 X111.731 Y91.258 E13.83305
G1 X111.008 Y91.359 E13.84304
G1 X110.500 Y91.393 E13.85001
G1 X59.500 Y91.393 E14.54790
G1 X58.992 Y91.359 E14.55487
G1 X58.269 Y91.258 E14.56486
G1 X57.491 Y91.028 E14.57596
G1 X57.013 Y90.830 E14.58303
G1 X56.544 Y90.597 E14.59021
G1 X56.127 Y90.318 E14.59706
G1 X55.718 Y90.004 E14.60413
G1 X55.237 Y89.567 E14.61301
G1 X54.681 Y88.872 E14.62520
G1 X54.374 Y88.406 E14.63283
G1 X54.170 Y87.987 E14.63921
G1 X53.973 Y87.511 E14.64626
G1 X53.870 Y87.233 E14.65031
G1 X53.734 Y86.690 E14.65798
G1 X53.641 Y86.011 E14.66735
G1 X53.607 Y85.500 E14.67436
G1 X53.607 Y34.500 E15.37225
G1 X53.641 Y33.988 E15.37927
G1 X53.708 Y33.477 E15.38633
G1 X53.789 Y33.050 E15.39227
G1 X53.972 Y32.491 E15.40032
G1 X54.170 Y32.015 E15.40737
G1 X54.442 Y31.487 E15.41550
G1 X54.854 Y31.659 F7800.000
G4 P29
G1 X55.035 Y31.400 E15.41983 F1800.000
G1 X55.504 Y30.803 E15.43022
G1 X55.988 Y30.351 E15.43927
G1 X56.401 Y30.034 E15.44640
G1 X57.063 Y29.636 E15.45697
G1 X57.663 Y29.384 E15.46587
G1 X58.189 Y29.214 E15.47344
G1 X58.535 Y29.151 E15.47825
G1 X59.236 Y29.064 E15.48791
G1 X110.500 Y29.054 E16.18941
G1 X110.950 Y29.083 E16.19558
G1 X111.650 Y29.181 E16.20526 F1800.000
G1 X112.339 Y29.385 E16.21509
G1 X112.816 Y29.582 E16.22215
G1 X113.232 Y29.789 E16.22851
G1 X113.601 Y30.036 E16.23459
G1 X114.011 Y30.350 E16.24165
G1 X114.437 Y30.738 E16.24953
G1 X114.965 Y31.400 E16.26113
G1 X115.236 Y31.811 E16.26787
G1 X115.417 Y32.184 E16.27354
G1 X115.705 Y32.903 E16.28413
G1 X115.826 Y33.387 E16.29096
G1 X115.940 Y34.297 E16.30351
G1 X115.946 Y85.500 E17.00418
G1 X115.917 Y85.953 E17.01038
G1 X115.826 Y86.614 E17.01951
G1 X115.706 Y87.093 E17.02627
G1 X115.615 Y87.340 E17.02988
G1 X115.417 Y87.816 E17.03693
G1 X115.236 Y88.190 E17.04262
G1 X114.965 Y88.600 E17.04934
G1 X114.436 Y89.263 E17.06094
G1 X114.011 Y89.650 E17.06882
G1 X113.601 Y89.964 E17.07588
G1 X113.232 Y90.211 E17.08196
G1 X112.816 Y90.418 E17.08832
G1 X112.339 Y90.615 E17.09538
G1 X111.650 Y90.819 E17.10522
G1 X110.950 Y90.917 E17.11489
G1 X110.500 Y90.946 E17.12106
G1 X59.500 Y90.946 E17.81894
G1 X59.050 Y90.917 E17.82511
G1 X58.350 Y90.819 E17.83478
G1 X57.661 Y90.615 E17.84461
G1 X57.184 Y90.418 E17.85168
G1 X56.768 Y90.211 E17.85803
G1 X56.399 Y89.964 E17.86412
G1 X55.989 Y89.650 E17.87118
G1 X55.564 Y89.263 E17.87904
G1 X55.035 Y88.600 E17.89065
G1 X54.763 Y88.188 E17.89741
G1 X54.583 Y87.816 E17.90306
G1 X54.385 Y87.340 E17.91012
G1 X54.294 Y87.094 E17.91371
G1 X54.174 Y86.613 E17.92050
G1 X54.083 Y85.953 E17.92961
G1 X54.054 Y85.500 E17.93582
G1 X54.054 Y34.500 E18.63371
G1 X54.083 Y34.046 E18.63993
G1 X54.222 Y33.157 E18.65225
G1 X54.385 Y32.662 E18.65937
G1 X54.582 Y32.186 E18.66643
G1 X54.819 Y31.726 E18.67351
G1 E16.67351 F1920.00000
G92 E0
G1 X66.452 Y80.529 F7800.000
G1 E2.00000 F1920.00000
G1 X66.539 Y81.213 E2.00944 F1800.000
G1 X66.452 Y81.898 E2.01888
G1 X66.198 Y82.539 E2.02832
G1 X65.793 Y83.097 E2.03776
G1 X65.261 Y83.537 E2.04719
G1 X64.637 Y83.830 E2.05663
G1 X63.960 Y83.960 E2.06607
G1 X63.271 Y83.916 E2.07551
G1 X62.615 Y83.703 E2.08495
G1 X62.033 Y83.333 E2.09439
G1 X61.561 Y82.831 E2.10383
G1 X61.228 Y82.226 E2.11327
G1 X61.057 Y81.558 E2.12271
G1 X61.057 Y80.868 E2.13215
G1 X61.228 Y80.200 E2.14158
G1 X61.561 Y79.596 E2.15102
G1 X62.033 Y79.093 E2.16046
G1 X62.615 Y78.723 E2.16990
G1 X63.271 Y78.510 E2.17934
G1 X63.960 Y78.467 E2.18878 F1800.000
G1 X64.637 Y78.596 E2.19822
G1 X65.261 Y78.890 E2.20766
G1 X65.793 Y79.329 E2.21710
G1 X66.198 Y79.888 E2.22654
G1 X66.425 Y80.459 E2.23495
G1 X66.016 Y80.641 F7800.000
G4 P29
G1 X66.089 Y81.213 E2.24284 F1800.000
G4 P14
G1 X66.016 Y81.786 E2.25074
G1 X65.804 Y82.322 E2.25864
G1 X65.465 Y82.789 E2.26653
G1 X65.020 Y83.157 E2.27443
G1 X64.498 Y83.402 E2.28232
G1 X63.931 Y83.511 E2.29022
G1 X63.355 Y83.474 E2.29811
G1 X62.807 Y83.296 E2.30601
G1 X62.320 Y82.987 E2.31391
G1 X61.925 Y82.566 E2.32180
G1 X61.647 Y82.061 E2.32970
G1 X61.503 Y81.502 E2.33759
G1 X61.503 Y80.925 E2.34549
G1 X61.647 Y80.366 E2.35338
G1 X61.925 Y79.860 E2.36128
G1 X62.320 Y79.440 E2.36918
G1 X62.807 Y79.130 E2.37707
G1 X63.355 Y78.952 E2.38497
G1 X63.931 Y78.916 E2.39286 F1800.000
G1 X64.498 Y79.024 E2.40076
G1 X65.020 Y79.270 E2.40865
G1 X65.465 Y79.637 E2.41655
G1 X65.804 Y80.104 E2.42445
G1 X65.989 Y80.571 E2.43132
G1 X65.581 Y80.753 F7800.000
G4 P29
G1 X65.639 Y81.213 E2.43767 F1800.000
G4 P17
G1 X65.581 Y81.674 E2.44402
G1 X65.410 Y82.105 E2.45037
G1 X65.137 Y82.481 E2.45673
G1 X64.779 Y82.777 E2.46308
G1 X64.359 Y82.975 E2.46943
G1 X63.903 Y83.062 E2.47578
G1 X63.440 Y83.032 E2.48214
G1 X62.998 Y82.889 E2.48849
G1 X62.606 Y82.640 E2.49484
G1 X62.289 Y82.302 E2.50119
G1 X62.065 Y81.895 E2.50755
G1 X61.949 Y81.445 E2.51390
G1 X61.949 Y80.981 E2.52025
G1 X62.065 Y80.531 E2.52660
G1 X62.289 Y80.125 E2.53296
G1 X62.606 Y79.786 E2.53931
G1 X62.998 Y79.537 E2.54566
G1 X63.440 Y79.394 E2.55201
G1 X63.903 Y79.365 E2.55837 F1800.000
G1 X64.359 Y79.452 E2.56472
G1 X64.779 Y79.650 E2.57107
G1 X65.137 Y79.945 E2.57742
G1 X65.410 Y80.321 E2.58378
G1 X65.553 Y80.683 E2.58910
G1 X66.022 Y80.896 F7800.000
G1 X103.483 Y80.868 F7800.000
G1 X103.655 Y80.200 E2.59854 F1800.000
G1 X103.987 Y79.596 E2.60798
G1 X104.459 Y79.093 E2.61742
G1 X105.042 Y78.723 E2.62686
G1 X105.698 Y78.510 E2.63630
G1 X106.386 Y78.467 E2.64574 F1800.000
G1 X107.064 Y78.596 E2.65518
G1 X107.688 Y78.890 E2.66461
G1 X108.219 Y79.329 E2.67405
G1 X108.625 Y79.888 E2.68349
G1 X108.879 Y80.529 E2.69293
G1 X108.965 Y81.213 E2.70237
G1 X108.879 Y81.898 E2.71181
G1 X108.625 Y82.539 E2.72125
G1 X108.219 Y83.097 E2.73069
G1 X107.688 Y83.537 E2.74013
G1 X107.064 Y83.830 E2.74957
G1 X106.386 Y83.960 E2.75900
G1 X105.698 Y83.916 E2.76844
G1 X105.042 Y83.703 E2.77788
G1 X104.459 Y83.333 E2.78732
G1 X103.987 Y82.831 E2.79676
G1 X103.655 Y82.226 E2.80620
G1 X103.483 Y81.558 E2.81564
G1 X103.483 Y80.943 E2.82405
G1 X103.929 Y80.925 F7800.000
G1 X104.073 Y80.366 E2.83195 F1800.000
G1 X104.351 Y79.860 E2.83984
G1 X104.746 Y79.440 E2.84774
G1 X105.233 Y79.130 E2.85563
G1 X105.782 Y78.952 E2.86353
G1 X106.358 Y78.916 E2.87143 F1800.000
G1 X106.925 Y79.024 E2.87932
G1 X107.447 Y79.270 E2.88722
G1 X107.891 Y79.637 E2.89511
G1 X108.230 Y80.104 E2.90301
G1 X108.443 Y80.641 E2.91090
G1 X108.515 Y81.213 E2.91880
G1 X108.443 Y81.786 E2.92670
G1 X108.230 Y82.322 E2.93459
G1 X107.891 Y82.789 E2.94249
G1 X107.447 Y83.157 E2.95038
G1 X106.925 Y83.402 E2.95828
G1 X106.358 Y83.511 E2.96617
G1 X105.782 Y83.474 E2.97407
G1 X105.233 Y83.296 E2.98197
G1 X104.746 Y82.987 E2.98986
G1 X104.351 Y82.566 E2.99776
G1 X104.073 Y82.061 E3.00565
G1 X103.929 Y81.502 E3.01355
G1 X103.929 Y81.000 E3.02042
G1 X104.376 Y80.981 F7800.000
G1 X104.491 Y80.531 E3.02677 F1800.000
G1 X104.715 Y80.125 E3.03312
G1 X105.033 Y79.786 E3.03948
G1 X105.425 Y79.537 E3.04583
G1 X105.866 Y79.394 E3.05218
G1 X106.329 Y79.365 E3.05853 F1800.000
G1 X106.785 Y79.452 E3.06489
G1 X107.206 Y79.650 E3.07124
G1 X107.563 Y79.945 E3.07759
G1 X107.836 Y80.321 E3.08394
G1 X108.007 Y80.753 E3.09030
G1 X108.065 Y81.213 E3.09665
G1 X108.007 Y81.674 E3.10300
G1 X107.836 Y82.105 E3.10935
G1 X107.563 Y82.481 E3.11571
G1 X107.206 Y82.777 E3.12206
G1 X106.785 Y82.975 E3.12841
G1 X106.329 Y83.062 E3.13476
G1 X105.866 Y83.032 E3.14112
G1 X105.425 Y82.889 E3.14747
G1 X105.033 Y82.640 E3.15382
G1 X104.715 Y82.302 E3.16017
G1 X104.491 Y81.895 E3.16653
G1 X104.376 Y81.445 E3.17288
G1 X104.376 Y81.056 E3.17821
G1 X104.018 Y80.685 F7800.000
G1 X106.386 Y41.533 F7800.000
G1 X105.698 Y41.490 E3.18764 F1800.000
G1 X105.042 Y41.277 E3.19708
G1 X104.459 Y40.907 E3.20652
G1 X103.987 Y40.404 E3.21596
G1 X103.655 Y39.800 E3.22540
G1 X103.483 Y39.132 E3.23484
G1 X103.483 Y38.442 E3.24428
G1 X103.655 Y37.774 E3.25372
G1 X103.987 Y37.169 E3.26316
G1 X104.459 Y36.667 E3.27260
G1 X105.042 Y36.297 E3.28203
G1 X105.698 Y36.084 E3.29147
G1 X106.386 Y36.040 E3.30091 F1800.000
G1 X107.064 Y36.170 E3.31035
G1 X107.688 Y36.463 E3.31979
G1 X108.219 Y36.903 E3.32923
G1 X108.625 Y37.461 E3.33867
G1 X108.879 Y38.102 E3.34811
G1 X108.965 Y38.787 E3.35755
G1 X108.879 Y39.471 E3.36698
G1 X108.625 Y40.112 E3.37642
G1 X108.219 Y40.671 E3.38586
G1 X107.688 Y41.110 E3.39530
G1 X107.064 Y41.404 E3.40474
G1 X106.460 Y41.519 E3.41315
G1 X106.358 Y41.084 F7800.000
G1 X105.782 Y41.048 E3.42105 F1800.000
