; generated by Slic3r 1.2.9 on 2016-04-06 at 00:24:29

; external perimeters extrusion width = 0.50mm
; perimeters extrusion width = 0.50mm
; infill extrusion width = 0.50mm
; solid infill extrusion width = 0.50mm
; top infill extrusion width = 0.50mm

M107
M190 S60 ; set bed temperature
M104 S210 ; set temperature
G28 ; home all axes
M109 S210 ; wait for temperature to be reached
G21 ; set units to millimeters
G90 ; use absolute coordinates
M82 ; use absolute distances for extrusion
G92 E0
G1 Z0.350 F7800.000
G1 E-2.00000 F1920.00000
G92 E0
G1 X64.794 Y45.736 F7800.000
G1 E2.00000 F1920.00000
M204 S3000
G1 X65.749 Y44.470 E2.01205 F1500.000
G1 X66.854 Y43.192 E2.02488
G1 X68.043 Y41.993 E2.03771
G1 X69.312 Y40.878 E2.05055
G1 X70.820 Y39.735 E2.06492
G1 X72.236 Y38.814 E2.07775
G1 X73.711 Y37.992 E2.09059
G1 X75.240 Y37.273 E2.10342
G1 X76.621 Y36.729 E2.11470
G1 X78.229 Y36.211 E2.12753
G1 X79.868 Y35.804 E2.14036
G1 X81.531 Y35.511 E2.15319
G1 X83.210 Y35.331 E2.16602
G1 X85.153 Y35.268 E2.18079
G1 X86.790 Y35.331 E2.19323 F1500.000
G1 X88.267 Y35.483 E2.20451
G1 X89.932 Y35.763 E2.21735
G1 X91.575 Y36.156 E2.23018
G1 X93.379 Y36.729 E2.24456
G1 X94.994 Y37.377 E2.25778
G1 X96.470 Y38.086 E2.27022
G1 X97.764 Y38.814 E2.28150
G1 X99.180 Y39.735 E2.29433
G1 X100.688 Y40.878 E2.30871
G1 X101.957 Y41.993 E2.32154
G1 X103.146 Y43.192 E2.33437
G1 X104.250 Y44.470 E2.34720
G1 X105.148 Y45.653 E2.35848
G1 X106.080 Y47.062 E2.37132
G1 X107.008 Y48.711 E2.38569
G1 X107.727 Y50.240 E2.39852
G1 X108.340 Y51.813 E2.41136
G1 X108.789 Y53.229 E2.42264
G1 X109.196 Y54.868 E2.43547
G1 X109.489 Y56.531 E2.44830
G1 X109.683 Y58.414 E2.46268
G1 X109.734 Y60.102 E2.47551
G1 X109.664 Y61.841 E2.48873
G1 X109.489 Y63.469 E2.50117
G1 X109.237 Y64.932 E2.51245
G1 X108.844 Y66.575 E2.52528
G1 X108.271 Y68.379 E2.53966
G1 X107.645 Y69.947 E2.55249
G1 X106.888 Y71.515 E2.56572
G1 X106.080 Y72.938 E2.57815
G1 X105.265 Y74.180 E2.58944
G1 X104.250 Y75.530 E2.60227
G1 X103.007 Y76.957 E2.61665
G1 X101.808 Y78.146 E2.62948
G1 X100.530 Y79.250 E2.64231
G1 X99.347 Y80.148 E2.65359
G1 X97.938 Y81.080 E2.66642
G1 X96.289 Y82.008 E2.68080
G1 X94.760 Y82.727 E2.69363
G1 X93.379 Y83.271 E2.70492
G1 X91.771 Y83.789 E2.71775
G1 X90.132 Y84.196 E2.73058
G1 X88.267 Y84.517 E2.74496
G1 X86.586 Y84.683 E2.75779
G1 X84.898 Y84.734 E2.77062
G1 X83.414 Y84.683 E2.78190
G1 X81.733 Y84.517 E2.79473
G1 X79.868 Y84.196 E2.80911
G1 X78.229 Y83.789 E2.82194
G1 X76.573 Y83.253 E2.83516
G1 X75.053 Y82.645 E2.84760
G1 X73.711 Y82.008 E2.85888
G1 X72.236 Y81.186 E2.87172
G1 X70.653 Y80.148 E2.88609
G1 X69.312 Y79.122 E2.89893
G1 X68.043 Y78.007 E2.91176
G1 X66.854 Y76.808 E2.92459
G1 X65.878 Y75.688 E2.93587
G1 X64.852 Y74.347 E2.94870
G1 X63.814 Y72.764 E2.96308
G1 X62.992 Y71.289 E2.97591
G1 X62.255 Y69.713 E2.98913
G1 X61.660 Y68.187 E3.00157
G1 X61.211 Y66.771 E3.01285
G1 X60.804 Y65.132 E3.02569
G1 X60.511 Y63.469 E3.03852
G1 X60.317 Y61.586 E3.05289
G1 X60.268 Y59.847 E3.06612
G1 X60.331 Y58.210 E3.07856
G1 X60.483 Y56.733 E3.08984
G1 X60.804 Y54.868 E3.10422
G1 X61.211 Y53.229 E3.11705
G1 X61.747 Y51.573 E3.13027
G1 X62.355 Y50.053 E3.14271
G1 X62.992 Y48.711 E3.15399
G1 X63.814 Y47.236 E3.16682
G1 X64.750 Y45.797 E3.17986
G1 X64.995 Y45.878 F7800.000
G4 P31
G1 X65.946 Y44.619 E3.19185 F1500.000
G1 X67.040 Y43.354 E3.20455
G1 X68.218 Y42.168 E3.21726
G1 X69.474 Y41.064 E3.22996
G1 X70.955 Y39.941 E3.24408
G1 X72.357 Y39.029 E3.25679
G1 X73.817 Y38.215 E3.26949
G1 X75.330 Y37.503 E3.28219
G1 X76.712 Y36.958 E3.29348
G1 X78.303 Y36.446 E3.30618
G1 X79.926 Y36.044 E3.31888
G1 X81.573 Y35.753 E3.33159
G1 X83.236 Y35.576 E3.34429
G1 X85.145 Y35.514 E3.35880
G1 X86.764 Y35.576 E3.37111 F1500.000
G1 X88.242 Y35.728 E3.38240
G1 X89.891 Y36.006 E3.39510
G1 X91.517 Y36.395 E3.40780
G1 X93.288 Y36.958 E3.42193
G1 X94.888 Y37.599 E3.43502
G1 X96.349 Y38.301 E3.44733
G1 X97.643 Y39.029 E3.45862
G1 X99.045 Y39.941 E3.47132
G1 X100.526 Y41.064 E3.48544
G1 X101.782 Y42.168 E3.49814
G1 X102.960 Y43.354 E3.51085
G1 X104.054 Y44.619 E3.52355
G1 X104.952 Y45.802 E3.53483
G1 X105.874 Y47.197 E3.54754
G1 X106.699 Y48.651 E3.56024
G1 X107.497 Y50.330 E3.57436
G1 X108.105 Y51.888 E3.58707
G1 X108.554 Y53.303 E3.59835
G1 X108.956 Y54.926 E3.61105
G1 X109.247 Y56.573 E3.62376
G1 X109.437 Y58.422 E3.63788
G1 X109.487 Y60.093 E3.65058
G1 X109.419 Y61.816 E3.66368
G1 X109.247 Y63.427 E3.67599
G1 X108.994 Y64.891 E3.68727
G1 X108.605 Y66.517 E3.69997
G1 X108.042 Y68.288 E3.71410
G1 X107.423 Y69.842 E3.72680
G1 X106.674 Y71.394 E3.73989
G1 X105.874 Y72.803 E3.75221
G1 X105.059 Y74.045 E3.76349
G1 X104.054 Y75.381 E3.77619
G1 X102.832 Y76.782 E3.79031
G1 X101.607 Y77.994 E3.80341
G1 X100.381 Y79.054 E3.81572
G1 X99.198 Y79.952 E3.82700
G1 X97.643 Y80.971 E3.84113
G1 X96.183 Y81.785 E3.85383
G1 X94.670 Y82.497 E3.86653
G1 X93.288 Y83.042 E3.87782
G1 X91.697 Y83.554 E3.89052
G1 X90.074 Y83.956 E3.90322
G1 X88.242 Y84.272 E3.91734
G1 X86.578 Y84.437 E3.93005
G1 X84.907 Y84.487 E3.94275
G1 X83.422 Y84.437 E3.95403
G1 X81.758 Y84.272 E3.96674
G1 X79.926 Y83.956 E3.98086
G1 X78.303 Y83.554 E3.99356
G1 X76.664 Y83.023 E4.00666
G1 X75.158 Y82.423 E4.01897
G1 X73.817 Y81.785 E4.03025
G1 X72.357 Y80.971 E4.04296
G1 X70.955 Y80.059 E4.05566
G1 X69.474 Y78.936 E4.06978
G1 X68.354 Y77.960 E4.08106
G1 X67.168 Y76.782 E4.09377
G1 X66.064 Y75.526 E4.10647
G1 X65.048 Y74.198 E4.11917
G1 X64.029 Y72.643 E4.13330
G1 X63.215 Y71.183 E4.14600
G1 X62.484 Y69.622 E4.15909
G1 X61.895 Y68.112 E4.17141
G1 X61.446 Y66.697 E4.18269
G1 X61.044 Y65.074 E4.19539
G1 X60.753 Y63.427 E4.20810
G1 X60.563 Y61.578 E4.22222
G1 X60.514 Y59.855 E4.23531
G1 X60.576 Y58.236 E4.24762
G1 X60.728 Y56.758 E4.25891
G1 X61.044 Y54.926 E4.27303
G1 X61.446 Y53.303 E4.28573
G1 X61.977 Y51.664 E4.29883
G1 X62.577 Y50.158 E4.31114
G1 X63.215 Y48.817 E4.32242
G1 X64.029 Y47.357 E4.33512
G1 X64.952 Y45.939 E4.34797
G1 X65.196 Y46.020 F7800.000
G4 P31
G1 X66.142 Y44.768 E4.35990 F1500.000
G1 X67.226 Y43.516 E4.37247
G1 X68.392 Y42.342 E4.38505
G1 X69.636 Y41.249 E4.39762
G1 X71.090 Y40.147 E4.41149
G1 X72.477 Y39.244 E4.42407
G1 X73.923 Y38.437 E4.43664
G1 X75.420 Y37.732 E4.44922
G1 X76.802 Y37.187 E4.46050
G1 X78.378 Y36.681 E4.47308
G1 X79.985 Y36.283 E4.48565
G1 X81.615 Y35.996 E4.49823
G1 X83.261 Y35.821 E4.51080
G1 X85.137 Y35.761 E4.52506
G1 X86.739 Y35.821 E4.53724 F1500.000
G1 X88.217 Y35.973 E4.54853
G1 X89.849 Y36.248 E4.56110
G1 X91.622 Y36.681 E4.57497
G1 X93.198 Y37.187 E4.58755
G1 X94.782 Y37.822 E4.60051
G1 X96.228 Y38.516 E4.61270
G1 X97.523 Y39.244 E4.62398
G1 X98.910 Y40.147 E4.63655
G1 X100.364 Y41.249 E4.65042
G1 X101.608 Y42.342 E4.66300
G1 X102.774 Y43.516 E4.67557
G1 X103.858 Y44.768 E4.68815
G1 X104.755 Y45.951 E4.69943
G1 X105.668 Y47.332 E4.71201
G1 X106.484 Y48.772 E4.72458
G1 X107.268 Y50.420 E4.73845
G1 X107.870 Y51.962 E4.75103
G1 X108.319 Y53.378 E4.76231
G1 X108.717 Y54.985 E4.77488
G1 X109.004 Y56.615 E4.78746
G1 X109.191 Y58.431 E4.80133
G1 X109.241 Y60.085 E4.81390
G1 X109.174 Y61.790 E4.82687
G1 X109.004 Y63.385 E4.83905
G1 X108.752 Y64.849 E4.85033
G1 X108.365 Y66.458 E4.86291
G1 X107.813 Y68.198 E4.87678
G1 X107.200 Y69.736 E4.88935
G1 X106.459 Y71.273 E4.90232
G1 X105.668 Y72.668 E4.91450
G1 X104.853 Y73.910 E4.92579
G1 X103.751 Y75.364 E4.93965
G1 X102.658 Y76.608 E4.95223
G1 X101.445 Y77.808 E4.96520
G1 X100.232 Y78.858 E4.97738
G1 X99.049 Y79.755 E4.98866
G1 X97.523 Y80.756 E5.00253
G1 X96.077 Y81.563 E5.01511
G1 X94.580 Y82.268 E5.02768
G1 X93.038 Y82.870 E5.04026
G1 X91.622 Y83.319 E5.05154
G1 X90.015 Y83.717 E5.06411
G1 X88.217 Y84.027 E5.07798
G1 X86.569 Y84.191 E5.09056
G1 X84.915 Y84.241 E5.10313
G1 X83.431 Y84.191 E5.11442
G1 X81.783 Y84.027 E5.12699
G1 X79.985 Y83.717 E5.14086
G1 X78.378 Y83.319 E5.15343
G1 X76.754 Y82.794 E5.16640
G1 X75.264 Y82.200 E5.17859
G1 X73.923 Y81.563 E5.18987
G1 X72.477 Y80.756 E5.20244
G1 X71.090 Y79.853 E5.21502
G1 X69.636 Y78.751 E5.22889
G1 X68.392 Y77.658 E5.24146
G1 X67.342 Y76.608 E5.25274
G1 X66.249 Y75.364 E5.26532
G1 X65.245 Y74.049 E5.27790
G1 X64.244 Y72.523 E5.29176
G1 X63.437 Y71.077 E5.30434
G1 X62.713 Y69.532 E5.31731
G1 X62.130 Y68.038 E5.32949
G1 X61.681 Y66.622 E5.34077
G1 X61.283 Y65.015 E5.35335
G1 X60.996 Y63.385 E5.36592
G1 X60.809 Y61.569 E5.37979
G1 X60.761 Y59.863 E5.39276
G1 X60.821 Y58.261 E5.40494
G1 X60.973 Y56.783 E5.41622
G1 X61.283 Y54.985 E5.43009
G1 X61.681 Y53.378 E5.44267
G1 X62.206 Y51.754 E5.45563
G1 X62.800 Y50.264 E5.46782
G1 X63.437 Y48.923 E5.47910
G1 X64.244 Y47.477 E5.49167
G1 X65.153 Y46.081 E5.50433
G1 X65.397 Y46.162 F7800.000
G4 P31
G1 X66.338 Y44.917 E5.51619 F1500.000
G1 X67.411 Y43.678 E5.52864
G1 X68.566 Y42.516 E5.54109
G1 X69.798 Y41.435 E5.55354
G1 X71.225 Y40.353 E5.56715
G1 X72.598 Y39.458 E5.57959
G1 X74.029 Y38.660 E5.59204
G1 X75.511 Y37.961 E5.60449
G1 X76.892 Y37.416 E5.61577
G1 X78.452 Y36.915 E5.62822
G1 X80.043 Y36.522 E5.64067
G1 X81.657 Y36.239 E5.65312
G1 X83.286 Y36.066 E5.66556
G1 X85.128 Y36.007 E5.67957
G1 X86.714 Y36.066 E5.69162 F1500.000
G1 X88.191 Y36.218 E5.70291
G1 X89.807 Y36.491 E5.71535
G1 X91.400 Y36.874 E5.72780
G1 X93.108 Y37.416 E5.74141
G1 X94.677 Y38.044 E5.75425
G1 X96.107 Y38.730 E5.76631
G1 X97.402 Y39.458 E5.77759
G1 X98.775 Y40.353 E5.79004
G1 X100.202 Y41.435 E5.80365
G1 X101.434 Y42.516 E5.81610
G1 X102.589 Y43.678 E5.82855
G1 X103.565 Y44.798 E5.83983
G1 X104.559 Y46.100 E5.85228
G1 X105.462 Y47.467 E5.86473
G1 X106.270 Y48.893 E5.87717
G1 X107.039 Y50.511 E5.89078
G1 X107.635 Y52.037 E5.90323
G1 X108.085 Y53.452 E5.91452
G1 X108.478 Y55.043 E5.92696
G1 X108.761 Y56.657 E5.93941
G1 X108.944 Y58.439 E5.95302
G1 X108.995 Y60.077 E5.96547
G1 X108.929 Y61.765 E5.97831
G1 X108.761 Y63.343 E5.99037
G1 X108.509 Y64.807 E6.00165
G1 X108.126 Y66.400 E6.01410
G1 X107.584 Y68.108 E6.02771
G1 X106.978 Y69.630 E6.04016
G1 X106.244 Y71.152 E6.05299
G1 X105.462 Y72.533 E6.06505
G1 X104.647 Y73.775 E6.07633
G1 X103.662 Y75.083 E6.08878
G1 X102.484 Y76.434 E6.10239
G1 X101.283 Y77.623 E6.11523
G1 X100.084 Y78.662 E6.12729
G1 X98.900 Y79.559 E6.13857
G1 X97.402 Y80.542 E6.15218
G1 X95.971 Y81.340 E6.16463
G1 X94.489 Y82.039 E6.17708
G1 X93.108 Y82.584 E6.18836
G1 X91.548 Y83.085 E6.20081
G1 X89.957 Y83.478 E6.21326
G1 X88.191 Y83.782 E6.22687
G1 X86.561 Y83.944 E6.23932
G1 X84.923 Y83.995 E6.25176
G1 X83.439 Y83.944 E6.26305
G1 X81.809 Y83.782 E6.27550
G1 X80.043 Y83.478 E6.28911
G1 X78.452 Y83.085 E6.30156
G1 X76.844 Y82.565 E6.31439
G1 X75.370 Y81.978 E6.32645
G1 X74.029 Y81.340 E6.33773
G1 X72.598 Y80.542 E6.35018
G1 X71.225 Y79.647 E6.36263
G1 X69.798 Y78.565 E6.37624
G1 X68.566 Y77.484 E6.38869
G1 X67.516 Y76.434 E6.39997
G1 X66.435 Y75.202 E6.41242
G1 X65.441 Y73.900 E6.42487
G1 X64.458 Y72.402 E6.43848
G1 X63.660 Y70.971 E6.45093
G1 X62.961 Y69.489 E6.46337
G1 X62.365 Y67.963 E6.47582
G1 X61.915 Y66.548 E6.48710
G1 X61.522 Y64.957 E6.49955
G1 X61.239 Y63.343 E6.51200
G1 X61.056 Y61.561 E6.52561
G1 X61.007 Y59.872 E6.53845
G1 X61.066 Y58.286 E6.55051
G1 X61.218 Y56.809 E6.56179
G1 X61.522 Y55.043 E6.57540
G1 X61.915 Y53.452 E6.58785
G1 X62.435 Y51.844 E6.60069
G1 X63.022 Y50.370 E6.61274
G1 X63.660 Y49.029 E6.62403
G1 X64.458 Y47.598 E6.63647
G1 X65.354 Y46.223 E6.64894
G1 E4.64894 F1920.00000
G92 E0
G1 X87.177 Y77.059 F7800.000
G1 E2.00000 F1920.00000
G1 X86.970 Y77.583 E2.00428 F1500.000
G1 X86.639 Y78.039 E2.00856
G1 X86.204 Y78.398 E2.01284
G1 X85.695 Y78.638 E2.01712
G1 X85.141 Y78.743 E2.02140
G1 X84.579 Y78.708 E2.02568
G1 X84.071 Y78.543 E2.02974
G1 X83.570 Y78.235 E2.03420
G1 X83.181 Y77.821 E2.03852
G1 X82.910 Y77.327 E2.04280
G1 X82.770 Y76.782 E2.04708
G1 X82.770 Y76.218 E2.05136
G1 X82.910 Y75.673 E2.05564
G1 X83.181 Y75.179 E2.05992
G1 X83.567 Y74.768 E2.06420
G1 X84.047 Y74.464 E2.06852
G1 X84.609 Y74.290 E2.07299
G1 X85.141 Y74.257 E2.07704 F1500.000
G1 X85.695 Y74.362 E2.08132
G1 X86.204 Y74.602 E2.08560
G1 X86.639 Y74.961 E2.08988
G1 X86.970 Y75.417 E2.09416
G1 X87.177 Y75.941 E2.09844
G1 X87.248 Y76.500 E2.10273
G1 X87.187 Y76.985 E2.10644
G1 X86.937 Y76.997 F7800.000
G1 X86.752 Y77.463 E2.11024 F1500.000
G1 X86.458 Y77.869 E2.11405
G1 X86.071 Y78.188 E2.11786
G1 X85.618 Y78.402 E2.12167
G1 X85.126 Y78.496 E2.12548
G1 X84.625 Y78.464 E2.12928
G1 X84.175 Y78.318 E2.13288
G1 X83.727 Y78.043 E2.13687
G1 X83.382 Y77.675 E2.14070
G1 X83.141 Y77.236 E2.14451
G1 X83.016 Y76.751 E2.14832
G1 X83.016 Y76.249 E2.15212
G1 X83.141 Y75.764 E2.15593
G1 X83.382 Y75.325 E2.15974
G1 X83.725 Y74.959 E2.16355
G1 X84.151 Y74.689 E2.16738
G1 X84.653 Y74.534 E2.17137
G1 X85.126 Y74.504 E2.17497 F1500.000
G1 X85.618 Y74.598 E2.17877
G1 X86.071 Y74.812 E2.18258
G1 X86.458 Y75.131 E2.18639
G1 X86.752 Y75.537 E2.19020
G1 X86.937 Y76.003 E2.19400
G1 X86.999 Y76.500 E2.19781
G1 X86.946 Y76.923 E2.20105
G1 X86.696 Y76.936 F7800.000
G1 X86.535 Y77.344 E2.20439 F1500.000
G1 X86.277 Y77.699 E2.20772
G1 X85.938 Y77.979 E2.21105
G1 X85.541 Y78.165 E2.21439
G1 X85.110 Y78.248 E2.21772
G1 X84.672 Y78.220 E2.22106
G1 X84.279 Y78.093 E2.22420
G1 X83.885 Y77.850 E2.22772
G1 X83.583 Y77.529 E2.23106
G1 X83.372 Y77.145 E2.23439
G1 X83.263 Y76.719 E2.23773
G1 X83.263 Y76.281 E2.24106
G1 X83.372 Y75.855 E2.24440
G1 X83.583 Y75.471 E2.24773
G1 X83.884 Y75.151 E2.25107
G1 X84.255 Y74.915 E2.25441
G1 X84.698 Y74.778 E2.25793
G1 X85.110 Y74.752 E2.26107 F1500.000
G1 X85.541 Y74.835 E2.26440
G1 X85.938 Y75.021 E2.26774
G1 X86.277 Y75.301 E2.27107
G1 X86.535 Y75.656 E2.27441
G1 X86.696 Y76.064 E2.27774
G1 X86.751 Y76.500 E2.28108
G1 X86.706 Y76.861 E2.28384
G4 P18
G1 X86.997 Y77.255 F7800.000
G1 E0.28384 F1920.00000
G92 E0
G4 P29
G1 X85.445 Y67.030 F7800.000
G1 E2.00000 F1920.00000
G1 X84.558 Y67.030 E2.00674 F1500.000
G1 X83.680 Y66.919 E2.01346
G1 X82.823 Y66.699 E2.02018
G1 X82.001 Y66.374 E2.02690
G1 X81.226 Y65.947 E2.03362
G1 X80.510 Y65.427 E2.04034
G1 X79.865 Y64.822 E2.04706
G1 X79.301 Y64.140 E2.05378
G1 X78.827 Y63.393 E2.06050
G1 X78.451 Y62.593 E2.06722
G1 X78.177 Y61.752 E2.07394
G1 X78.012 Y60.883 E2.08066
G1 X77.956 Y60.004 E2.08735
G1 X78.012 Y59.117 E2.09410
G1 X78.177 Y58.248 E2.10083
G1 X78.451 Y57.407 E2.10755
G1 X78.827 Y56.607 E2.11427
G1 X79.299 Y55.863 E2.12095
G1 X79.865 Y55.178 E2.12771
G1 X80.514 Y54.570 E2.13446
G1 X81.226 Y54.053 E2.14115
G1 X82.001 Y53.626 E2.14787
G1 X82.823 Y53.301 E2.15459
G1 X83.680 Y53.081 E2.16131
G1 X84.558 Y52.970 E2.16803
G1 X85.442 Y52.970 E2.17475 F1500.000
G1 X86.320 Y53.081 E2.18147
G1 X87.177 Y53.301 E2.18819
G1 X87.999 Y53.626 E2.19491
G1 X88.774 Y54.053 E2.20163
G1 X89.490 Y54.573 E2.20835
G1 X90.135 Y55.178 E2.21507
G1 X90.699 Y55.860 E2.22179
G1 X91.173 Y56.607 E2.22851
G1 X91.549 Y57.407 E2.23523
G1 X91.823 Y58.248 E2.24195
G1 X91.988 Y59.113 E2.24864
G1 X92.044 Y60.000 E2.25539
G1 X91.988 Y60.883 E2.26212
G1 X91.823 Y61.752 E2.26884
G1 X91.549 Y62.593 E2.27556
G1 X91.170 Y63.397 E2.28231
G1 X90.699 Y64.140 E2.28900
G1 X90.135 Y64.822 E2.29572
G1 X89.490 Y65.427 E2.30244
G1 X88.774 Y65.947 E2.30916
G1 X87.999 Y66.374 E2.31588
G1 X87.177 Y66.699 E2.32260
G1 X86.320 Y66.919 E2.32932
G1 X85.519 Y67.020 E2.33545
G1 X85.427 Y66.784 F7800.000
G1 X84.573 Y66.784 E2.34194 F1500.000
G1 X83.726 Y66.677 E2.34842
G1 X82.900 Y66.464 E2.35491
G1 X82.106 Y66.150 E2.36139
G1 X81.358 Y65.739 E2.36788
G1 X80.667 Y65.237 E2.37436
G1 X80.045 Y64.653 E2.38085
G1 X79.501 Y63.995 E2.38733
G1 X79.044 Y63.275 E2.39382
G1 X78.680 Y62.502 E2.40030
G1 X78.416 Y61.690 E2.40679
G1 X78.256 Y60.852 E2.41327
G1 X78.203 Y60.004 E2.41972
G1 X78.256 Y59.148 E2.42624
G1 X78.416 Y58.310 E2.43273
G1 X78.680 Y57.498 E2.43921
G1 X79.044 Y56.725 E2.44570
G1 X79.499 Y56.008 E2.45215
G1 X80.045 Y55.347 E2.45867
G1 X80.671 Y54.760 E2.46518
G1 X81.358 Y54.261 E2.47163
G1 X82.106 Y53.850 E2.47812
G1 X82.900 Y53.536 E2.48460
G1 X83.726 Y53.323 E2.49109
G1 X84.573 Y53.216 E2.49757
G1 X85.427 Y53.216 E2.50406 F1500.000
G1 X86.274 Y53.323 E2.51054
G1 X87.100 Y53.536 E2.51703
G1 X87.894 Y53.850 E2.52351
G1 X88.642 Y54.261 E2.53000
G1 X89.333 Y54.763 E2.53648
