; generated by Slic3r 1.2.9 on 2016-04-10 at 20:43:15

; external perimeters extrusion width = 0.50mm
; perimeters extrusion width = 0.50mm
; infill extrusion width = 0.50mm
; solid infill extrusion width = 0.50mm
; top infill extrusion width = 0.50mm

M107
M190 S60 ; set bed temperature
M104 S210 ; set temperature
G28 ; home all axes
M109 S210 ; wait for temperature to be reached
G21 ; set units to millimeters
G90 ; use absolute coordinates
M82 ; use absolute distances for extrusion
G92 E0
G1 Z0.350 F7800.000
G1 E-2.00000 F1920.00000
G92 E0
G1 X72.916 Y51.196 F7800.000
G1 E2.00000 F1920.00000
M204 S3000
G1 X73.079 Y50.977 E2.00208 F1500.000
G1 X73.960 Y49.924 E2.01250
G1 X74.732 Y49.142 E2.02086
G1 X75.750 Y48.267 E2.03106
G1 X76.892 Y47.453 E2.04171
G1 X77.123 Y47.307 E2.04379
G1 X78.322 Y46.639 E2.05421
G1 X79.578 Y46.084 E2.06464
G1 X80.616 Y45.724 E2.07299
G1 X81.945 Y45.383 E2.08342
G1 X82.243 Y45.325 E2.08572
G1 X83.572 Y45.136 E2.09592
G1 X84.670 Y45.072 E2.10427
G1 X86.012 Y45.103 E2.11447
G1 X86.314 Y45.125 E2.11677 F1500.000
G1 X87.675 Y45.308 E2.12720
G1 X89.012 Y45.615 E2.13763
G1 X90.316 Y46.042 E2.14806
G1 X91.329 Y46.469 E2.15641
G1 X92.545 Y47.105 E2.16683
G1 X93.698 Y47.850 E2.17726
G1 X94.778 Y48.697 E2.18769
G1 X95.776 Y49.639 E2.19811
G1 X96.684 Y50.669 E2.20854
G1 X96.870 Y50.907 E2.21084
G1 X97.642 Y52.006 E2.22104
G1 X98.325 Y53.197 E2.23147
G1 X98.896 Y54.444 E2.24190
G1 X99.351 Y55.739 E2.25232
G1 X99.686 Y57.070 E2.26275
G1 X99.897 Y58.426 E2.27318
G1 X99.983 Y59.796 E2.28360
G1 X99.943 Y61.168 E2.29403
G1 X99.821 Y62.260 E2.30238
G1 X99.557 Y63.607 E2.31281
G1 X99.481 Y63.901 E2.31511
G1 X99.079 Y65.182 E2.32531
G1 X98.550 Y66.448 E2.33574
G1 X97.908 Y67.661 E2.34617
G1 X97.158 Y68.810 E2.35659
G1 X96.305 Y69.886 E2.36702
G1 X95.554 Y70.688 E2.37537
G1 X94.536 Y71.609 E2.38580
G1 X93.438 Y72.433 E2.39622
G1 X92.270 Y73.153 E2.40665
G1 X91.041 Y73.763 E2.41708
G1 X90.789 Y73.871 E2.41915
G1 X89.501 Y74.342 E2.42958
G1 X88.441 Y74.634 E2.43793
G1 X87.092 Y74.887 E2.44836
G1 X86.567 Y74.934 E2.45236
G1 X83.437 Y74.934 E2.47614
G1 X82.896 Y74.884 E2.48027
G1 X81.682 Y74.661 E2.48964
G1 X81.384 Y74.590 E2.49197
G1 X80.200 Y74.243 E2.50135
G1 X79.910 Y74.141 E2.50368
G1 X78.768 Y73.674 E2.51305
G1 X78.490 Y73.544 E2.51538
G1 X77.402 Y72.962 E2.52476
G1 X77.139 Y72.804 E2.52709
G1 X76.117 Y72.114 E2.53646
G1 X75.872 Y71.929 E2.53879
G1 X74.925 Y71.138 E2.54817
G1 X74.700 Y70.929 E2.55050
G1 X73.840 Y70.045 E2.55987
G1 X73.638 Y69.814 E2.56220
G1 X72.873 Y68.846 E2.57158
G1 X72.695 Y68.595 E2.57391
G1 X72.034 Y67.554 E2.58328
G1 X71.883 Y67.287 E2.58561
G1 X71.332 Y66.183 E2.59499
G1 X71.209 Y65.901 E2.59732
G1 X70.787 Y64.778 E2.60644
G1 X70.682 Y64.454 E2.60902
G1 X70.368 Y63.261 E2.61840
G1 X70.305 Y62.961 E2.62073
G1 X70.116 Y61.742 E2.63010
G1 X70.084 Y61.436 E2.63243
G1 X70.021 Y60.204 E2.64181
G1 X70.020 Y59.914 E2.64401
G1 X70.095 Y58.544 E2.65444
G1 X70.296 Y57.186 E2.66486
G1 X70.619 Y55.852 E2.67529
G1 X70.966 Y54.809 E2.68364
G1 X71.504 Y53.547 E2.69407
G1 X72.156 Y52.339 E2.70449
G1 X72.874 Y51.258 E2.71435
G1 X73.120 Y51.334 F7800.000
G4 P31
G1 X74.135 Y50.097 E2.72651 F1500.000
G1 X74.907 Y49.315 E2.73486
G1 X75.909 Y48.455 E2.74489
G1 X77.033 Y47.655 E2.75537
G1 X78.424 Y46.864 E2.76753
G1 X79.425 Y46.410 E2.77588
G1 X80.669 Y45.967 E2.78591
G1 X82.005 Y45.622 E2.79639
G1 X83.587 Y45.382 E2.80855
G1 X84.684 Y45.317 E2.81690
G1 X86.004 Y45.349 E2.82693
G1 X86.284 Y45.370 E2.82906 F1500.000
G1 X87.622 Y45.549 E2.83932
G1 X88.938 Y45.849 E2.84957
G1 X90.221 Y46.269 E2.85983
G1 X91.233 Y46.696 E2.86818
G1 X92.429 Y47.323 E2.87843
G1 X93.563 Y48.056 E2.88869
G1 X94.624 Y48.889 E2.89894
G1 X95.605 Y49.817 E2.90920
G1 X96.497 Y50.830 E2.91945
G1 X97.430 Y52.131 E2.93161
G1 X98.102 Y53.301 E2.94187
G1 X98.665 Y54.528 E2.95212
G1 X99.113 Y55.801 E2.96238
G1 X99.442 Y57.110 E2.97264
G1 X99.651 Y58.444 E2.98289
G1 X99.736 Y59.791 E2.99315
G1 X99.698 Y61.141 E3.00340
G1 X99.576 Y62.233 E3.01175
G1 X99.254 Y63.801 E3.02391
G1 X98.851 Y65.089 E3.03417
G1 X98.332 Y66.335 E3.04442
G1 X97.701 Y67.528 E3.05468
G1 X96.963 Y68.659 E3.06493
G1 X96.125 Y69.717 E3.07519
G1 X95.374 Y70.520 E3.08354
G1 X94.372 Y71.425 E3.09379
G1 X93.292 Y72.234 E3.10405
G1 X92.143 Y72.942 E3.11431
G1 X90.933 Y73.541 E3.12456
G1 X89.435 Y74.105 E3.13672
G1 X88.375 Y74.396 E3.14507
G1 X87.049 Y74.645 E3.15533
G1 X86.567 Y74.687 E3.15900
G1 X83.437 Y74.687 E3.18278
G1 X82.940 Y74.642 E3.18657
G1 X81.727 Y74.418 E3.19594
G1 X81.421 Y74.344 E3.19833
G1 X80.003 Y73.913 E3.20959
G1 X78.861 Y73.446 E3.21896
G1 X77.518 Y72.745 E3.23047
G1 X76.255 Y71.910 E3.24198
G1 X75.083 Y70.949 E3.25349
G1 X74.017 Y69.873 E3.26500
G1 X73.831 Y69.661 E3.26714
G1 X73.066 Y68.693 E3.27651
G1 X72.242 Y67.422 E3.28802
G1 X71.553 Y66.073 E3.29953
G1 X71.017 Y64.691 E3.31079
G1 X70.920 Y64.392 E3.31318
G1 X70.549 Y62.923 E3.32469
G1 X70.359 Y61.704 E3.33407
G1 X70.267 Y60.191 E3.34558
G1 X70.266 Y59.925 E3.34760
G1 X70.339 Y58.577 E3.35786
G1 X70.535 Y57.242 E3.36811
G1 X70.853 Y55.930 E3.37837
G1 X71.290 Y54.653 E3.38862
G1 X71.730 Y53.645 E3.39697
G1 X72.372 Y52.458 E3.40723
G1 X73.078 Y51.396 E3.41691
G1 X73.324 Y51.472 F7800.000
G4 P31
G1 X74.310 Y50.270 E3.42873 F1500.000
G1 X75.083 Y49.488 E3.43708
G1 X76.068 Y48.644 E3.44694
G1 X77.174 Y47.857 E3.45725
G1 X78.526 Y47.088 E3.46906
G1 X79.527 Y46.634 E3.47742
G1 X80.749 Y46.199 E3.48727
G1 X82.064 Y45.861 E3.49758
G1 X83.601 Y45.628 E3.50940
G1 X84.699 Y45.563 E3.51775
G1 X85.996 Y45.595 E3.52761
G1 X86.253 Y45.614 E3.52957 F1500.000
G1 X87.569 Y45.789 E3.53965
G1 X88.863 Y46.084 E3.54974
G1 X90.125 Y46.496 E3.55982
G1 X91.138 Y46.923 E3.56817
G1 X92.313 Y47.540 E3.57826
G1 X93.427 Y48.261 E3.58834
G1 X94.471 Y49.082 E3.59842
G1 X95.435 Y49.994 E3.60851
G1 X96.311 Y50.991 E3.61859
G1 X97.217 Y52.255 E3.63041
G1 X97.879 Y53.406 E3.64049
G1 X98.433 Y54.612 E3.65058
G1 X98.874 Y55.864 E3.66066
G1 X99.199 Y57.151 E3.67074
G1 X99.405 Y58.462 E3.68083
G1 X99.490 Y59.786 E3.69091
G1 X99.454 Y61.113 E3.70100
G1 X99.331 Y62.206 E3.70935
G1 X99.018 Y63.729 E3.72116
G1 X98.623 Y64.996 E3.73125
G1 X98.113 Y66.222 E3.74133
G1 X97.607 Y67.198 E3.74968
G1 X96.901 Y68.321 E3.75977
G1 X96.094 Y69.375 E3.76985
G1 X95.194 Y70.351 E3.77994
G1 X94.209 Y71.241 E3.79002
G1 X93.146 Y72.036 E3.80010
G1 X92.015 Y72.731 E3.81019
G1 X90.826 Y73.320 E3.82027
G1 X89.370 Y73.867 E3.83209
G1 X88.310 Y74.159 E3.84044
G1 X87.005 Y74.402 E3.85052
G1 X86.567 Y74.441 E3.85386
G1 X83.437 Y74.441 E3.87765
G1 X82.985 Y74.400 E3.88109
G1 X81.772 Y74.176 E3.89047
G1 X80.339 Y73.770 E3.90178
G1 X80.097 Y73.685 E3.90373
G1 X78.723 Y73.109 E3.91505
G1 X77.635 Y72.528 E3.92442
G1 X76.392 Y71.705 E3.93574
G1 X76.188 Y71.551 E3.93769
G1 X75.053 Y70.586 E3.94900
G1 X74.024 Y69.508 E3.96032
G1 X73.260 Y68.540 E3.96969
G1 X72.450 Y67.290 E3.98101
G1 X71.773 Y65.963 E3.99233
G1 X71.248 Y64.605 E4.00339
G1 X71.158 Y64.329 E4.00559
G1 X70.792 Y62.885 E4.01691
G1 X70.602 Y61.666 E4.02629
G1 X70.513 Y60.179 E4.03760
G1 X70.583 Y58.611 E4.04953
G1 X70.775 Y57.298 E4.05961
G1 X71.087 Y56.008 E4.06969
G1 X71.434 Y54.964 E4.07805
G1 X71.956 Y53.744 E4.08813
G1 X72.588 Y52.577 E4.09821
G1 X73.282 Y51.534 E4.10773
G1 X73.528 Y51.611 F7800.000
G4 P31
G1 X74.486 Y50.443 E4.11920 F1500.000
G1 X75.258 Y49.661 E4.12755
G1 X76.227 Y48.832 E4.13724
G1 X77.314 Y48.059 E4.14738
G1 X78.627 Y47.312 E4.15885
G1 X79.629 Y46.859 E4.16720
G1 X80.830 Y46.432 E4.17689
G1 X82.123 Y46.100 E4.18703
G1 X83.616 Y45.874 E4.19850
G1 X84.713 Y45.809 E4.20685
G1 X85.988 Y45.842 E4.21654
G1 X87.516 Y46.030 E4.22824 F1500.000
G1 X88.789 Y46.319 E4.23815
G1 X90.029 Y46.723 E4.24806
G1 X91.228 Y47.239 E4.25798
G1 X92.197 Y47.757 E4.26633
G1 X93.292 Y48.467 E4.27624
G1 X94.317 Y49.274 E4.28615
G1 X95.264 Y50.172 E4.29606
G1 X96.125 Y51.152 E4.30598
G1 X97.004 Y52.380 E4.31745
G1 X97.656 Y53.510 E4.32736
G1 X98.201 Y54.696 E4.33728
G1 X98.636 Y55.926 E4.34719
G1 X98.956 Y57.191 E4.35710
G1 X99.159 Y58.480 E4.36702
G1 X99.244 Y59.782 E4.37693
G1 X99.222 Y60.881 E4.38528
G1 X99.087 Y62.178 E4.39519
G1 X98.782 Y63.658 E4.40667
G1 X98.394 Y64.903 E4.41658
G1 X97.894 Y66.108 E4.42649
G1 X97.389 Y67.085 E4.43484
G1 X96.693 Y68.188 E4.44475
G1 X95.899 Y69.224 E4.45467
G1 X95.014 Y70.183 E4.46458
G1 X94.045 Y71.056 E4.47449
G1 X93.000 Y71.838 E4.48441
G1 X91.888 Y72.520 E4.49432
G1 X90.718 Y73.098 E4.50423
G1 X89.305 Y73.630 E4.51571
G1 X88.245 Y73.921 E4.52406
G1 X86.962 Y74.160 E4.53397
G1 X86.567 Y74.195 E4.53698
G1 X83.437 Y74.195 E4.56076
G1 X83.030 Y74.157 E4.56387
G1 X81.816 Y73.934 E4.57324
G1 X80.190 Y73.457 E4.58612
G1 X79.048 Y72.990 E4.59549
G1 X77.751 Y72.311 E4.60662
G1 X76.346 Y71.362 E4.61949
G1 X75.230 Y70.414 E4.63062
G1 X74.218 Y69.356 E4.64175
G1 X73.453 Y68.388 E4.65112
G1 X72.658 Y67.158 E4.66224
G1 X71.993 Y65.853 E4.67337
G1 X71.478 Y64.518 E4.68424
G1 X71.396 Y64.266 E4.68625
G1 X71.035 Y62.847 E4.69738
G1 X70.846 Y61.628 E4.70675
G1 X70.759 Y60.166 E4.71787
G1 X70.827 Y58.645 E4.72944
G1 X71.015 Y57.354 E4.73936
G1 X71.321 Y56.085 E4.74927
G1 X71.667 Y55.042 E4.75762
G1 X72.182 Y53.843 E4.76753
G1 X72.803 Y52.696 E4.77745
G1 X73.485 Y51.673 E4.78679
G1 E2.78679 F1920.00000
G92 E0
G1 X86.645 Y71.282 F7800.000
G1 E2.00000 F1920.00000
G1 X86.645 Y69.547 E2.01317 F1500.000
G1 X87.546 Y69.353 E2.02018
G1 X88.538 Y69.023 E2.02812
G1 X89.488 Y68.587 E2.03606
G1 X90.385 Y68.052 E2.04400
G1 X91.220 Y67.422 E2.05194
G1 X91.981 Y66.706 E2.05988
G1 X92.660 Y65.912 E2.06782
G1 X93.249 Y65.049 E2.07576
G1 X93.742 Y64.127 E2.08370
G1 X94.132 Y63.157 E2.09164
G1 X94.414 Y62.151 E2.09958
G1 X94.586 Y61.120 E2.10752
G1 X94.646 Y60.077 E2.11546
G1 X94.592 Y59.033 E2.12340
G1 X94.425 Y58.001 E2.13134
G1 X94.148 Y56.994 E2.13928
G1 X93.764 Y56.022 E2.14722
G1 X93.276 Y55.098 E2.15516
G1 X92.692 Y54.231 E2.16310
G1 X92.017 Y53.433 E2.17104
G1 X91.260 Y52.713 E2.17898
G1 X90.429 Y52.079 E2.18692
G1 X89.534 Y51.539 E2.19486
G1 X88.587 Y51.098 E2.20279
G1 X87.621 Y50.768 E2.21055
G1 X86.576 Y50.536 E2.21868
G1 X85.538 Y50.422 E2.22662
G1 X84.493 Y50.421 E2.23456
G1 X83.453 Y50.532 E2.24250
G1 X82.433 Y50.756 E2.25044
G1 X81.442 Y51.088 E2.25838
G1 X80.493 Y51.526 E2.26632
G1 X79.597 Y52.064 E2.27426
G1 X78.764 Y52.696 E2.28220
G1 X78.005 Y53.414 E2.29014
G1 X77.328 Y54.210 E2.29808
G1 X76.741 Y55.075 E2.30602
G1 X76.259 Y55.983 E2.31383
G1 X75.864 Y56.968 E2.32189
G1 X75.584 Y57.976 E2.32984
G1 X75.415 Y59.007 E2.33778
G1 X75.358 Y60.052 E2.34573
G1 X75.425 Y61.183 E2.35433
G1 X75.624 Y62.300 E2.36295
G1 X75.953 Y63.385 E2.37157
G1 X76.407 Y64.425 E2.38019
G1 X76.980 Y65.404 E2.38880
G1 X77.664 Y66.308 E2.39742
G1 X78.450 Y67.127 E2.40604
G1 X79.326 Y67.847 E2.41466
G1 X80.281 Y68.460 E2.42327
G1 X81.301 Y68.956 E2.43189
G1 X82.369 Y69.328 E2.44048
G1 X83.359 Y69.557 E2.44821
G1 X83.359 Y71.280 E2.46130
G1 X82.373 Y71.099 E2.46893
G1 X81.252 Y70.770 E2.47780
G1 X80.171 Y70.329 E2.48667
G1 X79.170 Y69.794 E2.49529
G1 X78.173 Y69.125 E2.50441
G1 X77.278 Y68.376 E2.51328
G1 X76.464 Y67.539 E2.52215
G1 X75.740 Y66.623 E2.53102
G1 X75.115 Y65.637 E2.53989
G1 X74.593 Y64.592 E2.54876
G1 X74.182 Y63.500 E2.55763
G1 X73.885 Y62.370 E2.56650
G1 X73.706 Y61.217 E2.57537
G1 X73.646 Y60.049 E2.58425
G1 X73.693 Y59.012 E2.59214
G1 X73.836 Y57.981 E2.60005
G1 X74.072 Y56.968 E2.60795
G1 X74.400 Y55.981 E2.61585
G1 X74.817 Y55.028 E2.62376
G1 X75.319 Y54.117 E2.63166
G1 X75.903 Y53.256 E2.63956
G1 X76.563 Y52.452 E2.64746
G1 X77.293 Y51.711 E2.65537
G1 X78.089 Y51.041 E2.66327
G1 X78.942 Y50.446 E2.67117
G1 X79.846 Y49.932 E2.67908
G1 X80.794 Y49.503 E2.68698
G1 X81.777 Y49.162 E2.69488
G1 X82.787 Y48.912 E2.70279
G1 X83.815 Y48.756 E2.71069
G1 X84.854 Y48.695 E2.71859
G1 X85.864 Y48.728 E2.72628
G1 X86.926 Y48.858 E2.73440
G1 X87.942 Y49.081 E2.74230
G1 X88.933 Y49.396 E2.75020
G1 X89.892 Y49.801 E2.75811
G1 X90.809 Y50.291 E2.76601
G1 X91.678 Y50.863 E2.77391
G1 X92.490 Y51.513 E2.78182
G1 X93.240 Y52.234 E2.78972
G1 X93.921 Y53.020 E2.79762
G1 X94.527 Y53.866 E2.80553
G1 X95.053 Y54.763 E2.81343
G1 X95.494 Y55.705 E2.82133
G1 X95.848 Y56.684 E2.82924
G1 X96.111 Y57.690 E2.83714
G1 X96.280 Y58.717 E2.84504
G1 X96.355 Y59.754 E2.85295
G1 X96.334 Y60.794 E2.86085
G1 X96.219 Y61.828 E2.86875
G1 X96.009 Y62.847 E2.87665
G1 X95.707 Y63.842 E2.88456
G1 X95.315 Y64.806 E2.89246
G1 X94.837 Y65.730 E2.90036
G1 X94.276 Y66.606 E2.90827
G1 X93.637 Y67.427 E2.91617
G1 X92.926 Y68.186 E2.92407
G1 X92.148 Y68.877 E2.93198
G1 X91.311 Y69.494 E2.93988
G1 X90.420 Y70.032 E2.94778
G1 X89.484 Y70.486 E2.95569
G1 X88.510 Y70.852 E2.96359
G1 X87.507 Y71.128 E2.97149
G1 X86.719 Y71.268 E2.97758
G1 X86.460 Y71.543 F7800.000
G1 X86.418 Y71.506 E2.97800 F1500.000
G1 X86.398 Y71.424 E2.97864
G1 X86.398 Y69.460 E2.99357
G1 X86.418 Y69.378 E2.99420
G1 X86.460 Y69.341 E2.99463
G1 X86.524 Y69.322 E2.99514
G1 X87.481 Y69.115 E3.00258
G1 X88.447 Y68.793 E3.01032
G1 X89.373 Y68.369 E3.01805
G1 X90.248 Y67.847 E3.02579
G1 X91.061 Y67.234 E3.03353
G1 X91.802 Y66.536 E3.04126
G1 X92.464 Y65.762 E3.04900
G1 X93.038 Y64.921 E3.05674
G1 X93.518 Y64.023 E3.06447
G1 X93.898 Y63.078 E3.07221
G1 X94.173 Y62.097 E3.07995
G1 X94.341 Y61.093 E3.08768
G1 X94.399 Y60.076 E3.09542
G1 X94.347 Y59.059 E3.10316
G1 X94.184 Y58.054 E3.11089
G1 X93.914 Y57.072 E3.11863
G1 X93.540 Y56.125 E3.12637
G1 X93.065 Y55.224 E3.13410
G1 X92.495 Y54.380 E3.14184
G1 X91.837 Y53.603 E3.14958
G1 X91.100 Y52.901 E3.15731
G1 X90.290 Y52.283 E3.16505
G1 X89.418 Y51.756 E3.17279
G1 X88.495 Y51.327 E3.18052
G1 X87.554 Y51.006 E3.18808
G1 X86.536 Y50.780 E3.19600
G1 X85.524 Y50.668 E3.20373
G1 X84.506 Y50.667 E3.21147
G1 X83.493 Y50.776 E3.21921
G1 X82.498 Y50.994 E3.22694
G1 X81.533 Y51.318 E3.23468
G1 X80.608 Y51.744 E3.24242
G1 X79.735 Y52.269 E3.25016
G1 X78.924 Y52.884 E3.25789
G1 X78.184 Y53.584 E3.26563
G1 X77.524 Y54.360 E3.27337
G1 X76.952 Y55.202 E3.28110
G1 X76.483 Y56.087 E3.28871
G1 X76.098 Y57.047 E3.29657
G1 X75.825 Y58.029 E3.30431
G1 X75.660 Y59.034 E3.31205
G1 X75.605 Y60.052 E3.31979
G1 X75.670 Y61.154 E3.32818
G1 X75.864 Y62.242 E3.33658
G1 X76.185 Y63.300 E3.34498
G1 X76.627 Y64.313 E3.35337
G1 X77.185 Y65.267 E3.36177
G1 X77.852 Y66.148 E3.37017
G1 X78.617 Y66.946 E3.37856
G1 X79.471 Y67.648 E3.38696
G1 X80.401 Y68.245 E3.39536
G1 X81.395 Y68.728 E3.40376
G1 X82.437 Y69.091 E3.41214
G1 X83.563 Y69.351 E3.42092
G1 X83.598 Y69.404 E3.42140
G1 X83.606 Y69.460 E3.42182
G1 X83.606 Y71.424 E3.43675
G1 X83.586 Y71.506 E3.43739
G1 X83.544 Y71.543 E3.43781
G1 X83.471 Y71.551 E3.43837
G1 X82.315 Y71.339 E3.44730
G1 X81.171 Y71.003 E3.45636
G1 X80.066 Y70.552 E3.46543
G1 X79.043 Y70.005 E3.47424
G1 X78.025 Y69.322 E3.48355
G1 X77.110 Y68.557 E3.49261
G1 X76.279 Y67.702 E3.50168
G1 X75.539 Y66.766 E3.51074
G1 X74.900 Y65.758 E3.51980
G1 X74.367 Y64.691 E3.52886
G1 X73.947 Y63.575 E3.53793
G1 X73.644 Y62.421 E3.54699
G1 X73.460 Y61.242 E3.55605
G1 X73.399 Y60.050 E3.56513
G1 X73.447 Y58.989 E3.57319
G1 X73.593 Y57.936 E3.58127
G1 X73.834 Y56.901 E3.58934
G1 X74.170 Y55.892 E3.59742
G1 X74.595 Y54.919 E3.60549
G1 X75.109 Y53.988 E3.61357
G1 X75.705 Y53.108 E3.62164
G1 X76.379 Y52.287 E3.62971
G1 X77.126 Y51.530 E3.63779
G1 X77.939 Y50.845 E3.64586
G1 X78.811 Y50.237 E3.65394
G1 X79.735 Y49.712 E3.66201
G1 X80.703 Y49.273 E3.67009
G1 X81.707 Y48.925 E3.67816
G1 X82.739 Y48.670 E3.68624
G1 X83.790 Y48.511 E3.69431
G1 X84.851 Y48.449 E3.70239
G1 X85.883 Y48.482 E3.71024
G1 X86.968 Y48.615 E3.71854
G1 X88.006 Y48.843 E3.72661
G1 X89.019 Y49.165 E3.73469
G1 X89.998 Y49.578 E3.74276
G1 X90.935 Y50.079 E3.75084
G1 X91.823 Y50.664 E3.75891
G1 X92.653 Y51.327 E3.76698
G1 X93.419 Y52.064 E3.77506
G1 X94.115 Y52.868 E3.78313
G1 X94.734 Y53.732 E3.79121
G1 X95.271 Y54.649 E3.79928
G1 X95.722 Y55.611 E3.80736
G1 X96.084 Y56.611 E3.81543
G1 X96.352 Y57.639 E3.82351
G1 X96.525 Y58.688 E3.83158
G1 X96.601 Y59.748 E3.83966
G1 X96.580 Y60.810 E3.84773
G1 X96.462 Y61.867 E3.85581
G1 X96.248 Y62.908 E3.86388
G1 X95.939 Y63.925 E3.87196
G1 X95.539 Y64.909 E3.88003
