; generated by PrusaSlicer 2.0.0+linux64 on 2019-06-24 at 20:39:49

; 

; external perimeters extrusion width = 0.56mm
; perimeters extrusion width = 0.56mm
; infill extrusion width = 0.56mm
; solid infill extrusion width = 0.56mm
; top infill extrusion width = 0.50mm
; first layer extrusion width = 0.70mm

M201 X9000 Y9000 Z500 E10000 ; sets maximum accelerations, mm/sec^2
M203 X500 Y500 Z12 E120 ; sets maximum feedrates, mm/sec
M204 P1500 R1500 T1500 ; sets acceleration (P, T) and retract acceleration (R), mm/sec^2
M205 X10.00 Y10.00 Z0.20 E2.50 ; sets the jerk limits, mm/sec
M205 S0 T0 ; sets the minimum extruding and travel feed rate, mm/sec
M107
M190 S80 ; set bed temperature and wait for it to be reached
M104 S235 ; set temperature
G28 ; home all axes
G1 Z5 F5000 ; lift nozzle
; Filament gcode
M109 S235 ; set temperature and wait for it to be reached
G21 ; set units to millimeters
G90 ; use absolute coordinates
M82 ; use absolute distances for extrusion
G92 E0
G1 Z0.350 F10800.000
G1 E-2.00000 F2400.00000
G92 E0
G1 X68.492 Y38.648 F10800.000
G1 E2.00000 F2400.00000
G1 F1800
G1 X68.743 Y37.932 E2.02120
G1 X69.096 Y37.260 E2.04240
G1 X69.542 Y36.647 E2.06360
G1 X70.074 Y36.105 E2.08480
G1 X70.679 Y35.647 E2.10600
G1 X71.344 Y35.282 E2.12720
G1 X72.056 Y35.018 E2.14840
G1 X72.798 Y34.861 E2.16960
G1 X96.506 Y34.813 E2.83186
G1 X97.484 Y34.907 E2.85932
G1 X98.422 Y35.182 E2.88663
G1 X99.292 Y35.629 E2.91394
G1 X100.063 Y36.230 E2.94125
G1 X100.707 Y36.965 E2.96856
G1 X101.202 Y37.809 E2.99586
G1 X101.531 Y38.735 E3.02333
G1 X101.679 Y39.701 E3.05064
G1 X101.687 Y120.011 E5.29406
G1 X101.508 Y121.352 E5.33183
G1 X101.253 Y122.078 E5.35335
G1 X100.896 Y122.754 E5.37470
G1 X100.443 Y123.370 E5.39606
G1 X99.905 Y123.913 E5.41742
G1 X99.293 Y124.371 E5.43877
G1 X98.615 Y124.737 E5.46029
G1 X97.895 Y124.996 E5.48164
G1 X97.140 Y125.147 E5.50316
G1 X73.472 Y125.187 E6.16433
G1 X72.148 Y125.008 E6.20163
G1 X71.376 Y124.732 E6.22456
G1 X70.656 Y124.338 E6.24748
G1 X70.007 Y123.835 E6.27040
G1 X69.450 Y123.241 E6.29317
G1 X68.989 Y122.561 E6.31610
G1 X68.642 Y121.818 E6.33902
G1 X68.417 Y121.034 E6.36179
G1 X68.318 Y120.220 E6.38471
G1 X68.313 Y39.989 E8.62594
G1 X68.482 Y38.723 E8.66161
G1 X69.640 Y37.568 F10800.000
G1 F1800
G1 X70.513 Y36.551 E8.69907
G1 X71.650 Y35.830 E8.73666
G1 X72.947 Y35.471 E8.77426
G1 X96.505 Y35.438 E9.43236
G1 X97.365 Y35.521 E9.45649
G1 X98.194 Y35.764 E9.48063
G1 X98.963 Y36.160 E9.50477
G1 X99.647 Y36.697 E9.52906
G1 X100.213 Y37.349 E9.55320
G1 X100.646 Y38.097 E9.57733
G1 X100.931 Y38.913 E9.60147
G1 X101.056 Y39.768 E9.62561
G1 X101.062 Y120.011 E11.86717
G1 X100.902 Y121.199 E11.90068
G1 X100.675 Y121.840 E11.91968
G1 X100.355 Y122.441 E11.93867
G1 X99.949 Y122.986 E11.95767
G1 X99.467 Y123.466 E11.97667
G1 X98.918 Y123.868 E11.99567
G1 X98.317 Y124.185 E12.01467
G1 X97.674 Y124.409 E12.03366
G1 X97.006 Y124.534 E12.05266
G1 X73.474 Y124.562 E12.71003
G1 X72.301 Y124.402 E12.74310
G1 X71.621 Y124.157 E12.76327
G1 X70.989 Y123.809 E12.78345
G1 X70.419 Y123.365 E12.80362
G1 X69.927 Y122.836 E12.82379
G1 X69.524 Y122.237 E12.84397
G1 X69.221 Y121.582 E12.86414
G1 X69.025 Y120.886 E12.88432
G1 X68.941 Y120.169 E12.90449
G1 X68.938 Y39.989 E15.14428
G1 X69.098 Y38.801 E15.17779
G1 X69.610 Y37.637 E15.21329
G1 X70.177 Y37.888 F10800.000
G1 F1800
G1 X70.947 Y37.003 E15.24608
G1 X71.943 Y36.384 E15.27883
G1 X73.076 Y36.086 E15.31157
G1 X96.505 Y36.063 E15.96604
G1 X97.250 Y36.135 E15.98696
G1 X97.969 Y36.347 E16.00788
G1 X98.634 Y36.691 E16.02880
G1 X99.222 Y37.155 E16.04972
G1 X99.711 Y37.722 E16.07064
G1 X100.084 Y38.371 E16.09156
G1 X100.328 Y39.079 E16.11248
G1 X100.433 Y39.825 E16.13354
G1 X100.437 Y120.005 E18.37332
G1 X100.297 Y121.041 E18.40254
G1 X99.817 Y122.121 E18.43556
G1 X99.038 Y123.010 E18.46857
G1 X98.030 Y123.628 E18.50159
G1 X96.885 Y123.918 E18.53460
G1 X73.480 Y123.937 E19.18839
G1 X72.459 Y123.797 E19.21721
G1 X71.325 Y123.282 E19.25198
G1 X70.409 Y122.439 E19.28675
G1 X69.802 Y121.352 E19.32153
G1 X69.565 Y120.131 E19.35630
G1 X69.563 Y39.995 E21.59485
G1 X69.703 Y38.959 E21.62407
G1 X70.147 Y37.957 E21.65467
G1 X70.713 Y38.210 F10800.000
G1 F1800
G1 X71.371 Y37.462 E21.68250
G1 X72.225 Y36.943 E21.71040
G1 X73.194 Y36.702 E21.73831
G1 X96.504 Y36.688 E22.38948
G1 X97.135 Y36.749 E22.40716
G1 X97.741 Y36.929 E22.42485
G1 X98.303 Y37.221 E22.44253
G1 X98.799 Y37.615 E22.46021
G1 X99.210 Y38.096 E22.47790
G1 X99.523 Y38.646 E22.49558
G1 X99.725 Y39.246 E22.51326
G1 X99.810 Y39.873 E22.53095
G1 X99.812 Y120.004 E24.76938
G1 X99.694 Y120.880 E24.79405
G1 X99.284 Y121.795 E24.82208
G1 X98.618 Y122.546 E24.85011
G1 X97.755 Y123.066 E24.87826
G1 X96.779 Y123.301 E24.90628
G1 X73.487 Y123.312 E25.55696
G1 X72.620 Y123.194 E25.58138
G1 X71.663 Y122.757 E25.61077
G1 X70.891 Y122.041 E25.64016
G1 X70.383 Y121.120 E25.66956
G1 X70.189 Y120.091 E25.69882
G1 X70.188 Y39.996 E27.93625
G1 X70.306 Y39.120 E27.96093
G1 X70.683 Y38.279 E27.98668
G1 E25.98668 F2400.00000
G92 E0
G1 X94.806 Y99.370 F10800.000
G1 E2.00000 F2400.00000
G1 F1800
G1 X94.882 Y100.000 E2.01772
G1 X94.806 Y100.630 E2.03545
G1 X94.581 Y101.223 E2.05317
G1 X94.220 Y101.745 E2.07090
G1 X93.745 Y102.166 E2.08862
G1 X93.183 Y102.461 E2.10635
G1 X92.567 Y102.613 E2.12407
G1 X91.933 Y102.613 E2.14180
G1 X91.317 Y102.461 E2.15952
G1 X90.755 Y102.166 E2.17725
G1 X90.280 Y101.745 E2.19497
G1 X89.919 Y101.223 E2.21270
G1 X89.694 Y100.630 E2.23042
G1 X89.618 Y100.000 E2.24815
G1 X89.694 Y99.370 E2.26587
G1 X89.919 Y98.777 E2.28360
G1 X90.280 Y98.255 E2.30132
G1 X90.755 Y97.834 E2.31905
G1 X91.317 Y97.539 E2.33677
G1 X91.933 Y97.387 E2.35450
G1 X92.567 Y97.387 E2.37222
G1 X93.183 Y97.539 E2.38995
G1 X93.745 Y97.834 E2.40767
G1 X94.220 Y98.255 E2.42540
G1 X94.581 Y98.777 E2.44312
G1 X94.779 Y99.300 E2.45875
G1 X94.194 Y99.521 F10800.000
G1 F1800
G1 X94.253 Y100.000 E2.47224
G1 X94.194 Y100.479 E2.48573
G1 X94.023 Y100.931 E2.49921
G1 X93.749 Y101.328 E2.51270
G1 X93.388 Y101.648 E2.52618
G1 X92.960 Y101.872 E2.53967
G1 X92.491 Y101.988 E2.55316
G1 X92.009 Y101.988 E2.56664
G1 X91.540 Y101.872 E2.58013
G1 X91.112 Y101.648 E2.59361
G1 X90.751 Y101.328 E2.60710
G1 X90.477 Y100.931 E2.62059
G1 X90.306 Y100.479 E2.63407
G1 X90.247 Y100.000 E2.64756
G1 X90.306 Y99.521 E2.66104
G1 X90.477 Y99.069 E2.67453
G1 X90.751 Y98.672 E2.68801
G1 X91.112 Y98.352 E2.70150
G1 X91.540 Y98.128 E2.71499
G1 X92.009 Y98.012 E2.72847
G1 X92.491 Y98.012 E2.74196
G1 X92.960 Y98.128 E2.75544
G1 X93.388 Y98.352 E2.76893
G1 X93.749 Y98.672 E2.78242
G1 X94.023 Y99.069 E2.79590
G1 X94.168 Y99.451 E2.80729
G1 X94.658 Y99.655 F10800.000
G1 X94.900 Y98.022
G1 F1800
G1 X94.103 Y97.316 E2.83705
G1 X93.407 Y96.950 E2.85902
G1 X92.643 Y96.762 E2.88098
G1 X91.857 Y96.762 E2.90295
G1 X91.093 Y96.950 E2.92491
G1 X90.397 Y97.316 E2.94687
G1 X89.600 Y98.022 E2.97664
G1 X89.600 Y61.978 E3.98353
G1 X90.359 Y62.651 E4.01188
G1 X91.078 Y63.046 E4.03479
G1 X91.857 Y63.238 E4.05719
G1 X92.643 Y63.238 E4.07916
G1 X93.407 Y63.050 E4.10112
G1 X94.103 Y62.684 E4.12309
G1 X94.900 Y61.978 E4.15285
G1 X94.900 Y97.947 E5.15764
G1 E3.15764 F2400.00000
G92 E0
G1 X94.900 Y101.978 F10800.000
G1 E2.00000 F2400.00000
G1 F1800
G1 X94.900 Y118.400 E2.45876
G1 X89.600 Y118.400 E2.60682
G1 X89.600 Y101.978 E3.06558
G1 X90.397 Y102.684 E3.09534
G1 X91.093 Y103.050 E3.11731
G1 X91.857 Y103.238 E3.13927
G1 X92.643 Y103.238 E3.16123
G1 X93.407 Y103.050 E3.18320
G1 X94.103 Y102.684 E3.20516
G1 X94.844 Y102.027 E3.23283
G1 E1.23283 F2400.00000
G92 E0
G1 X94.900 Y58.022 F10800.000
G1 E2.00000 F2400.00000
G1 F1800
G1 X94.141 Y57.349 E2.02835
G1 X93.422 Y56.954 E2.05126
G1 X92.643 Y56.762 E2.07367
G1 X91.857 Y56.762 E2.09563
G1 X91.093 Y56.950 E2.11759
G1 X90.397 Y57.316 E2.13956
G1 X89.600 Y58.022 E2.16932
G1 X89.600 Y41.600 E2.62808
G1 X94.900 Y41.600 E2.77614
G1 X94.900 Y57.947 E3.23280
G1 X94.220 Y58.255 F10800.000
G1 F1800
G1 X94.581 Y58.777 E3.25053
G1 X94.806 Y59.370 E3.26825
G1 X94.882 Y60.000 E3.28598
G1 X94.806 Y60.630 E3.30370
G1 X94.581 Y61.223 E3.32143
G1 X94.220 Y61.745 E3.33915
G1 X93.745 Y62.166 E3.35688
G1 X93.183 Y62.461 E3.37460
G1 X92.567 Y62.613 E3.39233
G1 X91.933 Y62.613 E3.41005
G1 X91.307 Y62.459 E3.42805
G1 X90.722 Y62.137 E3.44672
G1 X90.280 Y61.745 E3.46320
G1 X89.919 Y61.223 E3.48093
G1 X89.694 Y60.630 E3.49865
G1 X89.618 Y60.000 E3.51638
G1 X89.694 Y59.370 E3.53410
G1 X89.919 Y58.777 E3.55183
G1 X90.280 Y58.255 E3.56955
G1 X90.755 Y57.834 E3.58728
G1 X91.317 Y57.539 E3.60500
G1 X91.933 Y57.387 E3.62273
G1 X92.567 Y57.387 E3.64045
G1 X93.193 Y57.541 E3.65845
G1 X93.778 Y57.863 E3.67712
G1 X94.164 Y58.205 E3.69151
G1 X93.749 Y58.672 F10800.000
G1 F1800
G1 X94.023 Y59.069 E3.70500
G1 X94.194 Y59.521 E3.71848
G1 X94.253 Y60.000 E3.73197
G1 X94.194 Y60.479 E3.74545
G1 X94.023 Y60.931 E3.75894
G1 X93.749 Y61.328 E3.77242
G1 X93.388 Y61.648 E3.78591
G1 X92.960 Y61.872 E3.79940
G1 X92.491 Y61.988 E3.81288
G1 X92.009 Y61.988 E3.82637
G1 X91.537 Y61.872 E3.83995
G1 X91.084 Y61.623 E3.85438
G1 X90.751 Y61.328 E3.86680
G1 X90.477 Y60.931 E3.88029
G1 X90.306 Y60.479 E3.89377
G1 X90.247 Y60.000 E3.90726
G1 X90.306 Y59.521 E3.92074
G1 X90.477 Y59.069 E3.93423
G1 X90.751 Y58.672 E3.94772
G1 X91.112 Y58.352 E3.96120
G1 X91.540 Y58.128 E3.97469
G1 X92.009 Y58.012 E3.98817
G1 X92.491 Y58.012 E4.00166
G1 X92.963 Y58.128 E4.01524
G1 X93.416 Y58.377 E4.02967
G1 X93.693 Y58.622 E4.04000
G1 X94.222 Y58.576 F10800.000
G1 E2.04000 F2400.00000
G92 E0
G1 X95.525 Y40.975 F10800.000
G1 E2.00000 F2400.00000
G1 F1800
G1 X95.525 Y119.025 E4.18030
G1 X88.975 Y119.025 E4.36328
G1 X88.975 Y40.975 E6.54358
G1 X95.450 Y40.975 E6.72447
G1 X96.150 Y40.350 F10800.000
G1 F1800
G1 X96.150 Y119.650 E8.93968
G1 X88.350 Y119.650 E9.15757
G1 X88.350 Y40.350 E11.37278
G1 X96.075 Y40.350 E11.58858
G1 X96.134 Y40.850 F10800.000
G1 E9.58858 F2400.00000
G92 E0
G1 X94.713 Y43.088 F10800.000
G1 E2.00000 F2400.00000
G1 F1800
G1 X93.693 Y42.068 E2.04144
G1 X92.784 Y42.068 E2.06756
G1 X94.432 Y43.716 E2.13452
G1 X94.432 Y44.625 E2.16064
G1 X91.875 Y42.068 E2.26453
G1 X90.966 Y42.068 E2.29065
G1 X94.432 Y45.534 E2.43149
G1 X94.432 Y46.443 E2.45761
G1 X90.068 Y42.080 E2.63491
G1 X90.068 Y42.989 E2.66102
G1 X94.432 Y47.352 E2.83832
G1 X94.432 Y48.261 E2.86444
G1 X90.068 Y43.898 E3.04174
G1 X90.068 Y44.807 E3.06786
G1 X94.432 Y49.170 E3.24516
G1 X94.432 Y50.079 E3.27128
G1 X90.068 Y45.716 E3.44858
G1 X90.068 Y46.625 E3.47470
G1 X94.432 Y50.988 E3.65200
G1 X94.432 Y51.897 E3.67812
G1 X90.068 Y47.534 E3.85542
G1 X90.068 Y48.443 E3.88154
G1 X94.432 Y52.806 E4.05884
G1 X94.432 Y53.715 E4.08496
G1 X90.068 Y49.352 E4.26226
G1 X90.068 Y50.261 E4.28838
G1 X94.432 Y54.624 E4.46568
G1 X94.432 Y55.533 E4.49180
G1 X90.068 Y51.170 E4.66910
G1 X90.068 Y52.079 E4.69522
G1 X94.432 Y56.442 E4.87252
G1 X94.432 Y56.981 E4.88800
G1 X93.595 Y56.514 E4.91553
G1 X90.068 Y52.988 E5.05882
G1 X90.068 Y53.897 E5.08494
G1 X92.465 Y56.294 E5.18232
G1 X91.800 Y56.294 E5.20143
G1 X91.604 Y56.342 E5.20722
G1 X90.068 Y54.806 E5.26963
G1 X90.068 Y55.715 E5.29575
G1 X90.884 Y56.531 E5.32889
G1 X90.288 Y56.844 E5.34824
G1 X89.787 Y56.343 E5.36859
G1 X89.841 Y58.275 F10800.000
G1 F1800
G1 X89.570 Y58.582 E5.37094
G1 X89.287 Y58.943 E5.37356
G1 X89.406 Y58.914 F10800.000
G1 F1800
G1 X89.373 Y59.095 E5.37517
G1 X89.340 Y59.276 E5.37641
G1 X89.338 Y59.289 E5.37647
G1 X89.327 Y59.478 E5.37733
G1 X89.406 Y58.914 F10800.000
G1 F1800
G1 X89.439 Y58.733 E5.37932
G1 X89.472 Y58.553 E5.38167
G1 X89.327 Y60.522 F10800.000
G1 F1800
G1 X89.338 Y60.711 E5.38254
G1 X89.340 Y60.724 E5.38259
G1 X89.373 Y60.905 E5.38383
G1 X89.406 Y61.086 E5.38544
G1 X89.439 Y61.267 E5.38742
G1 X89.472 Y61.447 E5.38977
G1 X89.287 Y61.057 F10800.000
G1 F1800
G1 X89.570 Y61.418 E5.39240
G1 X89.841 Y61.725 E5.39475
G1 E3.39475 F2400.00000
G92 E0
G1 X94.659 Y61.725 F10800.000
G1 E2.00000 F2400.00000
G1 F1800
G1 X94.795 Y61.572 E2.00117
G1 X94.930 Y61.418 E2.00275
G1 X95.213 Y61.057 E2.00644
G1 X95.094 Y61.086 F10800.000
G1 F1800
G1 X95.127 Y60.905 E2.00805
G1 X95.160 Y60.724 E2.00929
G1 X95.162 Y60.711 E2.00935
G1 X95.173 Y60.522 E2.01021
G1 X95.094 Y61.086 F10800.000
G1 F1800
G1 X95.061 Y61.267 E2.01219
G1 X95.028 Y61.447 E2.01455
G1 X95.173 Y59.478 F10800.000
G1 F1800
G1 X95.162 Y59.289 E2.01542
G1 X95.094 Y58.914 E2.01720
G1 X95.028 Y58.553 E2.02116
G1 X94.930 Y58.582 F10800.000
G1 F1800
G1 X94.795 Y58.428 E2.02274
G1 X94.659 Y58.275 E2.02391
G1 X94.930 Y58.582 F10800.000
G1 F1800
G1 X95.213 Y58.943 E2.02761
G1 E0.02761 F2400.00000
G92 E0
G1 X94.713 Y63.638 F10800.000
G1 E2.00000 F2400.00000
G1 F1800
G1 X94.224 Y63.150 E2.01958
G1 X93.636 Y63.458 E2.03839
G1 X94.432 Y64.253 E2.07025
G1 X94.432 Y65.150 E2.09566
G1 X92.931 Y63.649 E2.15578
G1 X92.700 Y63.706 E2.16253
G1 X92.092 Y63.706 E2.17976
G1 X94.432 Y66.046 E2.27353
G1 X94.432 Y66.943 E2.29893
G1 X90.998 Y63.509 E2.43654
G1 X90.906 Y63.486 E2.43920
G1 X90.068 Y63.019 E2.46638
G1 X90.068 Y63.476 E2.47933
G1 X94.432 Y67.839 E2.65417
G1 X94.432 Y68.735 E2.67957
G1 X90.068 Y64.372 E2.85441
G1 X90.068 Y65.269 E2.87981
G1 X94.432 Y69.632 E3.05466
G1 X94.432 Y70.528 E3.08006
G1 X90.068 Y66.165 E3.25490
G1 X90.068 Y67.062 E3.28030
G1 X94.432 Y71.425 E3.45514
G1 X94.432 Y72.321 E3.48054
G1 X90.068 Y67.958 E3.65538
G1 X90.068 Y68.854 E3.68078
G1 X94.432 Y73.218 E3.85563
G1 X94.432 Y74.114 E3.88103
G1 X90.068 Y69.751 E4.05587
G1 X90.068 Y70.647 E4.08127
G1 X94.432 Y75.010 E4.25611
G1 X94.432 Y75.907 E4.28151
G1 X90.068 Y71.544 E4.45635
G1 X90.068 Y72.440 E4.48175
G1 X94.432 Y76.803 E4.65659
G1 X94.432 Y77.700 E4.68199
G1 X90.068 Y73.336 E4.85684
G1 X90.068 Y74.233 E4.88224
G1 X94.432 Y78.596 E5.05708
G1 X94.432 Y79.492 E5.08248
G1 X90.068 Y75.129 E5.25732
G1 X90.068 Y76.026 E5.28272
G1 X94.432 Y80.389 E5.45756
G1 X94.432 Y81.285 E5.48296
G1 X90.068 Y76.922 E5.65780
G1 X90.068 Y77.818 E5.68320
G1 X94.432 Y82.182 E5.85805
G1 X94.432 Y83.078 E5.88345
G1 X90.068 Y78.715 E6.05829
G1 X90.068 Y79.611 E6.08369
G1 X94.432 Y83.974 E6.25853
G1 X94.432 Y84.871 E6.28393
G1 X90.068 Y80.508 E6.45877
G1 X90.068 Y81.404 E6.48417
G1 X94.432 Y85.767 E6.65901
G1 X94.432 Y86.664 E6.68441
G1 X90.068 Y82.301 E6.85926
G1 X90.068 Y83.197 E6.88466
G1 X94.432 Y87.560 E7.05950
G1 X94.432 Y88.456 E7.08490
G1 X90.068 Y84.093 E7.25974
G1 X90.068 Y84.990 E7.28514
G1 X94.432 Y89.353 E7.45998
G1 X94.432 Y90.249 E7.48538
G1 X90.068 Y85.886 E7.66022
G1 X90.068 Y86.783 E7.68562
G1 X94.432 Y91.146 E7.86046
G1 X94.432 Y92.042 E7.88586
G1 X90.068 Y87.679 E8.06071
G1 X90.068 Y88.575 E8.08611
G1 X94.432 Y92.939 E8.26095
G1 X94.432 Y93.835 E8.28635
G1 X90.068 Y89.472 E8.46119
G1 X90.068 Y90.368 E8.48659
G1 X94.432 Y94.731 E8.66143
G1 X94.432 Y95.628 E8.68683
G1 X90.068 Y91.265 E8.86167
G1 X90.068 Y92.161 E8.88707
G1 X94.432 Y96.524 E9.06191
G1 X94.432 Y96.981 E9.07486
G1 X94.371 Y96.927 E9.07716
G1 X93.574 Y96.509 E9.10266
G1 X93.502 Y96.491 E9.10475
G1 X90.068 Y93.057 E9.24235
G1 X90.068 Y93.954 E9.26775
G1 X92.408 Y96.294 E9.36151
G1 X91.800 Y96.294 E9.37875
G1 X91.569 Y96.351 E9.38550
G1 X90.068 Y94.850 E9.44562
G1 X90.068 Y95.747 E9.47102
G1 X90.864 Y96.542 E9.50288
G1 X90.276 Y96.850 E9.52169
G1 X89.787 Y96.362 E9.54127
G1 X89.841 Y98.275 F10800.000
G1 F1800
G1 X89.570 Y98.582 E9.54361
G1 X89.287 Y98.943 E9.54624
G1 X89.406 Y98.914 F10800.000
G1 F1800
G1 X89.373 Y99.095 E9.54785
G1 X89.340 Y99.276 E9.54908
G1 X89.338 Y99.289 E9.54914
G1 X89.327 Y99.478 E9.55001
G1 X89.406 Y98.914 F10800.000
G1 F1800
G1 X89.439 Y98.733 E9.55199
G1 X89.472 Y98.553 E9.55434
G1 X89.327 Y100.522 F10800.000
G1 F1800
G1 X89.338 Y100.711 E9.55521
G1 X89.340 Y100.724 E9.55527
G1 X89.373 Y100.905 E9.55650
G1 X89.406 Y101.086 E9.55811
G1 X89.439 Y101.267 E9.56010
G1 X89.472 Y101.447 E9.56245
G1 X89.287 Y101.057 F10800.000
G1 F1800
G1 X89.570 Y101.418 E9.56508
G1 X89.841 Y101.725 E9.56742
G1 E7.56742 F2400.00000
G92 E0
G1 X94.659 Y101.725 F10800.000
G1 E2.00000 F2400.00000
G1 F1800
G1 X94.795 Y101.572 E2.00117
G1 X94.930 Y101.418 E2.00275
G1 X95.213 Y101.057 E2.00645
G1 X95.094 Y101.086 F10800.000
G1 F1800
