; generated by Slic3r 1.2.9 on 2016-05-14 at 15:52:23

; external perimeters extrusion width = 0.50mm
; perimeters extrusion width = 0.50mm
; infill extrusion width = 0.50mm
; solid infill extrusion width = 0.50mm
; top infill extrusion width = 0.50mm

M107
M190 S70 ; set bed temperature
M104 S220 ; set temperature
G28 ; home all axes
M109 S220 ; wait for temperature to be reached
G21 ; set units to millimeters
G90 ; use absolute coordinates
M82 ; use absolute distances for extrusion
G92 E0
G1 Z0.350 F7800.000
G1 E-2.00000 F1920.00000
G92 E0
G1 X43.079 Y23.624 F7800.000
G1 E2.00000 F1920.00000
M204 S3000
G1 X44.207 Y21.930 E2.02786 F1800.000
G1 X45.897 Y20.794 E2.05572
G1 X47.914 Y20.390 E2.08387
G1 X122.086 Y20.390 E3.09884
G1 X124.083 Y20.786 E3.12670
G1 X125.778 Y21.914 E3.15456 F1800.000
G1 X126.913 Y23.604 E3.18242
G1 X127.318 Y25.621 E3.21057
G1 X127.318 Y94.379 E4.15145
G1 X126.921 Y96.376 E4.17931
G1 X125.793 Y98.070 E4.20717
G1 X124.103 Y99.206 E4.23504
G1 X122.086 Y99.610 E4.26319
G1 X47.914 Y99.610 E5.27815
G1 X45.917 Y99.214 E5.30601
G1 X44.222 Y98.086 E5.33388
G1 X43.087 Y96.396 E5.36174
G1 X42.682 Y94.379 E5.38989
G1 X42.682 Y25.621 E6.33077
G1 X43.064 Y23.698 E6.35760
G1 X43.524 Y23.717 F7800.000
G4 P29
G1 X44.647 Y22.125 E6.38425 F1800.000
G1 X46.309 Y21.113 E6.41088
G1 X47.914 Y20.836 E6.43317
G1 X122.086 Y20.836 E7.44814
G1 X123.991 Y21.232 E7.47477
G1 X125.582 Y22.354 E7.50141 F1800.000
G1 X126.594 Y24.016 E7.52804
G1 X126.871 Y25.621 E7.55033
G1 X126.871 Y94.379 E8.49121
G1 X126.475 Y96.284 E8.51784
G1 X125.353 Y97.875 E8.54448
G1 X123.691 Y98.887 E8.57111
G1 X122.086 Y99.164 E8.59340
G1 X47.914 Y99.164 E9.60837
G1 X46.009 Y98.768 E9.63500
G1 X44.418 Y97.646 E9.66163
G1 X43.406 Y95.984 E9.68827
G1 X43.129 Y94.379 E9.71056
G1 X43.129 Y25.621 E10.65143
G1 X43.509 Y23.790 E10.67703
G1 X43.970 Y23.814 F7800.000
G4 P29
G1 X45.085 Y22.332 E10.70241 F1800.000
G1 X46.714 Y21.451 E10.72775
G1 X47.914 Y21.282 E10.74433
G1 X122.086 Y21.282 E11.75930
G1 X123.895 Y21.678 E11.78465
G1 X125.375 Y22.792 E11.81000 F1800.000
G1 X126.256 Y24.422 E11.83534
G1 X126.425 Y25.621 E11.85192
G1 X126.425 Y94.379 E12.79280
G1 X126.029 Y96.188 E12.81815
G1 X124.915 Y97.668 E12.84350
G1 X123.286 Y98.549 E12.86884
G1 X122.086 Y98.718 E12.88542
G1 X47.914 Y98.718 E13.90039
G1 X46.105 Y98.322 E13.92574
G1 X44.625 Y97.208 E13.95109
G1 X43.744 Y95.578 E13.97643
G1 X43.575 Y94.379 E13.99301
G1 X43.575 Y25.621 E14.93389
G1 X43.954 Y23.887 E14.95818
G1 X44.415 Y23.917 F7800.000
G4 P29
G1 X45.521 Y22.551 E14.98222 F1800.000
G1 X47.914 Y21.729 E15.01685
G1 X122.086 Y21.729 E16.03182
G1 X123.794 Y22.123 E16.05581
G1 X125.156 Y23.228 E16.07981 F1800.000
G1 X125.978 Y25.621 E16.11444
G1 X125.978 Y94.379 E17.05532
G1 X125.584 Y96.087 E17.07931
G1 X124.479 Y97.449 E17.10330
G1 X122.086 Y98.271 E17.13793
G1 X47.914 Y98.271 E18.15290
G1 X46.206 Y97.877 E18.17689
G1 X44.844 Y96.772 E18.20088
G1 X44.022 Y94.379 E18.23552
G1 X44.022 Y25.621 E19.17639
G1 X44.399 Y23.990 E19.19930
G1 X44.861 Y24.027 F7800.000
G4 P29
G1 X45.954 Y22.786 E19.22193 F1800.000
G1 X47.914 Y22.175 E19.25003
G1 X122.086 Y22.175 E20.26499
G1 X123.686 Y22.569 E20.28755
G1 X124.921 Y23.662 E20.31010 F1800.000
G1 X125.532 Y25.621 E20.33820
G1 X125.532 Y94.379 E21.27907
G1 X125.138 Y95.979 E21.30163
G1 X124.046 Y97.214 E21.32419
G1 X122.086 Y97.825 E21.35228
G1 X47.914 Y97.825 E22.36725
G1 X46.314 Y97.431 E22.38980
G1 X45.079 Y96.338 E22.41236
G1 X44.468 Y94.379 E22.44045
G1 X44.468 Y25.621 E23.38133
G1 X44.843 Y24.100 E23.40277
G1 E21.40277 F1920.00000
G92 E0
G1 X58.997 Y83.369 F7800.000
G1 E2.00000 F1920.00000
G1 X59.241 Y83.704 E2.00567 F1800.000
G1 X59.393 Y84.089 E2.01133
G1 X59.445 Y84.500 E2.01700
G1 X59.393 Y84.911 E2.02267
G1 X59.241 Y85.296 E2.02833
G1 X58.997 Y85.631 E2.03400
G1 X58.678 Y85.895 E2.03967
G1 X58.303 Y86.071 E2.04533
G1 X57.897 Y86.149 E2.05100
G1 X57.483 Y86.123 E2.05666
G1 X57.090 Y85.995 E2.06233
G1 X56.740 Y85.773 E2.06800
G1 X56.456 Y85.471 E2.07366
G1 X56.257 Y85.108 E2.07933
G1 X56.154 Y84.707 E2.08500
G1 X56.154 Y84.293 E2.09066
G1 X56.245 Y83.938 E2.09568
G1 X56.454 Y83.532 E2.10193
G1 X56.740 Y83.227 E2.10765
G1 X57.090 Y83.005 E2.11331
G1 X57.483 Y82.877 E2.11898
G1 X57.849 Y82.854 E2.12400 F1800.000
G1 X58.300 Y82.927 E2.13025
G1 X58.678 Y83.105 E2.13596
G1 X58.939 Y83.321 E2.14060
G1 X59.404 Y83.292 F7800.000
G1 E0.14060 F1920.00000
G92 E0
G4 P29
G1 X58.772 Y86.837 F7800.000
G1 E2.00000 F1920.00000
G1 X58.772 Y93.236 E2.08756 F1800.000
G1 X49.057 Y93.236 E2.22049
G1 X49.057 Y83.521 E2.35343
G1 X55.430 Y83.521 E2.44064
G1 X55.261 Y84.180 E2.44995
G1 X55.261 Y84.820 E2.45870
G1 X55.420 Y85.439 E2.46746
G1 X55.728 Y86.000 E2.47621
G1 X56.166 Y86.466 E2.48496
G1 X56.706 Y86.809 E2.49372
G1 X57.315 Y87.007 E2.50247
G1 X57.953 Y87.047 E2.51122
G1 X58.581 Y86.927 E2.51997
G1 X58.704 Y86.869 E2.52182
G1 X59.218 Y86.028 F7800.000
G1 X59.218 Y93.682 E2.62657 F1800.000
G1 X48.611 Y93.682 E2.77172
G1 X48.611 Y83.075 E2.91687
G1 X56.187 Y83.075 E3.02055
G1 X55.825 Y83.778 E3.03137
G1 X55.708 Y84.237 E3.03784
G1 X55.708 Y84.763 E3.04505
G1 X55.839 Y85.274 E3.05226
G1 X56.092 Y85.735 E3.05947
G1 X56.453 Y86.120 E3.06668
G1 X56.898 Y86.402 E3.07389
G1 X57.399 Y86.565 E3.08110
G1 X57.925 Y86.598 E3.08831
G1 X58.442 Y86.499 E3.09552
G1 X58.919 Y86.275 E3.10273
G1 X59.160 Y86.075 E3.10701
G1 E1.10701 F1920.00000
G92 E0
G1 X55.445 Y36.479 F7800.000
G1 E2.00000 F1920.00000
G1 X49.057 Y36.479 E2.08742 F1800.000
G1 X49.057 Y26.764 E2.22036
G1 X58.772 Y26.764 E2.35329
G1 X58.772 Y33.163 E2.44085
G1 X58.567 Y33.066 E2.44394
G1 X57.893 Y32.957 E2.45328
G4 P3
G1 X57.315 Y32.993 E2.46121
G1 X56.706 Y33.191 E2.46997
G1 X56.166 Y33.534 E2.47872
G1 X55.728 Y34.000 E2.48747
G1 X55.420 Y34.561 E2.49623
G1 X55.261 Y35.180 E2.50498
G1 X55.261 Y35.836 E2.51395
G1 X55.425 Y36.407 E2.52207
G1 X56.197 Y36.925 F7800.000
G4 P6
G1 X48.611 Y36.925 E2.62588 F1800.000
G1 X48.611 Y26.318 E2.77103
G1 X59.218 Y26.318 E2.91618
G1 X59.218 Y33.972 E3.02093
G1 X58.919 Y33.725 E3.02624
G1 X58.434 Y33.497 E3.03358
G1 X57.871 Y33.406 E3.04138
G1 X57.399 Y33.435 E3.04785
G1 X56.898 Y33.598 E3.05506
G1 X56.453 Y33.880 E3.06227
G1 X56.092 Y34.265 E3.06948
G1 X55.839 Y34.726 E3.07669
G1 X55.708 Y35.237 E3.08390
G1 X55.708 Y35.773 E3.09124
G1 X55.864 Y36.321 E3.09904
G1 X56.161 Y36.859 E3.10745
G1 X56.561 Y36.583 F7800.000
G1 X56.456 Y36.471 E3.10954 F1800.000
G1 X56.280 Y36.150 E3.11456
G1 X56.154 Y35.711 E3.12081
G1 X56.154 Y35.293 E3.12653
G1 X56.257 Y34.892 E3.13219
G1 X56.456 Y34.529 E3.13786
G1 X56.740 Y34.227 E3.14352
G1 X57.090 Y34.005 E3.14919
G1 X57.483 Y33.877 E3.15486
G1 X57.849 Y33.854 E3.15988 F1800.000
G1 X58.300 Y33.927 E3.16613
G1 X58.678 Y34.105 E3.17184
G1 X58.997 Y34.369 E3.17751
G1 X59.241 Y34.704 E3.18317
G1 X59.393 Y35.089 E3.18884
G1 X59.445 Y35.500 E3.19451
G1 X59.393 Y35.911 E3.20017
G1 X59.241 Y36.296 E3.20584
G1 X58.997 Y36.631 E3.21151
G1 X58.678 Y36.895 E3.21717
G1 X58.303 Y37.071 E3.22284
G1 X57.897 Y37.149 E3.22851
G1 X57.483 Y37.123 E3.23417
G1 X57.090 Y36.995 E3.23984
G1 X56.740 Y36.773 E3.24551
G1 X56.613 Y36.637 E3.24805
G1 X56.412 Y36.618 F7800.000
G1 E1.24805 F1920.00000
G92 E0
G1 X114.092 Y83.265 F7800.000
G1 E2.00000 F1920.00000
G1 X114.453 Y82.880 E2.00721 F1800.000
G1 X114.898 Y82.598 E2.01442
G1 X115.399 Y82.435 E2.02163
G1 X115.871 Y82.406 E2.02810 F1800.000
G1 X116.434 Y82.497 E2.03590
G1 X116.919 Y82.725 E2.04324
G1 X117.325 Y83.061 E2.05045
G1 X117.635 Y83.487 E2.05766
G1 X117.829 Y83.977 E2.06487
G1 X117.895 Y84.500 E2.07208
G1 X117.829 Y85.023 E2.07929
G1 X117.635 Y85.513 E2.08650
G1 X117.325 Y85.939 E2.09371
G1 X116.919 Y86.275 E2.10092
G1 X116.442 Y86.499 E2.10813
G1 X115.925 Y86.598 E2.11534
G1 X115.399 Y86.565 E2.12255
G1 X114.949 Y86.418 E2.12902
G1 X114.460 Y86.127 E2.13682
G1 X114.092 Y85.735 E2.14416
G1 X113.839 Y85.274 E2.15137
G1 X113.708 Y84.763 E2.15858
G1 X113.708 Y84.237 E2.16579
G1 X113.839 Y83.726 E2.17300
G1 X114.056 Y83.330 E2.17918
G1 X114.456 Y83.529 F7800.000
G4 P29
G1 X114.740 Y83.227 E2.18485 F1800.000
G1 X115.090 Y83.005 E2.19052
G1 X115.483 Y82.877 E2.19618
G1 X115.849 Y82.854 E2.20120 F1800.000
G1 X116.300 Y82.927 E2.20745
G1 X116.678 Y83.105 E2.21317
G1 X116.997 Y83.369 E2.21883
G1 X117.241 Y83.704 E2.22450
G1 X117.393 Y84.089 E2.23017
G1 X117.445 Y84.500 E2.23583
G1 X117.393 Y84.911 E2.24150
G1 X117.241 Y85.296 E2.24717
G1 X116.997 Y85.631 E2.25283
G1 X116.678 Y85.895 E2.25850
G1 X116.303 Y86.071 E2.26417
G1 X115.897 Y86.149 E2.26983
G1 X115.483 Y86.123 E2.27550
G1 X115.135 Y86.009 E2.28052
G1 X114.742 Y85.775 E2.28677
G1 X114.456 Y85.471 E2.29248
G1 X114.257 Y85.108 E2.29815
G1 X114.154 Y84.707 E2.30381
G1 X114.154 Y84.293 E2.30948
G1 X114.257 Y83.892 E2.31515
G1 X114.420 Y83.595 E2.31979
G4 P8
G1 X114.304 Y83.144 F7800.000
G1 X113.343 Y85.479 F7800.000
G1 X60.128 Y85.479 E3.04798 F1800.000
G1 X60.264 Y85.135 E3.05304
G1 X60.372 Y84.281 E3.06481
G1 X61.027 Y84.936 E3.07748
G1 X112.559 Y84.936 E3.78265
G1 X113.261 Y84.233 E3.79624
G4 P0
G1 X113.261 Y84.820 E3.80426
G1 X113.425 Y85.458 E3.81327
G1 X113.728 Y86.000 E3.82178
G1 X114.177 Y86.478 E3.83075
G1 X114.763 Y86.827 E3.84009
G1 X115.315 Y87.007 E3.84802
G1 X115.953 Y87.047 E3.85677
G1 X116.581 Y86.927 E3.86553
G1 X117.160 Y86.655 E3.87428
G1 X117.653 Y86.247 E3.88303
G1 X118.029 Y85.729 E3.89178
G1 X118.264 Y85.135 E3.90054
G1 X118.345 Y84.500 E3.90929
G1 X118.264 Y83.865 E3.91804
G1 X118.029 Y83.271 E3.92680
G1 X117.653 Y82.753 E3.93555
G1 X117.160 Y82.345 E3.94430
G1 X116.567 Y82.066 E3.95327
G1 X115.893 Y81.957 E3.96261
G1 X115.514 Y81.981 E3.96782
G4 P20
G1 X116.228 Y81.266 E3.98165
G1 X116.228 Y38.734 E4.56366
G1 X115.514 Y38.019 E4.57749
G1 X115.953 Y38.047 E4.58352
G4 P18
G1 X116.581 Y37.927 E4.59227
G1 X117.160 Y37.655 E4.60102
G1 X117.653 Y37.247 E4.60978
G1 X118.029 Y36.729 E4.61853
G1 X118.264 Y36.135 E4.62728
G1 X118.345 Y35.500 E4.63603
G1 X118.264 Y34.865 E4.64479
G1 X118.029 Y34.271 E4.65354
G1 X117.653 Y33.753 E4.66229
G1 X117.160 Y33.345 E4.67105
G1 X116.567 Y33.066 E4.68002
G1 X115.893 Y32.957 E4.68936
G1 X115.315 Y32.993 E4.69729
G1 X114.706 Y33.191 E4.70604
G1 X114.166 Y33.534 E4.71480
G1 X113.728 Y34.000 E4.72355
G1 X113.425 Y34.542 E4.73205
G1 X113.261 Y35.180 E4.74106
G1 X113.261 Y35.767 E4.74909
G1 X112.559 Y35.064 E4.76267
G1 X61.027 Y35.064 E5.46785
G1 X60.372 Y35.719 E5.48051
G4 P2
G1 X60.264 Y34.865 E5.49228
G1 X60.128 Y34.521 E5.49734
G1 X113.343 Y34.521 E6.22554
G1 X113.228 Y34.492 E6.22715
G1 X113.228 Y26.764 E6.33290
G1 X120.943 Y26.764 E6.43847
G1 X120.943 Y93.236 E7.34808
G1 X113.228 Y93.236 E7.45364
G1 X113.228 Y85.508 E7.55939
G1 X113.270 Y85.497 E7.55999
G1 E5.55999 F1920.00000
G92 E0
G1 X115.925 Y37.598 F7800.000
G1 E2.00000 F1920.00000
G1 X115.399 Y37.565 E2.00721 F1800.000
G1 X114.898 Y37.402 E2.01442
G1 X114.453 Y37.120 E2.02163
G1 X114.092 Y36.735 E2.02884
G1 X113.839 Y36.274 E2.03605
G1 X113.708 Y35.763 E2.04326
G1 X113.708 Y35.237 E2.05047
G1 X113.839 Y34.726 E2.05768
G1 X114.092 Y34.265 E2.06489
G1 X114.453 Y33.880 E2.07210
G1 X114.898 Y33.598 E2.07931
G1 X115.399 Y33.435 E2.08652
G1 X115.871 Y33.406 E2.09299 F1800.000
G1 X116.434 Y33.497 E2.10079
G1 X116.919 Y33.725 E2.10813
G1 X117.325 Y34.061 E2.11534
G1 X117.635 Y34.487 E2.12255
G1 X117.829 Y34.977 E2.12976
G1 X117.895 Y35.500 E2.13697
G1 X117.829 Y36.023 E2.14418
G1 X117.635 Y36.513 E2.15139
G1 X117.325 Y36.939 E2.15860
G1 X116.919 Y37.275 E2.16581
G1 X116.442 Y37.499 E2.17302
G1 X115.999 Y37.584 E2.17920
G1 X115.897 Y37.149 F7800.000
G1 X115.483 Y37.123 E2.18487 F1800.000
G1 X115.090 Y36.995 E2.19053
G1 X114.740 Y36.773 E2.19620
G1 X114.456 Y36.471 E2.20187
G1 X114.257 Y36.108 E2.20753
G1 X114.154 Y35.707 E2.21320
G1 X114.154 Y35.293 E2.21887
G1 X114.257 Y34.892 E2.22453
G1 X114.456 Y34.529 E2.23020
G1 X114.740 Y34.227 E2.23587
G1 X115.090 Y34.005 E2.24153
G1 X115.483 Y33.877 E2.24720
G1 X115.849 Y33.854 E2.25222 F1800.000
G1 X116.300 Y33.927 E2.25847
G1 X116.678 Y34.105 E2.26418
G1 X116.997 Y34.369 E2.26985
G1 X117.241 Y34.704 E2.27551
G1 X117.393 Y35.089 E2.28118
G1 X117.445 Y35.500 E2.28685
G1 X117.393 Y35.911 E2.29251
G1 X117.241 Y36.296 E2.29818
G1 X116.997 Y36.631 E2.30385
G1 X116.678 Y36.895 E2.30951
G1 X116.303 Y37.071 E2.31518
G1 X115.970 Y37.135 E2.31982
G1 X115.697 Y37.512 F7800.000
G1 X114.954 Y38.091 F7800.000
G1 X115.782 Y38.919 E2.33584 F1800.000
G1 X115.782 Y81.081 E2.91279
G1 X112.374 Y84.489 E2.97874
G1 X61.212 Y84.489 E3.67886
G1 X57.804 Y81.081 E3.74481
G1 X57.804 Y38.919 E4.32176
G1 X61.212 Y35.511 E4.38771
G1 X112.374 Y35.511 E5.08782 F1800.000
G1 X114.901 Y38.038 E5.13673
G1 X114.639 Y38.407 F7800.000
G4 P29
G1 X115.336 Y39.104 E5.15022 F1800.000
G1 X115.336 Y80.896 E5.72211
G1 X112.189 Y84.043 E5.78300
G1 X61.396 Y84.043 E6.47805
G1 X58.250 Y80.896 E6.53894
G1 X58.250 Y39.104 E7.11084
G1 X61.396 Y35.957 E7.17173
G1 X112.189 Y35.957 E7.86678 F1800.000
G1 X114.586 Y38.354 E7.91316
G1 X115.122 Y38.277 F7800.000
G1 E5.91316 F1920.00000
G92 E0
G1 X58.039 Y38.052 F7800.000
G1 E2.00000 F1920.00000
G1 X57.357 Y38.734 E2.01319 F1800.000
G1 X57.357 Y81.266 E2.59521
G1 X58.039 Y81.948 E2.60840
G4 P1
G1 X57.315 Y81.993 E2.61833
G1 X56.814 Y82.156 E2.62553
G1 X56.814 Y37.844 E3.23190
G1 X57.315 Y38.007 E3.23910
G1 X57.964 Y38.047 E3.24800
G1 E1.24800 F1920.00000
G92 E0
G1 X112.782 Y34.075 F7800.000
G1 E2.00000 F1920.00000
G1 X112.782 Y26.318 E2.10615 F1800.000
G1 X121.389 Y26.318 E2.22393
G1 X121.389 Y93.682 E3.14576
G1 X112.782 Y93.682 E3.26354
G1 X112.782 Y85.925 E3.36969
G1 X59.335 Y85.925 E4.10106
G1 X59.635 Y85.513 E4.10804
G1 X59.829 Y85.023 E4.11525
G1 X59.895 Y84.500 E4.12246
G1 X59.829 Y83.977 E4.12967
G1 X59.635 Y83.487 E4.13687
G1 X59.325 Y83.061 E4.14408
G1 X58.919 Y82.725 E4.15129
G1 X58.434 Y82.497 E4.15864
G1 X57.871 Y82.406 E4.16643
G1 X57.399 Y82.435 E4.17291
G1 X56.898 Y82.598 E4.18012
G1 X56.368 Y82.935 E4.18871
G1 X56.368 Y37.065 E4.81638
G1 X56.898 Y37.402 E4.82497
G1 X57.399 Y37.565 E4.83218
G1 X57.925 Y37.598 E4.83939
G1 X58.442 Y37.499 E4.84660
G1 X58.919 Y37.275 E4.85381
G1 X59.325 Y36.939 E4.86102
G1 X59.635 Y36.513 E4.86823
G1 X59.829 Y36.023 E4.87544
G1 X59.895 Y35.500 E4.88265
G1 X59.829 Y34.977 E4.88986
G1 X59.635 Y34.487 E4.89707
G1 X59.335 Y34.075 E4.90404
G1 X112.707 Y34.075 E5.63439
G1 X112.336 Y33.629 F7800.000
G1 X112.336 Y25.871 E5.74054 F1800.000
G1 X121.836 Y25.871 E5.87054
G1 X121.836 Y94.129 E6.80458
G1 X112.336 Y94.129 E6.93457
G1 X112.336 Y86.371 E7.04073
G1 X59.664 Y86.371 E7.76149
G1 X59.664 Y94.129 E7.86764
G1 X48.164 Y94.129 E8.02500
G1 X48.164 Y82.629 E8.18237
G1 X55.922 Y82.629 E8.28852
G1 X55.922 Y37.371 E8.90783
G1 X48.164 Y37.371 E9.01398
G1 X48.164 Y25.871 E9.17134
G1 X59.664 Y25.871 E9.32871
G1 X59.664 Y33.629 E9.43486
G1 X112.261 Y33.629 E10.15460
G1 X112.836 Y33.629 F7800.000
G1 X113.130 Y34.793 F7800.000
G1 X60.476 Y34.793 E10.87512 F1800.000
G1 E8.87512 F1920.00000
G92 E0
G1 X57.086 Y38.167 F7800.000
G1 E2.00000 F1920.00000
G1 X57.086 Y81.833 E2.59753 F1800.000
G1 X55.053 Y84.010 F7800.000
G1 X54.829 Y83.786 E2.60204 F1800.000
G1 X54.172 Y83.786 E2.61141
G4 P0
G1 X54.997 Y84.611 E2.62804
G1 X55.103 Y85.375 E2.63903
G1 X53.514 Y83.786 E2.67106
G1 X52.857 Y83.786 E2.68043
G1 X58.507 Y89.436 E2.79431
G1 X58.507 Y88.779 E2.80368
G1 X56.921 Y87.192 E2.83565
G1 X57.687 Y87.301 E2.84668
G1 X58.507 Y88.121 E2.86321
G1 X58.507 Y87.464 E2.87258
G1 X58.280 Y87.237 E2.87714
G4 P22
G1 X58.507 Y90.094 F7800.000
G4 P11
G1 X52.199 Y83.786 E3.00427 F1800.000
G1 X51.542 Y83.786 E3.01364
G1 X58.507 Y90.751 E3.15402
G1 X58.507 Y91.408 E3.16339
G1 X50.884 Y83.786 E3.31701
G1 X50.227 Y83.786 E3.32638
G1 X58.507 Y92.066 E3.49326
G1 X58.507 Y92.723 E3.50263
G1 X49.570 Y83.786 E3.68276
G1 X49.322 Y84.195 E3.68958
G1 X58.097 Y92.971 E3.86646
G1 X57.440 Y92.971 E3.87583
G1 X49.322 Y84.853 E4.03946
G1 X49.322 Y85.510 E4.04883
G1 X56.783 Y92.971 E4.19920
G1 X56.125 Y92.971 E4.20857
G1 X49.322 Y86.168 E4.34570
G1 X49.322 Y86.825 E4.35507
G1 X55.468 Y92.971 E4.47894
G1 X54.810 Y92.971 E4.48831
