; generated by Slic3r 1.2.9 on 2016-04-19 at 22:10:45

; external perimeters extrusion width = 0.50mm
; perimeters extrusion width = 0.50mm
; infill extrusion width = 0.50mm
; solid infill extrusion width = 0.50mm
; top infill extrusion width = 0.50mm

M107
M190 S70 ; set bed temperature
M104 S220 ; set temperature
G28 ; home all axes
M109 S220 ; wait for temperature to be reached
G21 ; set units to millimeters
G90 ; use absolute coordinates
M82 ; use absolute distances for extrusion
G92 E0
G1 Z0.350 F7800.000
G1 E-2.00000 F1920.00000
G92 E0
G1 X41.717 Y26.001 F7800.000
G1 E2.00000 F1920.00000
M204 S3000
G1 X42.194 Y25.380 E2.01072 F1800.000
G1 X43.159 Y24.414 E2.02941
G1 X43.781 Y23.937 E2.04012
G1 X44.963 Y23.254 E2.05881
G1 X45.687 Y22.955 E2.06953
G1 X47.006 Y22.601 E2.08822
G1 X47.783 Y22.499 E2.09894
G1 X48.466 Y22.454 E2.10830
G1 X122.466 Y22.454 E3.12092
G1 X123.148 Y22.499 E3.13028
G1 X123.925 Y22.601 E3.14100 F1800.000
G1 X125.244 Y22.955 E3.15969
G1 X125.968 Y23.254 E3.17040
G1 X127.150 Y23.937 E3.18909
G1 X127.733 Y24.384 E3.19914
G1 X128.738 Y25.380 E3.21849
G1 X129.214 Y26.001 E3.22921
G1 X129.897 Y27.184 E3.24790
G1 X130.197 Y27.908 E3.25862
G1 X130.550 Y29.227 E3.27731
G1 X130.661 Y30.066 E3.28890
G1 X134.972 Y66.221 E3.78715
G1 X135.009 Y66.841 E3.79564
G1 X135.009 Y91.792 E4.13708
G1 X134.613 Y93.790 E4.16494
G1 X133.485 Y95.484 E4.19280
G1 X131.795 Y96.620 E4.22066
G1 X129.777 Y97.024 E4.24881
G1 X40.222 Y97.013 E5.47430
G1 X38.225 Y96.616 E5.50216
G1 X36.530 Y95.487 E5.53002
G1 X35.395 Y93.797 E5.55788
G1 X34.991 Y91.781 E5.58602
G1 X34.991 Y66.829 E5.92746
G1 X35.045 Y66.079 E5.93775
G1 X40.390 Y29.160 E6.44822
G1 X40.734 Y27.907 E6.46600
G1 X41.034 Y27.184 E6.47672
G1 X41.679 Y26.066 E6.49438
G1 X42.071 Y26.273 F7800.000
G4 P29
G1 X42.548 Y25.651 E6.50510 F1800.000
G1 X43.431 Y24.768 E6.52219
G1 X44.053 Y24.291 E6.53291
G1 X45.134 Y23.667 E6.55000
G1 X45.858 Y23.367 E6.56072
G1 X47.064 Y23.044 E6.57781
G1 X47.841 Y22.941 E6.58853
G1 X48.466 Y22.901 E6.59709
G1 X122.466 Y22.901 E7.60971
G1 X123.090 Y22.941 E7.61828
G1 X123.867 Y23.044 E7.62899 F1800.000
G1 X125.073 Y23.367 E7.64609
G1 X125.797 Y23.667 E7.65681
G1 X126.879 Y24.291 E7.67390
G1 X127.500 Y24.768 E7.68462
G1 X128.383 Y25.651 E7.70171
G1 X128.860 Y26.273 E7.71243
G1 X129.485 Y27.355 E7.72952
G1 X129.785 Y28.078 E7.74024
G1 X130.108 Y29.285 E7.75734
G1 X134.529 Y66.274 E8.26710
G1 X134.563 Y66.841 E8.27487
G1 X134.563 Y91.792 E8.61631
G1 X134.167 Y93.698 E8.64294
G1 X133.045 Y95.289 E8.66958
G1 X131.383 Y96.301 E8.69621
G1 X129.777 Y96.578 E8.71850
G1 X40.222 Y96.566 E9.94398
G1 X38.316 Y96.170 E9.97062
G1 X36.726 Y95.048 E9.99725
G1 X35.714 Y93.385 E10.02388
G1 X35.437 Y91.781 E10.04616
G1 X35.437 Y66.829 E10.38760
G1 X35.487 Y66.143 E10.39701
G1 X40.832 Y29.224 E10.90749
G1 X41.147 Y28.078 E10.92375
G1 X41.446 Y27.354 E10.93446
G1 X42.033 Y26.338 E10.95053
G1 X42.425 Y26.544 F7800.000
G4 P29
G1 X42.902 Y25.923 E10.96125 F1800.000
G1 X43.703 Y25.122 E10.97675
G1 X44.324 Y24.645 E10.98747
G1 X45.305 Y24.079 E11.00296
G1 X46.029 Y23.779 E11.01368
G1 X47.123 Y23.486 E11.02918
G1 X47.899 Y23.384 E11.03990
G1 X48.466 Y23.347 E11.04767
G1 X122.466 Y23.347 E12.06028
G1 X123.032 Y23.384 E12.06805
G1 X123.808 Y23.486 E12.07877 F1800.000
G1 X124.903 Y23.779 E12.09427
G1 X125.626 Y24.079 E12.10498
G1 X126.607 Y24.645 E12.12048
G1 X127.228 Y25.122 E12.13120
G1 X128.029 Y25.923 E12.14670
G1 X128.506 Y26.544 E12.15742
G1 X129.072 Y27.525 E12.17292
G1 X129.372 Y28.249 E12.18364
G1 X129.665 Y29.343 E12.19914
G1 X134.086 Y66.327 E12.70883
G1 X134.117 Y66.841 E12.71587
G1 X134.117 Y91.792 E13.05731
G1 X133.721 Y93.602 E13.08266
G1 X132.607 Y95.082 E13.10800
G1 X130.977 Y95.962 E13.13335
G1 X129.777 Y96.131 E13.14993
G1 X40.222 Y96.120 E14.37541
G1 X38.412 Y95.724 E14.40076
G1 X36.933 Y94.610 E14.42611
G1 X36.052 Y92.980 E14.45146
G1 X35.883 Y91.781 E14.46803
G1 X35.883 Y66.829 E14.80947
G1 X35.928 Y66.207 E14.81800
G1 X41.274 Y29.288 E15.32848
G1 X41.559 Y28.249 E15.34322
G1 X41.859 Y27.525 E15.35394
G1 X42.388 Y26.609 E15.36841
G1 X42.779 Y26.816 F7800.000
G4 P29
G1 X43.256 Y26.195 E15.37913 F1800.000
G1 X43.975 Y25.476 E15.39303
G1 X44.596 Y24.999 E15.40375
G1 X45.476 Y24.491 E15.41765
G1 X46.199 Y24.192 E15.42837
G1 X47.181 Y23.929 E15.44228
G1 X47.958 Y23.826 E15.45299
G1 X48.466 Y23.793 E15.45996
G1 X122.466 Y23.793 E16.47258
G1 X122.974 Y23.827 E16.47955
G1 X123.750 Y23.929 E16.49026 F1800.000
G1 X124.732 Y24.192 E16.50417
G1 X125.455 Y24.491 E16.51489
G1 X126.335 Y25.000 E16.52879
G1 X126.957 Y25.476 E16.53951
G1 X127.675 Y26.195 E16.55341
G1 X128.152 Y26.816 E16.56413
G1 X128.660 Y27.696 E16.57804
G1 X128.960 Y28.420 E16.58876
G1 X129.223 Y29.401 E16.60266
G1 X133.643 Y66.380 E17.11227
G1 X133.670 Y66.841 E17.11859
G1 X133.670 Y91.792 E17.46003
G1 X133.275 Y93.501 E17.48403
G1 X132.171 Y94.862 E17.50802
G1 X129.777 Y95.685 E17.54265
G1 X40.222 Y95.673 E18.76813
G1 X38.514 Y95.278 E18.79212
G1 X37.152 Y94.174 E18.81612
G1 X36.330 Y91.781 E18.85074
G1 X36.330 Y66.829 E19.19218
G1 X36.370 Y66.271 E19.19983
G1 X41.715 Y29.352 E19.71031
G1 X41.971 Y28.420 E19.72354
G1 X42.271 Y27.696 E19.73425
G1 X42.742 Y26.881 E19.74713
G1 X43.133 Y27.088 F7800.000
G4 P29
G1 X43.610 Y26.466 E19.75785 F1800.000
G1 X44.246 Y25.830 E19.77016
G1 X44.868 Y25.354 E19.78088
G1 X45.647 Y24.904 E19.79319
G1 X46.370 Y24.604 E19.80390
G1 X47.239 Y24.371 E19.81622
G1 X48.016 Y24.269 E19.82693
G1 X48.466 Y24.240 E19.83310
G1 X122.466 Y24.240 E20.84572
G1 X122.915 Y24.269 E20.85189
G1 X123.692 Y24.371 E20.86261 F1800.000
G1 X124.561 Y24.604 E20.87492
G1 X125.284 Y24.904 E20.88563
G1 X126.064 Y25.354 E20.89794
G1 X126.685 Y25.830 E20.90866
G1 X127.321 Y26.467 E20.92097
G1 X127.798 Y27.088 E20.93169
G1 X128.248 Y27.867 E20.94400
G1 X128.547 Y28.591 E20.95472
G1 X128.780 Y29.460 E20.96703
G1 X133.200 Y66.433 E21.47657
G1 X133.224 Y66.841 E21.48216
G1 X133.224 Y91.792 E21.82360
G1 X132.830 Y93.393 E21.84616
G1 X131.737 Y94.627 E21.86872
G1 X129.777 Y95.239 E21.89681
G1 X40.222 Y95.227 E23.12229
G1 X38.622 Y94.833 E23.14485
G1 X37.387 Y93.740 E23.16740
G1 X36.776 Y91.781 E23.19549
G1 X36.776 Y66.829 E23.53693
G1 X36.812 Y66.335 E23.54370
G1 X42.157 Y29.416 E24.05418
G1 X42.384 Y28.591 E24.06589
G1 X42.684 Y27.867 E24.07661
G1 X43.096 Y27.153 E24.08789
G1 E22.08789 F1920.00000
G92 E0
G1 X49.814 Y55.802 F7800.000
G1 E2.00000 F1920.00000
G1 X49.727 Y56.258 E2.00635 F1800.000
G1 X49.529 Y56.678 E2.01271
G1 X49.233 Y57.036 E2.01906
G1 X48.858 Y57.309 E2.02541
G1 X48.426 Y57.480 E2.03176
G1 X47.966 Y57.538 E2.03812
G1 X47.505 Y57.480 E2.04447
G1 X47.073 Y57.309 E2.05082
G1 X46.698 Y57.036 E2.05717
G1 X46.402 Y56.678 E2.06353
G1 X46.204 Y56.258 E2.06988
G1 X46.117 Y55.802 E2.07623
G1 X46.146 Y55.339 E2.08258
G1 X46.290 Y54.897 E2.08894
G1 X46.539 Y54.505 E2.09529
G1 X46.877 Y54.188 E2.10164
G1 X47.284 Y53.964 E2.10799
G1 X47.733 Y53.849 E2.11435
G1 X48.198 Y53.849 E2.12070 F1800.000
G1 X48.647 Y53.964 E2.12705
G1 X49.054 Y54.188 E2.13340
G1 X49.393 Y54.505 E2.13976
G1 X49.641 Y54.897 E2.14611
G1 X49.785 Y55.339 E2.15246
G1 X49.809 Y55.727 E2.15779
G1 X50.189 Y56.075 F7800.000
G1 X47.966 Y36.538 F7800.000
G1 X47.505 Y36.480 E2.16414 F1800.000
G1 X47.073 Y36.309 E2.17049
G1 X46.698 Y36.036 E2.17685
G1 X46.402 Y35.678 E2.18320
G1 X46.204 Y35.258 E2.18955
G1 X46.117 Y34.802 E2.19590
G1 X46.146 Y34.339 E2.20226
G1 X46.290 Y33.897 E2.20861
G1 X46.539 Y33.505 E2.21496
G1 X46.877 Y33.188 E2.22131
G1 X47.284 Y32.964 E2.22767
G1 X47.733 Y32.849 E2.23402
G1 X48.198 Y32.849 E2.24037 F1800.000
G1 X48.647 Y32.964 E2.24672
G1 X49.055 Y33.188 E2.25309
G1 X49.398 Y33.515 E2.25957
G1 X49.641 Y33.897 E2.26578
G1 X49.785 Y34.340 E2.27214
G1 X49.812 Y34.813 E2.27863
G1 X49.727 Y35.258 E2.28483
G1 X49.529 Y35.678 E2.29118
G1 X49.233 Y36.036 E2.29754
G1 X48.858 Y36.309 E2.30389
G1 X48.426 Y36.480 E2.31024
G1 X48.040 Y36.528 E2.31557
G1 X47.717 Y36.930 F7800.000
G1 X121.117 Y34.802 F7800.000
G1 X121.146 Y34.339 E2.32192 F1800.000
G1 X121.290 Y33.897 E2.32827
G1 X121.539 Y33.505 E2.33462
G1 X121.877 Y33.188 E2.34098
G1 X122.284 Y32.964 E2.34733
G1 X122.733 Y32.849 E2.35368
G1 X123.198 Y32.849 E2.36003 F1800.000
G1 X123.648 Y32.964 E2.36640
G1 X124.062 Y33.195 E2.37288
G1 X124.393 Y33.505 E2.37909
G1 X124.641 Y33.897 E2.38544
G1 X124.785 Y34.339 E2.39179
G1 X124.814 Y34.802 E2.39815
G1 X124.727 Y35.258 E2.40450
G1 X124.529 Y35.678 E2.41085
G1 X124.233 Y36.037 E2.41721
G1 X123.848 Y36.313 E2.42370
G1 X123.426 Y36.480 E2.42990
G1 X122.966 Y36.538 E2.43626
G1 X122.505 Y36.480 E2.44261
G1 X122.073 Y36.309 E2.44896
G1 X121.697 Y36.035 E2.45533
G1 X121.397 Y35.668 E2.46181
G1 X121.204 Y35.258 E2.46802
G1 X121.131 Y34.876 E2.47334
G1 X120.710 Y34.579 F7800.000
G1 E0.47334 F1920.00000
G92 E0
G1 X124.323 Y37.085 F7800.000
G1 E2.00000 F1920.00000
G1 X124.323 Y53.318 E2.22214 F1800.000
G1 X123.982 Y53.128 E2.22748
G1 X123.310 Y52.956 E2.23697
G1 X122.621 Y52.956 E2.24641
G1 X121.953 Y53.127 E2.25585
G1 X121.360 Y53.453 E2.26510
G1 X120.847 Y53.929 E2.27467
G1 X120.476 Y54.514 E2.28416
G1 X120.263 Y55.170 E2.29360
G1 X120.219 Y55.859 E2.30304
G1 X120.348 Y56.536 E2.31248
G1 X120.636 Y57.148 E2.32173
G1 X121.079 Y57.690 E2.33130
G1 X121.640 Y58.097 E2.34079
G1 X122.281 Y58.351 E2.35023
G1 X122.966 Y58.438 E2.35967
G1 X123.650 Y58.351 E2.36911
G1 X124.323 Y58.085 E2.37901
G1 X124.323 Y59.611 E2.39990
G1 X124.250 Y60.164 E2.40753
G1 X124.066 Y60.610 E2.41413
G1 X123.772 Y60.992 E2.42073
G1 X123.389 Y61.286 E2.42733
G1 X122.944 Y61.470 E2.43393
G1 X122.391 Y61.543 E2.44156
G1 X48.540 Y61.543 E3.45213
G1 X47.987 Y61.470 E3.45976
G1 X47.542 Y61.286 E3.46636
G1 X47.159 Y60.992 E3.47296
G1 X46.866 Y60.610 E3.47956
G1 X46.681 Y60.164 E3.48616
G1 X46.608 Y59.611 E3.49379
G1 X46.608 Y58.085 E3.51468
G1 X47.281 Y58.351 E3.52458
G1 X47.966 Y58.438 E3.53402
G1 X48.650 Y58.351 E3.54346
G1 X49.291 Y58.097 E3.55290
G1 X49.849 Y57.692 E3.56234
G1 X50.289 Y57.160 E3.57178
G1 X50.583 Y56.536 E3.58122
G1 X50.712 Y55.859 E3.59066
G1 X50.669 Y55.170 E3.60009
G1 X50.455 Y54.514 E3.60953
G1 X50.086 Y53.932 E3.61897
G1 X49.583 Y53.460 E3.62841
G1 X48.979 Y53.127 E3.63785
G1 X48.310 Y52.956 E3.64729
G1 X47.621 Y52.956 E3.65673
G1 X46.953 Y53.127 E3.66617
G1 X46.608 Y53.317 E3.67154
G1 X46.608 Y37.085 E3.89366
G1 X47.281 Y37.351 E3.90357
G1 X47.966 Y37.438 E3.91300
G1 X48.650 Y37.351 E3.92244
G1 X49.291 Y37.097 E3.93188
G1 X49.849 Y36.692 E3.94132
G1 X50.289 Y36.160 E3.95076
G1 X50.583 Y35.536 E3.96020
G1 X50.709 Y34.872 E3.96945
G1 X50.670 Y34.174 E3.97902
G1 X50.455 Y33.514 E3.98851
G1 X50.093 Y32.943 E3.99777
G1 X49.586 Y32.461 E4.00734
G1 X48.979 Y32.127 E4.01682
G1 X48.310 Y31.956 E4.02626
G1 X47.621 Y31.956 E4.03570
G1 X46.953 Y32.127 E4.04514
G1 X46.608 Y32.317 E4.05052
G1 X46.608 Y30.761 E4.07181
G1 X46.681 Y30.208 E4.07944
G1 X46.866 Y29.762 E4.08604
G1 X47.159 Y29.380 E4.09264
G1 X47.542 Y29.086 E4.09924
G1 X47.987 Y28.901 E4.10584
G1 X48.540 Y28.829 E4.11347
G1 X122.391 Y28.829 E5.12404
G1 X122.904 Y28.896 E5.13113
G1 X123.396 Y29.091 E5.13837
G1 X123.772 Y29.380 E5.14485
G1 X124.066 Y29.762 E5.15145
G1 X124.235 Y30.171 E5.15750
G1 X124.323 Y30.770 E5.16579
G1 X124.323 Y32.318 E5.18698
G1 X123.982 Y32.128 E5.19232
G1 X123.310 Y31.956 E5.20181
G1 X122.621 Y31.956 E5.21125
G1 X121.953 Y32.127 E5.22069
G1 X121.348 Y32.460 E5.23012
G1 X120.845 Y32.932 E5.23956
G1 X120.476 Y33.514 E5.24900
G1 X120.263 Y34.170 E5.25844
G1 X120.219 Y34.859 E5.26788
G1 X120.348 Y35.536 E5.27732
G1 X120.636 Y36.148 E5.28657
G1 X121.079 Y36.690 E5.29614
G1 X121.640 Y37.097 E5.30563
G1 X122.281 Y37.351 E5.31507
G1 X122.966 Y37.438 E5.32451
G1 X123.650 Y37.351 E5.33395
G1 X124.253 Y37.112 E5.34283
G1 X124.769 Y36.088 F7800.000
G1 X124.769 Y54.247 E5.59131 F1800.000
G1 X124.327 Y53.832 E5.59960
G1 X123.815 Y53.546 E5.60763
G1 X123.254 Y53.402 E5.61555
G1 X122.677 Y53.402 E5.62345
G1 X122.118 Y53.546 E5.63135
G1 X121.623 Y53.818 E5.63907
G1 X121.193 Y54.217 E5.64710
G1 X120.883 Y54.706 E5.65503
G1 X120.704 Y55.255 E5.66292
G1 X120.668 Y55.830 E5.67082
G1 X120.776 Y56.397 E5.67872
G1 X121.017 Y56.908 E5.68644
G1 X121.388 Y57.363 E5.69447
G1 X121.857 Y57.703 E5.70240
G1 X122.393 Y57.915 E5.71029
G1 X122.966 Y57.988 E5.71819
G1 X123.538 Y57.915 E5.72609
G1 X124.063 Y57.708 E5.73382
G1 X124.540 Y57.366 E5.74184
G1 X124.769 Y57.088 E5.74677
G1 X124.769 Y59.640 E5.78169
G1 X124.685 Y60.281 E5.79052
G1 X124.455 Y60.835 E5.79873
G1 X124.090 Y61.311 E5.80694
G1 X123.614 Y61.676 E5.81515
G1 X123.060 Y61.905 E5.82335
G1 X122.420 Y61.990 E5.83219
G1 X48.511 Y61.990 E6.84356
G1 X47.871 Y61.905 E6.85240
G1 X47.317 Y61.676 E6.86061
G1 X46.841 Y61.311 E6.86881
G1 X46.476 Y60.835 E6.87702
G1 X46.246 Y60.281 E6.88523
G1 X46.162 Y59.640 E6.89407
G1 X46.162 Y57.088 E6.92899
G1 X46.390 Y57.364 E6.93388
G1 X46.857 Y57.703 E6.94178
G1 X47.393 Y57.915 E6.94967
G1 X47.966 Y57.988 E6.95757
G1 X48.538 Y57.915 E6.96546
G1 X49.075 Y57.703 E6.97336
G1 X49.541 Y57.364 E6.98125
G1 X49.909 Y56.919 E6.98915
G1 X50.155 Y56.397 E6.99705
G1 X50.263 Y55.830 E7.00494
G1 X50.227 Y55.255 E7.01284
G1 X50.048 Y54.706 E7.02073
G1 X49.739 Y54.219 E7.02863
G1 X49.319 Y53.824 E7.03653
G1 X48.813 Y53.546 E7.04442
G1 X48.254 Y53.402 E7.05232
G1 X47.677 Y53.402 E7.06021
G1 X47.118 Y53.546 E7.06811
G1 X46.613 Y53.824 E7.07600
G1 X46.162 Y54.247 E7.08446
G1 X46.162 Y36.088 E7.33294
G1 X46.390 Y36.364 E7.33784
G1 X46.857 Y36.703 E7.34573
G1 X47.393 Y36.915 E7.35363
G1 X47.966 Y36.988 E7.36152
G1 X48.538 Y36.915 E7.36942
G1 X49.075 Y36.703 E7.37731
G1 X49.541 Y36.364 E7.38521
G1 X49.909 Y35.919 E7.39311
G1 X50.155 Y35.397 E7.40100
G1 X50.261 Y34.842 E7.40873
G1 X50.227 Y34.257 E7.41676
G1 X50.048 Y33.706 E7.42468
G1 X49.746 Y33.229 E7.43241
G1 X49.320 Y32.825 E7.44044
G1 X48.813 Y32.546 E7.44837
G1 X48.254 Y32.402 E7.45626
G1 X47.677 Y32.402 E7.46416
G1 X47.118 Y32.546 E7.47206
G1 X46.613 Y32.824 E7.47995
G1 X46.162 Y33.247 E7.48841
G1 X46.162 Y30.732 E7.52283
G1 X46.246 Y30.091 E7.53167
G1 X46.476 Y29.537 E7.53987
G1 X46.841 Y29.061 E7.54808
G1 X47.317 Y28.696 E7.55629
G1 X47.871 Y28.467 E7.56450
G1 X48.511 Y28.382 E7.57334
G1 X122.420 Y28.382 E8.58471
G1 X123.017 Y28.461 E8.59295
G1 X123.619 Y28.699 E8.60180
G1 X124.090 Y29.061 E8.60994
G1 X124.455 Y29.537 E8.61814
G1 X124.668 Y30.051 E8.62576
G1 X124.769 Y30.737 E8.63524
G1 X124.769 Y33.247 E8.66959
G1 X124.327 Y32.832 E8.67788
G1 X123.815 Y32.546 E8.68591
G1 X123.254 Y32.402 E8.69384
G1 X122.677 Y32.402 E8.70173
G1 X122.118 Y32.546 E8.70963
G1 X121.613 Y32.824 E8.71752
G1 X121.192 Y33.219 E8.72542
G1 X120.883 Y33.706 E8.73331
G1 X120.704 Y34.255 E8.74121
G1 X120.668 Y34.830 E8.74911
G1 X120.776 Y35.397 E8.75700
G1 X121.017 Y35.908 E8.76473
G1 X121.388 Y36.363 E8.77276
G1 X121.857 Y36.703 E8.78069
G1 X122.393 Y36.915 E8.78858
G1 X122.966 Y36.988 E8.79648
G1 X123.538 Y36.915 E8.80437
G1 X124.063 Y36.708 E8.81210
G1 X124.540 Y36.366 E8.82013
G1 X124.721 Y36.146 E8.82403
G1 X123.198 Y53.849 F7800.000
G1 X123.648 Y53.964 E8.83039 F1800.000
G1 X124.062 Y54.195 E8.83688
G1 X124.393 Y54.505 E8.84308
G1 X124.641 Y54.897 E8.84943
G1 X124.785 Y55.339 E8.85578
G1 X124.814 Y55.802 E8.86214
G1 X124.727 Y56.258 E8.86849
G1 X124.529 Y56.678 E8.87484
G1 X124.233 Y57.037 E8.88121
G1 X123.848 Y57.313 E8.88769
G1 X123.426 Y57.480 E8.89390
G1 X122.966 Y57.538 E8.90025
G1 X122.505 Y57.480 E8.90660
G1 X122.073 Y57.309 E8.91295
G1 X121.697 Y57.035 E8.91932
G1 X121.397 Y56.668 E8.92580
G1 X121.204 Y56.258 E8.93201
G1 X121.117 Y55.802 E8.93836
G1 X121.146 Y55.339 E8.94471
G1 X121.290 Y54.897 E8.95106
G1 X121.539 Y54.505 E8.95743
G1 X121.886 Y54.182 E8.96391
G1 X122.284 Y53.964 E8.97012
G1 X122.733 Y53.849 E8.97647
G1 X123.123 Y53.849 E8.98180 F1800.000
G1 X123.494 Y53.490 F7800.000
G1 X125.216 Y53.849 F7800.000
G1 X125.216 Y59.670 E9.06145 F1800.000
G1 X125.120 Y60.397 E9.07149
G1 X124.845 Y61.060 E9.08131
G1 X124.409 Y61.629 E9.09113
G1 X123.840 Y62.066 E9.10094
G1 X123.177 Y62.340 E9.11076
G1 X122.449 Y62.436 E9.12080
G1 X48.482 Y62.436 E10.13297
