; generated by Slic3r 1.2.9 on 2016-03-28 at 16:34:36

; external perimeters extrusion width = 0.50mm
; perimeters extrusion width = 0.50mm
; infill extrusion width = 0.50mm
; solid infill extrusion width = 0.50mm
; top infill extrusion width = 0.50mm

M107
M190 S70 ; set bed temperature
M104 S220 ; set temperature
G28 ; home all axes
M109 S220 ; wait for temperature to be reached
G21 ; set units to millimeters
G90 ; use absolute coordinates
M82 ; use absolute distances for extrusion
G92 E0
G1 Z0.350 F7800.000
G1 E-2.00000 F1920.00000
G92 E0
G1 X55.569 Y33.145 F7800.000
G1 E2.00000 F1920.00000
M204 S3000
G1 X59.043 Y27.320 E2.09281 F1800.000
G1 X60.406 Y25.808 E2.12067
G1 X62.244 Y24.930 E2.14853
G1 X63.536 Y24.768 E2.16636
G1 X83.536 Y24.768 E2.44004
G1 X84.219 Y24.813 E2.44940
G1 X84.996 Y24.915 E2.46012 F1800.000
G1 X86.315 Y25.269 E2.47881
G1 X87.039 Y25.568 E2.48953
G1 X88.033 Y26.113 E2.50504
G1 X116.602 Y46.077 E2.98198
G1 X124.603 Y52.078 E3.11883
G1 X125.963 Y53.593 E3.14669
G1 X126.695 Y56.263 E3.18458
G1 X126.695 Y64.263 E3.29405
G1 X126.299 Y66.260 E3.32191
G1 X124.603 Y68.448 E3.35980
G1 X116.406 Y74.589 E3.49995
G1 X87.979 Y93.924 E3.97040
G1 X87.038 Y94.432 E3.98502
G1 X86.315 Y94.731 E3.99574
G1 X84.996 Y95.085 E4.01443
G1 X84.219 Y95.187 E4.02514
G1 X83.536 Y95.232 E4.03451
G1 X63.536 Y95.232 E4.30819
G1 X61.539 Y94.836 E4.33605
G1 X59.845 Y93.707 E4.36391
G1 X59.043 Y92.680 E4.38174
G1 X44.535 Y68.357 E4.76929
G1 X44.286 Y67.885 E4.77659
G1 X43.919 Y67.098 E4.78847
G1 X43.485 Y65.647 E4.80920
G1 X43.360 Y64.787 E4.82108
G1 X43.305 Y64.030 E4.83147
G1 X43.305 Y55.970 E4.94177
G1 X43.360 Y55.212 E4.95216
G1 X43.485 Y54.353 E4.96404
G1 X43.919 Y52.902 E4.98477
G1 X44.286 Y52.115 E4.99665
G1 X44.535 Y51.643 E5.00396
G1 X55.530 Y33.209 E5.29767
G1 X55.952 Y33.373 F7800.000
G4 P29
G1 X59.427 Y27.549 E5.39048 F1800.000
G1 X60.743 Y26.115 E5.41711
G1 X62.521 Y25.324 E5.44375
G1 X63.536 Y25.215 E5.45772
G1 X83.536 Y25.215 E5.73140
G1 X84.161 Y25.256 E5.73997
G1 X84.937 Y25.358 E5.75068 F1800.000
G1 X86.144 Y25.681 E5.76778
G1 X86.868 Y25.981 E5.77850
G1 X87.777 Y26.479 E5.79269
G1 X116.334 Y46.434 E6.26942
G1 X124.335 Y52.435 E6.40627
G1 X125.622 Y53.895 E6.43290
G1 X126.249 Y56.263 E6.46643
G1 X126.249 Y64.263 E6.57590
G1 X125.853 Y66.169 E6.60253
G1 X124.335 Y68.091 E6.63605
G1 X116.155 Y74.220 E6.77592
G1 X87.728 Y93.555 E7.24637
G1 X86.868 Y94.019 E7.25975
G1 X86.144 Y94.319 E7.27046
G1 X84.937 Y94.642 E7.28756
G1 X84.161 Y94.744 E7.29827
G1 X83.536 Y94.785 E7.30684
G1 X63.536 Y94.785 E7.58052
G1 X61.631 Y94.390 E7.60716
G1 X60.040 Y93.268 E7.63379
G1 X59.427 Y92.451 E7.64776
G1 X44.919 Y68.128 E8.03531
G1 X44.690 Y67.697 E8.04200
G1 X44.324 Y66.909 E8.05388
G1 X43.927 Y65.582 E8.07283
G1 X43.801 Y64.723 E8.08472
G1 X43.751 Y64.030 E8.09422
G1 X43.751 Y55.970 E8.20452
G1 X43.801 Y55.277 E8.21402
G1 X43.927 Y54.418 E8.22591
G1 X44.324 Y53.091 E8.24486
G1 X44.690 Y52.303 E8.25674
G1 X44.919 Y51.872 E8.26343
G1 X55.914 Y33.438 E8.55714
G1 X56.336 Y33.602 F7800.000
G4 P29
G1 X59.810 Y27.777 E8.64995 F1800.000
G1 X61.076 Y26.426 E8.67530
G1 X63.536 Y25.661 E8.71055
G1 X83.536 Y25.661 E8.98423
G1 X84.103 Y25.698 E8.99200
G1 X84.879 Y25.800 E9.00271 F1800.000
G1 X85.973 Y26.093 E9.01821
G1 X86.697 Y26.393 E9.02893
G1 X87.521 Y26.845 E9.04180
G1 X116.067 Y46.791 E9.51832
G1 X124.067 Y52.792 E9.65517
G1 X125.278 Y54.194 E9.68052
G1 X125.803 Y56.263 E9.70973
G1 X125.803 Y64.263 E9.81920
G1 X125.407 Y66.073 E9.84455
G1 X124.067 Y67.734 E9.87376
G1 X115.904 Y73.851 E10.01335
G1 X87.477 Y93.186 E10.48380
G1 X86.697 Y93.607 E10.49592
G1 X85.973 Y93.907 E10.50664
G1 X84.879 Y94.200 E10.52214
G1 X84.103 Y94.302 E10.53286
G1 X83.536 Y94.339 E10.54062
G1 X63.536 Y94.339 E10.81431
G1 X61.727 Y93.944 E10.83965
G1 X59.810 Y92.223 E10.87490
G1 X45.302 Y67.900 E11.26245
G1 X45.095 Y67.508 E11.26851
G1 X44.728 Y66.721 E11.28039
G1 X44.369 Y65.518 E11.29758
G1 X44.243 Y64.658 E11.30947
G1 X44.197 Y64.030 E11.31808
G1 X44.197 Y55.970 E11.42838
G1 X44.243 Y55.342 E11.43700
G1 X44.369 Y54.482 E11.44888
G1 X44.728 Y53.279 E11.46607
G1 X45.095 Y52.492 E11.47795
G1 X45.302 Y52.100 E11.48401
G1 X56.297 Y33.667 E11.77773
G1 X56.719 Y33.831 F7800.000
G4 P29
G1 X60.193 Y28.006 E11.87053 F1800.000
G1 X61.407 Y26.741 E11.89453
G1 X63.536 Y26.107 E11.92492
G1 X83.536 Y26.107 E12.19860
G1 X84.044 Y26.141 E12.20557
G1 X84.821 Y26.243 E12.21629 F1800.000
G1 X85.803 Y26.506 E12.23019
G1 X86.526 Y26.806 E12.24091
G1 X87.266 Y27.211 E12.25245
G1 X115.799 Y47.149 E12.72878
G1 X123.799 Y53.149 E12.86563
G1 X124.929 Y54.490 E12.88962
G1 X125.356 Y56.263 E12.91458
G1 X125.356 Y64.263 E13.02405
G1 X124.961 Y65.971 E13.04804
G1 X123.799 Y67.377 E13.07300
G1 X115.653 Y73.482 E13.21231
G1 X87.226 Y92.817 E13.68276
G1 X86.526 Y93.194 E13.69363
G1 X85.803 Y93.494 E13.70435
G1 X84.821 Y93.757 E13.71826
G1 X84.044 Y93.859 E13.72897
G1 X83.536 Y93.893 E13.73594
G1 X63.536 Y93.893 E14.00962
G1 X61.828 Y93.498 E14.03361
G1 X60.193 Y91.994 E14.06401
G1 X45.685 Y67.671 E14.45156
G1 X45.500 Y67.320 E14.45700
G1 X45.133 Y66.533 E14.46888
G1 X44.810 Y65.453 E14.48430
G1 X44.685 Y64.594 E14.49618
G1 X44.644 Y64.030 E14.50391
G1 X44.644 Y55.970 E14.61422
G1 X44.685 Y55.406 E14.62194
G1 X44.810 Y54.547 E14.63383
G1 X45.133 Y53.467 E14.64925
G1 X45.500 Y52.680 E14.66113
G1 X45.685 Y52.329 E14.66657
G1 X56.681 Y33.895 E14.96028
G1 X57.102 Y34.059 F7800.000
G4 P29
G1 X60.577 Y28.235 E15.05309 F1800.000
G1 X61.735 Y27.062 E15.07564
G1 X63.536 Y26.554 E15.10126
G1 X83.536 Y26.554 E15.37494
G1 X83.986 Y26.583 E15.38111
G1 X84.763 Y26.685 E15.39182 F1800.000
G1 X85.632 Y26.918 E15.40413
G1 X86.355 Y27.218 E15.41485
G1 X87.010 Y27.577 E15.42507
G1 X115.531 Y47.506 E15.90119
G1 X123.532 Y53.506 E16.03804
G1 X124.575 Y54.782 E16.06059
G1 X124.910 Y56.263 E16.08137
G1 X124.910 Y64.263 E16.19085
G1 X124.516 Y65.864 E16.21340
G1 X123.532 Y67.020 E16.23418
G1 X115.402 Y73.113 E16.37320
G1 X86.975 Y92.448 E16.84365
G1 X86.355 Y92.782 E16.85329
G1 X85.632 Y93.082 E16.86400
G1 X84.763 Y93.315 E16.87631
G1 X83.986 Y93.417 E16.88703
G1 X83.536 Y93.446 E16.89320
G1 X63.536 Y93.446 E17.16688
G1 X61.936 Y93.052 E17.18944
G1 X60.577 Y91.765 E17.21505
G1 X46.069 Y67.442 E17.60260
G1 X45.904 Y67.131 E17.60741
G1 X45.538 Y66.344 E17.61929
G1 X45.252 Y65.388 E17.63294
G1 X45.126 Y64.529 E17.64483
G1 X45.090 Y64.030 E17.65167
G1 X45.090 Y55.970 E17.76198
G1 X45.126 Y55.471 E17.76882
G1 X45.252 Y54.612 E17.78070
G1 X45.538 Y53.656 E17.79435
G1 X45.904 Y52.869 E17.80623
G1 X46.069 Y52.558 E17.81105
G1 X57.064 Y34.124 E18.10476
G1 E16.10476 F1920.00000
G92 E0
G1 X79.660 Y78.530 F7800.000
G1 E2.00000 F1920.00000
G1 X79.927 Y79.353 E2.01184 F1800.000
G1 X79.981 Y80.217 E2.02368
G1 X79.819 Y81.067 E2.03552
G1 X79.451 Y81.850 E2.04736
G1 X78.899 Y82.516 E2.05920
G1 X78.199 Y83.025 E2.07104
G1 X77.395 Y83.343 E2.08288
G1 X76.536 Y83.452 E2.09472
G1 X75.708 Y83.347 E2.10615
G1 X74.878 Y83.028 E2.11831
G1 X74.173 Y82.516 E2.13023
G1 X73.618 Y81.845 E2.14215
G1 X73.248 Y81.037 E2.15431
G1 X73.091 Y80.217 E2.16574
G1 X73.146 Y79.353 E2.17758
G1 X73.413 Y78.530 E2.18942
G1 X73.877 Y77.800 E2.20126
G1 X74.507 Y77.207 E2.21310
G1 X75.266 Y76.791 E2.22494
G1 X76.104 Y76.575 E2.23678
G1 X76.969 Y76.575 E2.24862 F1800.000
G1 X77.807 Y76.791 E2.26046
G1 X78.565 Y77.207 E2.27230
G1 X79.196 Y77.800 E2.28414
G1 X79.619 Y78.467 E2.29495
G1 X79.253 Y78.722 F7800.000
G4 P29
G1 X79.485 Y79.438 E2.30525 F1800.000
G1 X79.532 Y80.188 E2.31555
G1 X79.391 Y80.928 E2.32585
G1 X79.071 Y81.608 E2.33614
G1 X78.591 Y82.188 E2.34644
G1 X77.983 Y82.631 E2.35674
G1 X77.283 Y82.908 E2.36703
G1 X76.536 Y83.002 E2.37733
G1 X75.817 Y82.911 E2.38725
G1 X75.093 Y82.633 E2.39786
G1 X74.481 Y82.188 E2.40821
G1 X74.000 Y81.606 E2.41855
G1 X73.676 Y80.901 E2.42917
G1 X73.540 Y80.188 E2.43909
G1 X73.588 Y79.438 E2.44939
G1 X73.820 Y78.722 E2.45968
G1 X74.223 Y78.087 E2.46998
G1 X74.772 Y77.571 E2.48028
G1 X75.431 Y77.209 E2.49057
G1 X76.160 Y77.022 E2.50087
G1 X76.913 Y77.022 E2.51117 F1800.000
G1 X77.641 Y77.209 E2.52147
G1 X78.301 Y77.571 E2.53176
G1 X78.849 Y78.087 E2.54206
G1 X79.212 Y78.659 E2.55133
G1 X78.845 Y78.913 F7800.000
G4 P29
G1 X79.043 Y79.522 E2.56008 F1800.000
G1 X79.083 Y80.160 E2.56884
G1 X78.963 Y80.789 E2.57759
G1 X78.691 Y81.367 E2.58634
G1 X78.283 Y81.860 E2.59510
G1 X77.766 Y82.236 E2.60385
G1 X77.171 Y82.472 E2.61260
G1 X76.536 Y82.552 E2.62136
G1 X75.927 Y82.475 E2.62977
G1 X75.308 Y82.237 E2.63884
G1 X74.789 Y81.860 E2.64761
G1 X74.381 Y81.366 E2.65638
G1 X74.105 Y80.764 E2.66545
G1 X73.989 Y80.160 E2.67386
G1 X74.030 Y79.522 E2.68261
G1 X74.227 Y78.913 E2.69137
G1 X74.570 Y78.373 E2.70012
G1 X75.036 Y77.935 E2.70887
G1 X75.597 Y77.627 E2.71763
G1 X76.217 Y77.468 E2.72638
G1 X76.856 Y77.468 E2.73514 F1800.000
G1 X77.476 Y77.627 E2.74389
G1 X78.036 Y77.935 E2.75264
G1 X78.503 Y78.373 E2.76140
G1 X78.805 Y78.850 E2.76912
G1 X79.342 Y78.976 F7800.000
G1 E0.76912 F1920.00000
G92 E0
G1 X56.535 Y61.903 F7800.000
G1 E2.00000 F1920.00000
G1 X55.968 Y62.589 E2.01218 F1800.000
G1 X55.247 Y63.112 E2.02437
G1 X54.420 Y63.440 E2.03655
G1 X53.536 Y63.552 E2.04873
G1 X52.653 Y63.440 E2.06092
G1 X51.825 Y63.112 E2.07310
G1 X51.105 Y62.589 E2.08528
G1 X50.540 Y61.906 E2.09741
G1 X50.162 Y61.117 E2.10938
G1 X49.991 Y60.217 E2.12192
G1 X50.057 Y59.305 E2.13443
G1 X50.323 Y58.488 E2.14619
G1 X50.800 Y57.736 E2.15838
G1 X51.449 Y57.127 E2.17056
G1 X52.229 Y56.698 E2.18274
G1 X53.091 Y56.476 E2.19493
G1 X53.982 Y56.476 E2.20711 F1800.000
G1 X54.844 Y56.698 E2.21929
G1 X55.624 Y57.127 E2.23147
G1 X56.273 Y57.736 E2.24366
G1 X56.750 Y58.488 E2.25584
G1 X57.025 Y59.334 E2.26802
G1 X57.081 Y60.223 E2.28021
G1 X56.914 Y61.098 E2.29239
G1 X56.567 Y61.835 E2.30355
G1 X56.155 Y61.662 F7800.000
G4 P29
G1 X55.660 Y62.261 E2.31419 F1800.000
G1 X55.031 Y62.718 E2.32483
G1 X54.308 Y63.004 E2.33547
G1 X53.536 Y63.102 E2.34611
G1 X52.765 Y63.004 E2.35675
G1 X52.042 Y62.718 E2.36739
G1 X51.413 Y62.261 E2.37803
G1 X50.919 Y61.664 E2.38863
G1 X50.590 Y60.977 E2.39906
G1 X50.440 Y60.191 E2.41000
G1 X50.498 Y59.392 E2.42097
G1 X50.730 Y58.679 E2.43122
G1 X51.146 Y58.023 E2.44186
G1 X51.713 Y57.491 E2.45250
G1 X52.395 Y57.116 E2.46314
G1 X53.148 Y56.923 E2.47378
G1 X53.925 Y56.923 E2.48442 F1800.000
G1 X54.678 Y57.116 E2.49506
G1 X55.360 Y57.491 E2.50570
G1 X55.926 Y58.023 E2.51634
G1 X56.343 Y58.679 E2.52698
G1 X56.583 Y59.419 E2.53762
G1 X56.632 Y60.195 E2.54826
G1 X56.486 Y60.959 E2.55890
G1 X56.187 Y61.594 E2.56851
G1 X55.776 Y61.421 F7800.000
G4 P29
G1 X55.352 Y61.933 E2.57761 F1800.000
G1 X54.814 Y62.324 E2.58671
G1 X54.196 Y62.569 E2.59580
G1 X53.536 Y62.652 E2.60490
G1 X52.877 Y62.569 E2.61400
G1 X52.259 Y62.324 E2.62309
G1 X51.721 Y61.933 E2.63219
G1 X51.298 Y61.422 E2.64127
G1 X51.017 Y60.836 E2.65016
G1 X50.889 Y60.165 E2.65950
G1 X50.940 Y59.478 E2.66893
G1 X51.137 Y58.871 E2.67767
G1 X51.493 Y58.310 E2.68677
G1 X51.978 Y57.855 E2.69586
G1 X52.560 Y57.534 E2.70496
G1 X53.204 Y57.369 E2.71406
G1 X53.869 Y57.369 E2.72315 F1800.000
G1 X54.513 Y57.534 E2.73225
G1 X55.095 Y57.855 E2.74135
G1 X55.580 Y58.310 E2.75044
G1 X55.936 Y58.871 E2.75954
G1 X56.141 Y59.503 E2.76864
G1 X56.183 Y60.167 E2.77773
G1 X56.059 Y60.820 E2.78683
G1 X55.807 Y61.353 E2.79490
G1 X55.988 Y61.873 F7800.000
G1 X74.173 Y42.516 F7800.000
G1 X73.618 Y41.845 E2.80682 F1800.000
G1 X73.248 Y41.037 E2.81898
G1 X73.091 Y40.217 E2.83041
G1 X73.146 Y39.353 E2.84225
G1 X73.413 Y38.530 E2.85409
G1 X73.877 Y37.800 E2.86593
G1 X74.507 Y37.207 E2.87777
G1 X75.266 Y36.791 E2.88961
G1 X76.104 Y36.575 E2.90145
G1 X76.969 Y36.575 E2.91329 F1800.000
G1 X77.807 Y36.791 E2.92513
G1 X78.565 Y37.207 E2.93697
G1 X79.196 Y37.800 E2.94881
G1 X79.660 Y38.530 E2.96065
G1 X79.927 Y39.353 E2.97249
G1 X79.981 Y40.217 E2.98433
G1 X79.819 Y41.067 E2.99617
G1 X79.451 Y41.850 E3.00801
G1 X78.899 Y42.516 E3.01985
G1 X78.199 Y43.025 E3.03169
G1 X77.395 Y43.343 E3.04353
G1 X76.536 Y43.452 E3.05537
G1 X75.678 Y43.343 E3.06721
G1 X74.873 Y43.025 E3.07905
G1 X74.234 Y42.560 E3.08986
G1 X74.481 Y42.188 F7800.000
G4 P29
G1 X74.000 Y41.606 E3.10021 F1800.000
G1 X73.676 Y40.901 E3.11082
G1 X73.540 Y40.188 E3.12074
G1 X73.588 Y39.438 E3.13104
G1 X73.820 Y38.722 E3.14134
G1 X74.223 Y38.087 E3.15163
G1 X74.772 Y37.571 E3.16193
G1 X75.431 Y37.209 E3.17223
G1 X76.160 Y37.022 E3.18253
G1 X76.913 Y37.022 E3.19282 F1800.000
G1 X77.641 Y37.209 E3.20312
G1 X78.301 Y37.571 E3.21342
G1 X78.849 Y38.087 E3.22371
G1 X79.253 Y38.722 E3.23401
G1 X79.485 Y39.438 E3.24431
G1 X79.532 Y40.188 E3.25460
G1 X79.391 Y40.928 E3.26490
G1 X79.071 Y41.608 E3.27520
G1 X78.591 Y42.188 E3.28549
G1 X77.983 Y42.631 E3.29579
G1 X77.283 Y42.908 E3.30609
G1 X76.536 Y43.002 E3.31638
G1 X75.790 Y42.908 E3.32668
G1 X75.090 Y42.631 E3.33698
G1 X74.542 Y42.232 E3.34625
G1 X74.789 Y41.860 F7800.000
G4 P29
G1 X74.381 Y41.366 E3.35502 F1800.000
G1 X74.105 Y40.764 E3.36409
G1 X73.989 Y40.160 E3.37250
G1 X74.030 Y39.522 E3.38125
G1 X74.227 Y38.913 E3.39001
G1 X74.570 Y38.373 E3.39876
G1 X75.036 Y37.935 E3.40751
G1 X75.597 Y37.627 E3.41627
G1 X76.217 Y37.468 E3.42502
G1 X76.856 Y37.468 E3.43377 F1800.000
G1 X77.476 Y37.627 E3.44253
G1 X78.036 Y37.935 E3.45128
G1 X78.503 Y38.373 E3.46004
G1 X78.845 Y38.913 E3.46879
G1 X79.043 Y39.522 E3.47754
G1 X79.083 Y40.160 E3.48630
G1 X78.963 Y40.789 E3.49505
G1 X78.691 Y41.367 E3.50380
G1 X78.283 Y41.860 E3.51256
G1 X77.766 Y42.236 E3.52131
G1 X77.171 Y42.472 E3.53006
G1 X76.536 Y42.552 E3.53882
G1 X75.902 Y42.472 E3.54757
G1 X75.307 Y42.236 E3.55632
G1 X74.850 Y41.904 E3.56405
G1 X74.305 Y41.985 F7800.000
G4 P29
G1 X64.679 Y31.143 F7800.000
G1 X83.461 Y31.143 E3.82107 F1800.000
G1 X84.015 Y31.215 E3.82870
G1 X84.460 Y31.400 E3.83530
G1 X84.843 Y31.694 E3.84190
G1 X85.136 Y32.076 E3.84850
G1 X85.321 Y32.522 E3.85510
G1 X85.394 Y33.075 E3.86274
G1 X85.394 Y86.925 E4.59962
G1 X85.321 Y87.478 E4.60726
G1 X85.136 Y87.924 E4.61386
G1 X84.843 Y88.306 E4.62046
G1 X84.460 Y88.600 E4.62706
G1 X84.015 Y88.784 E4.63366
G1 X83.461 Y88.857 E4.64129
G1 X64.679 Y88.857 E4.89831
G1 X64.679 Y74.386 E5.09633
G1 X64.517 Y73.280 E5.11164
G1 X64.010 Y72.189 E5.12809
G1 X63.240 Y71.322 E5.14396
G1 X62.266 Y70.704 E5.15974
G1 X50.874 Y65.768 E5.32963
G1 X50.349 Y65.442 E5.33809
G1 X49.994 Y65.043 E5.34540
G1 X49.769 Y64.559 E5.35271
G1 X49.679 Y63.947 E5.36117
G1 X49.679 Y56.053 E5.46920
G1 X49.769 Y55.441 E5.47766
G1 X49.994 Y54.957 E5.48496
G1 X50.349 Y54.558 E5.49227
G1 X50.874 Y54.232 E5.50073
G1 X62.260 Y49.299 E5.67053
G1 X63.211 Y48.710 E5.68584
G1 X64.010 Y47.811 E5.70230
G1 X64.517 Y46.720 E5.71875
G1 X64.679 Y45.614 E5.73406
G1 X64.679 Y31.218 E5.93105
G1 X64.233 Y30.696 F7800.000
G4 P28
G1 X83.491 Y30.696 E6.19458 F1800.000
G1 X84.131 Y30.781 E6.20342
G1 X84.685 Y31.010 E6.21163
G1 X85.161 Y31.375 E6.21983
G1 X85.526 Y31.851 E6.22804
G1 X85.756 Y32.405 E6.23625
G1 X85.840 Y33.046 E6.24509
G1 X85.840 Y86.954 E6.98278
G1 X85.756 Y87.595 E6.99161
G1 X85.526 Y88.149 E6.99982
G1 X85.161 Y88.625 E7.00803
G1 X84.685 Y88.990 E7.01624
G1 X84.131 Y89.219 E7.02445
G1 X83.491 Y89.304 E7.03328
G1 X64.233 Y89.304 E7.29681
G1 X64.233 Y74.419 E7.50049
G1 X64.085 Y73.409 E7.51446
G1 X63.633 Y72.437 E7.52913
G1 X62.947 Y71.665 E7.54325
G1 X62.056 Y71.100 E7.55770
G1 X50.667 Y66.164 E7.72755
G1 X50.058 Y65.788 E7.73735
G1 X49.617 Y65.291 E7.74644
G1 X49.336 Y64.688 E7.75554
G1 X49.233 Y63.980 E7.76533
G1 X49.233 Y56.020 E7.87425
G1 X49.336 Y55.312 E7.88405
G1 X49.617 Y54.709 E7.89314
G1 X50.058 Y54.212 E7.90224
G1 X50.667 Y53.836 E7.91204
G1 X62.053 Y48.902 E8.08184
G1 X62.921 Y48.365 E8.09581
G1 X63.633 Y47.563 E8.11048
G1 X64.085 Y46.591 E8.12515
G1 X64.233 Y45.581 E8.13911
G1 X64.233 Y30.771 E8.34177
G1 X63.786 Y30.250 F7800.000
G4 P28
G1 X83.520 Y30.250 E8.61181 F1800.000
G1 X84.248 Y30.346 E8.62185
G1 X84.910 Y30.620 E8.63167
G1 X85.479 Y31.057 E8.64148
G1 X85.916 Y31.626 E8.65130
G1 X86.191 Y32.289 E8.66111
G1 X86.286 Y33.016 E8.67116
G1 X86.286 Y86.984 E9.40965
G1 X86.191 Y87.711 E9.41969
G1 X85.916 Y88.374 E9.42950
