; generated by Slic3r 1.2.9 on 2016-05-25 at 22:22:28

; external perimeters extrusion width = 0.50mm
; perimeters extrusion width = 0.50mm
; infill extrusion width = 0.50mm
; solid infill extrusion width = 0.50mm
; top infill extrusion width = 0.50mm

M107
M190 S60 ; set bed temperature
M104 S228 ; set temperature
G28 ; home all axes
G1 Z5 F5000 ; lift nozzle

M109 S228 ; wait for temperature to be reached
G21 ; set units to millimeters
G90 ; use absolute coordinates
M82 ; use absolute distances for extrusion
G92 E0
G1 Z0.200 F9000.000
G1 E-3.00000 F2400.00000
G92 E0
G1 X75.535 Y55.847 F9000.000
G1 E3.00000 F2400.00000
G1 X76.012 Y55.226 E3.04279 F2400.000
G1 X77.726 Y53.512 E3.17523
G1 X78.348 Y53.035 E3.21803
G1 X80.447 Y51.823 E3.35045
G1 X81.170 Y51.524 E3.39324
G1 X83.512 Y50.896 E3.52568
G1 X84.288 Y50.794 E3.56847
G1 X85.500 Y50.715 E3.63483
G1 X114.500 Y50.715 E5.21928
G1 X115.712 Y50.794 E5.28564
G1 X116.488 Y50.896 E5.32843 F2400.000
G1 X118.830 Y51.524 E5.46087
G1 X119.553 Y51.823 E5.50366
G1 X121.653 Y53.035 E5.63610
G1 X122.274 Y53.512 E5.67888
G1 X123.988 Y55.226 E5.81132
G1 X124.465 Y55.848 E5.85413
G1 X125.677 Y57.947 E5.98655
G1 X125.976 Y58.670 E6.02934
G1 X126.604 Y61.012 E6.16177
G1 X126.706 Y61.788 E6.20456
G1 X126.785 Y63.000 E6.27092
G1 X126.785 Y137.000 E10.31402
G1 X126.706 Y138.212 E10.38038
G1 X126.604 Y138.989 E10.42319
G1 X125.976 Y141.330 E10.55560
G1 X125.677 Y142.053 E10.59839
G1 X124.465 Y144.153 E10.73083
G1 X123.988 Y144.774 E10.77362
G1 X122.274 Y146.488 E10.90606
G1 X121.653 Y146.965 E10.94885
G1 X119.553 Y148.177 E11.08128
G1 X118.830 Y148.476 E11.12407
G1 X116.489 Y149.104 E11.25650
G1 X115.712 Y149.206 E11.29930
G1 X114.500 Y149.285 E11.36566
G1 X85.500 Y149.285 E12.95011
G1 X84.288 Y149.206 E13.01647
G1 X83.511 Y149.104 E13.05928
G1 X81.170 Y148.476 E13.19171
G1 X80.447 Y148.177 E13.23450
G1 X78.347 Y146.965 E13.36692
G1 X77.757 Y146.512 E13.40757
G1 X76.012 Y144.774 E13.54214
G1 X75.535 Y144.153 E13.58493
G1 X74.323 Y142.053 E13.71736
G1 X74.024 Y141.330 E13.76016
G1 X73.396 Y138.988 E13.89259
G1 X73.294 Y138.212 E13.93539
G1 X73.215 Y137.000 E14.00174
G1 X73.215 Y63.000 E18.04483
G1 X73.294 Y61.788 E18.11119
G1 X73.396 Y61.012 E18.15398
G1 X74.024 Y58.670 E18.28642
G1 X74.323 Y57.947 E18.32921
G1 X75.498 Y55.912 E18.45755
G1 X76.057 Y56.247 F9000.000
G1 X76.533 Y55.626 E18.50034 F2400.000
G1 X78.126 Y54.033 E18.62340
G1 X78.748 Y53.557 E18.66620
G1 X80.698 Y52.430 E18.78925
G1 X81.422 Y52.131 E18.83204
G1 X83.597 Y51.548 E18.95511
G1 X84.374 Y51.445 E18.99790
G1 X85.500 Y51.372 E19.05956
G1 X114.500 Y51.372 E20.64402
G1 X115.626 Y51.445 E20.70568
G1 X116.403 Y51.548 E20.74847 F2400.000
G1 X118.578 Y52.131 E20.87154
G1 X119.302 Y52.430 E20.91433
G1 X121.253 Y53.557 E21.03739
G1 X121.874 Y54.033 E21.08018
G1 X123.467 Y55.626 E21.20325
G1 X123.944 Y56.248 E21.24605
G1 X125.070 Y58.198 E21.36910
G1 X125.369 Y58.922 E21.41190
G1 X125.952 Y61.097 E21.53495
G1 X126.055 Y61.874 E21.57774
G1 X126.128 Y63.000 E21.63941
G1 X126.128 Y137.000 E25.68250
G1 X126.055 Y138.126 E25.74417
G1 X125.952 Y138.903 E25.78697
G1 X125.369 Y141.078 E25.91002
G1 X125.070 Y141.802 E25.95281
G1 X123.943 Y143.753 E26.07587
G1 X123.467 Y144.374 E26.11866
G1 X121.874 Y145.967 E26.24173
G1 X121.253 Y146.443 E26.28452
G1 X119.302 Y147.570 E26.40758
G1 X118.578 Y147.869 E26.45037
G1 X116.403 Y148.452 E26.57343
G1 X115.626 Y148.555 E26.61623
G1 X114.500 Y148.628 E26.67789
G1 X85.500 Y148.628 E28.26235
G1 X84.374 Y148.555 E28.32401
G1 X83.597 Y148.452 E28.36681
G1 X81.422 Y147.869 E28.48987
G1 X80.698 Y147.570 E28.53266
G1 X78.747 Y146.443 E28.65572
G1 X78.157 Y145.990 E28.69637
G1 X76.533 Y144.374 E28.82156
G1 X76.057 Y143.753 E28.86435
G1 X74.930 Y141.802 E28.98741
G1 X74.631 Y141.078 E29.03021
G1 X74.048 Y138.903 E29.15326
G1 X73.945 Y138.126 E29.19607
G1 X73.872 Y137.000 E29.25772
G1 X73.872 Y63.000 E33.30081
G1 X73.945 Y61.874 E33.36248
G1 X74.048 Y61.097 E33.40527
G1 X74.631 Y58.922 E33.52833
G1 X74.930 Y58.198 E33.57112
G1 X76.019 Y56.312 E33.69009
G1 X76.578 Y56.647 F9000.000
G1 X77.055 Y56.026 E33.73288 F2400.000
G1 X78.526 Y54.555 E33.84657
G1 X79.148 Y54.078 E33.88937
G1 X80.950 Y53.037 E34.00305
G1 X81.673 Y52.738 E34.04584
G1 X83.683 Y52.199 E34.15953
G1 X84.460 Y52.097 E34.20233
G1 X85.500 Y52.029 E34.25929
G1 X114.500 Y52.029 E35.84375
G1 X115.540 Y52.097 E35.90072
G1 X116.317 Y52.199 E35.94350 F2400.000
G1 X118.327 Y52.738 E36.05720
G1 X119.050 Y53.037 E36.09999
G1 X120.853 Y54.078 E36.21368
G1 X121.474 Y54.555 E36.25647
G1 X122.945 Y56.026 E36.37016
G1 X123.422 Y56.648 E36.41297
G1 X124.463 Y58.450 E36.52665
G1 X124.762 Y59.173 E36.56944
G1 X125.301 Y61.183 E36.68313
G1 X125.403 Y61.960 E36.72592
G1 X125.471 Y63.000 E36.78289
G1 X125.471 Y137.000 E40.82598
G1 X125.403 Y138.040 E40.88295
G1 X125.301 Y138.817 E40.92575
G1 X124.762 Y140.827 E41.03943
G1 X124.463 Y141.550 E41.08222
G1 X123.422 Y143.353 E41.19591
G1 X122.945 Y143.974 E41.23870
G1 X121.474 Y145.445 E41.35240
G1 X120.853 Y145.922 E41.39519
G1 X119.051 Y146.962 E41.50887
G1 X118.327 Y147.262 E41.55166
G1 X116.317 Y147.801 E41.66535
G1 X115.540 Y147.903 E41.70815
G1 X114.500 Y147.971 E41.76512
G1 X85.500 Y147.971 E43.34957
G1 X84.460 Y147.903 E43.40654
G1 X83.683 Y147.801 E43.44934
G1 X81.673 Y147.262 E43.56303
G1 X80.949 Y146.963 E43.60582
G1 X79.147 Y145.922 E43.71950
G1 X78.557 Y145.469 E43.76015
G1 X77.055 Y143.974 E43.87597
G1 X76.578 Y143.353 E43.91876
G1 X75.537 Y141.550 E44.03245
G1 X75.238 Y140.827 E44.07525
G1 X74.699 Y138.817 E44.18893
G1 X74.597 Y138.040 E44.23174
G1 X74.529 Y137.000 E44.28869
G1 X74.529 Y63.000 E48.33179
G1 X74.597 Y61.960 E48.38875
G1 X74.699 Y61.183 E48.43154
G1 X75.238 Y59.173 E48.54524
G1 X75.537 Y58.450 E48.58803
G1 X76.540 Y56.712 E48.69762
G1 X77.099 Y57.047 F9000.000
G1 X77.576 Y56.426 E48.74041 F2400.000
G1 X78.926 Y55.076 E48.84473
G1 X79.548 Y54.599 E48.88753
G1 X81.201 Y53.645 E48.99184
G1 X81.925 Y53.345 E49.03463
G1 X83.769 Y52.851 E49.13895
G1 X84.545 Y52.748 E49.18174
G1 X85.500 Y52.686 E49.23401
G1 X114.500 Y52.686 E50.81847
G1 X115.455 Y52.748 E50.87074
G1 X116.231 Y52.851 E50.91353 F2400.000
G1 X118.075 Y53.345 E51.01785
G1 X118.799 Y53.645 E51.06064
G1 X120.453 Y54.599 E51.16496
G1 X121.074 Y55.076 E51.20775
G1 X122.424 Y56.426 E51.31207
G1 X122.901 Y57.048 E51.35488
G1 X123.855 Y58.701 E51.45918
G1 X124.155 Y59.425 E51.50198
G1 X124.649 Y61.269 E51.60629
G1 X124.752 Y62.045 E51.64908
G1 X124.814 Y63.000 E51.70136
G1 X124.814 Y137.000 E55.74445
G1 X124.752 Y137.955 E55.79672
G1 X124.649 Y138.731 E55.83953
G1 X124.155 Y140.575 E55.94383
G1 X123.855 Y141.299 E55.98662
G1 X122.901 Y142.953 E56.09094
G1 X122.424 Y143.574 E56.13373
G1 X121.074 Y144.924 E56.23806
G1 X120.453 Y145.401 E56.28085
G1 X118.799 Y146.355 E56.38516
G1 X118.076 Y146.655 E56.42795
G1 X116.231 Y147.149 E56.53226
G1 X115.455 Y147.252 E56.57507
G1 X114.500 Y147.314 E56.62734
G1 X85.500 Y147.314 E58.21179
G1 X84.545 Y147.252 E58.26406
G1 X83.769 Y147.149 E58.30686
G1 X81.924 Y146.655 E58.41118
G1 X81.201 Y146.355 E58.45397
G1 X79.547 Y145.401 E58.55828
G1 X78.957 Y144.948 E58.59895
G1 X77.576 Y143.574 E58.70538
G1 X77.099 Y142.953 E58.74817
G1 X76.145 Y141.299 E58.85249
G1 X75.845 Y140.575 E58.89528
G1 X75.351 Y138.731 E58.99960
G1 X75.248 Y137.954 E59.04240
G1 X75.186 Y137.000 E59.09466
G1 X75.186 Y63.000 E63.13775
G1 X75.248 Y62.045 E63.19003
G1 X75.351 Y61.269 E63.23282
G1 X75.845 Y59.425 E63.33714
G1 X76.145 Y58.701 E63.37993
G1 X77.062 Y57.112 E63.48015
G1 X77.621 Y57.447 F9000.000
G1 X78.097 Y56.826 E63.52294 F2400.000
G1 X79.326 Y55.597 E63.61789
G1 X79.948 Y55.120 E63.66068
G1 X81.452 Y54.252 E63.75563
G1 X82.176 Y53.952 E63.79842
G1 X83.855 Y53.502 E63.89337
G1 X84.631 Y53.400 E63.93616
G1 X85.500 Y53.343 E63.98373
G1 X114.500 Y53.343 E65.56819
G1 X115.369 Y53.400 E65.61576
G1 X116.145 Y53.502 E65.65855 F2400.000
G1 X117.824 Y53.952 E65.75350
G1 X118.548 Y54.252 E65.79629
G1 X120.053 Y55.120 E65.89124
G1 X120.674 Y55.597 E65.93403
G1 X121.903 Y56.826 E66.02898
G1 X122.380 Y57.448 E66.07178
G1 X123.248 Y58.952 E66.16672
G1 X123.533 Y59.640 E66.20737
G1 X123.998 Y61.355 E66.30444
G1 X124.100 Y62.131 E66.34723
G1 X124.157 Y63.000 E66.39480
G1 X124.157 Y137.000 E70.43790
G1 X124.100 Y137.869 E70.48547
G1 X123.998 Y138.646 E70.52828
G1 X123.548 Y140.324 E70.62321
G1 X123.248 Y141.048 E70.66600
G1 X122.380 Y142.553 E70.76095
G1 X121.903 Y143.174 E70.80374
G1 X120.674 Y144.403 E70.89869
G1 X120.053 Y144.880 E70.94148
G1 X118.548 Y145.748 E71.03642
G1 X117.824 Y146.048 E71.07921
G1 X116.146 Y146.498 E71.17416
G1 X115.369 Y146.600 E71.21696
G1 X114.500 Y146.657 E71.26453
G1 X85.500 Y146.657 E72.84899
G1 X84.631 Y146.600 E72.89656
G1 X83.854 Y146.498 E72.93936
G1 X82.176 Y146.048 E73.03431
G1 X81.452 Y145.748 E73.07710
G1 X79.947 Y144.880 E73.17204
G1 X79.357 Y144.427 E73.21269
G1 X78.097 Y143.174 E73.30976
G1 X77.621 Y142.553 E73.35255
G1 X76.752 Y141.048 E73.44750
G1 X76.452 Y140.324 E73.49029
G1 X76.002 Y138.645 E73.58524
G1 X75.900 Y137.869 E73.62804
G1 X75.843 Y137.000 E73.67560
G1 X75.843 Y63.000 E77.71870
G1 X75.900 Y62.131 E77.76627
G1 X76.002 Y61.355 E77.80906
G1 X76.452 Y59.676 E77.90401
G1 X76.752 Y58.952 E77.94680
G1 X77.583 Y57.512 E78.03765
G1 E75.03765 F2400.00000
G92 E0
G1 X112.699 Y138.993 F9000.000
G1 E3.00000 F2400.00000
G1 X113.033 Y138.150 E3.04951 F2400.000
G1 X113.115 Y137.500 E3.08533
G1 X113.033 Y136.850 E3.12114
G1 X112.795 Y136.250 E3.15638
G1 X112.408 Y135.711 E3.19262
G1 X111.901 Y135.292 E3.22857
G1 X111.308 Y135.013 E3.26439
G1 X110.664 Y134.890 E3.30020
G1 X110.020 Y134.931 E3.33544
G1 X109.389 Y135.132 E3.37168
G1 X108.833 Y135.485 E3.40763
G1 X108.384 Y135.963 E3.44345
G1 X108.069 Y136.537 E3.47926
G1 X107.906 Y137.172 E3.51508
G1 X107.906 Y137.828 E3.55089
G1 X108.069 Y138.463 E3.58671
G1 X108.360 Y138.993 E3.61977
G1 X91.699 Y138.993 E4.53005
G1 X92.033 Y138.150 E4.57956
G1 X92.115 Y137.500 E4.61538
G1 X92.033 Y136.850 E4.65119
G1 X91.795 Y136.250 E4.68643
G1 X91.408 Y135.711 E4.72267
G1 X90.901 Y135.292 E4.75862
G1 X90.308 Y135.013 E4.79444
G1 X89.664 Y134.890 E4.83025
G1 X89.020 Y134.931 E4.86550
G1 X88.389 Y135.132 E4.90173
G1 X87.833 Y135.485 E4.93769
G1 X87.384 Y135.963 E4.97350
G1 X87.069 Y136.537 E5.00932
G1 X86.906 Y137.172 E5.04513
G1 X86.906 Y137.828 E5.08094
G1 X87.069 Y138.463 E5.11676
G1 X87.360 Y138.993 E5.14982
G1 X85.566 Y138.993 E5.24784
G1 X84.986 Y138.917 E5.27978
G1 X84.508 Y138.718 E5.30808
G1 X84.097 Y138.403 E5.33638
G1 X83.782 Y137.992 E5.36468
G1 X83.596 Y137.544 E5.39119
G1 X83.507 Y136.928 E5.42520
G1 X83.507 Y63.066 E9.46074
G1 X83.583 Y62.486 E9.49268
G1 X83.782 Y62.008 E9.52098
G1 X84.097 Y61.597 E9.54928
G1 X84.482 Y61.302 E9.57579
G1 X84.993 Y61.083 E9.60616
G1 X85.566 Y61.007 E9.63775
G1 X87.360 Y61.007 E9.73577
G1 X87.069 Y61.537 E9.76883
G1 X86.906 Y62.172 E9.80465
G1 X86.906 Y62.828 E9.84046
G1 X87.069 Y63.463 E9.87628
G1 X87.384 Y64.037 E9.91209
G1 X87.833 Y64.515 E9.94791
G1 X88.387 Y64.866 E9.98372
G1 X89.010 Y65.069 E10.01954
G1 X89.664 Y65.110 E10.05535
G1 X90.308 Y64.987 E10.09117
G1 X90.901 Y64.708 E10.12698
G1 X91.406 Y64.290 E10.16280
G1 X91.792 Y63.760 E10.19861
G1 X92.033 Y63.150 E10.23443
G1 X92.115 Y62.500 E10.27024
G1 X92.033 Y61.850 E10.30606
G1 X91.699 Y61.007 E10.35557
G1 X108.360 Y61.007 E11.26585
G1 X108.069 Y61.537 E11.29891
G1 X107.908 Y62.162 E11.33415
G1 X107.905 Y62.825 E11.37039
G1 X108.069 Y63.463 E11.40634
G1 X108.384 Y64.037 E11.44216
G1 X108.833 Y64.515 E11.47797
G1 X109.387 Y64.866 E11.51379
G1 X110.010 Y65.069 E11.54960
G1 X110.664 Y65.110 E11.58542
G1 X111.308 Y64.987 E11.62123
G1 X111.901 Y64.708 E11.65705
G1 X112.406 Y64.290 E11.69286
G1 X112.792 Y63.760 E11.72868
G1 X113.033 Y63.150 E11.76449
G1 X113.115 Y62.500 E11.80030
G1 X113.033 Y61.850 E11.83612
G1 X112.699 Y61.007 E11.88563
G1 X114.434 Y61.007 E11.98041
G1 X114.981 Y61.079 E12.01055
G1 X115.497 Y61.285 E12.04092
G1 X115.903 Y61.597 E12.06888
G1 X116.218 Y62.008 E12.09718
G1 X116.404 Y62.456 E12.12369
G1 X116.493 Y63.072 E12.15770
G1 X116.493 Y136.934 E16.19324
G1 X116.417 Y137.514 E16.22518
G1 X116.218 Y137.992 E16.25348
G1 X115.903 Y138.403 E16.28178
G1 X115.492 Y138.718 E16.31008
G1 X115.014 Y138.917 E16.33838
G1 X114.434 Y138.993 E16.37032
G1 X112.774 Y138.993 E16.46100
G1 X111.136 Y139.342 F9000.000
G1 X111.538 Y139.153 E16.48527 F2400.000
G1 X111.923 Y138.837 E16.51244
G1 X112.211 Y138.441 E16.53923
G1 X112.391 Y137.986 E16.56598
G1 X112.453 Y137.500 E16.59272
G1 X112.391 Y137.014 E16.61947
G1 X112.215 Y136.567 E16.64573
G1 X111.924 Y136.164 E16.67289
G1 X111.546 Y135.851 E16.69969
G1 X111.103 Y135.643 E16.72643
G1 X110.623 Y135.551 E16.75318
G1 X110.143 Y135.581 E16.77943
G1 X109.669 Y135.733 E16.80660
G1 X109.255 Y135.995 E16.83339
G1 X108.920 Y136.352 E16.86014
G1 X108.684 Y136.781 E16.88688
G1 X108.563 Y137.255 E16.91363
G1 X108.563 Y137.745 E16.94037
G1 X108.684 Y138.219 E16.96712
G1 X108.920 Y138.648 E16.99386
G1 X109.255 Y139.005 E17.02060
G1 X109.669 Y139.267 E17.04735
G1 X109.824 Y139.317 E17.05628
G1 X109.771 Y139.650 E17.07468
G1 X90.205 Y139.650 E18.14370
G1 X90.136 Y139.342 E18.16096
G1 X90.538 Y139.153 E18.18523
G1 X90.923 Y138.837 E18.21240
G1 X91.211 Y138.441 E18.23919
G1 X91.391 Y137.986 E18.26594
G1 X91.453 Y137.500 E18.29268
G1 X91.391 Y137.014 E18.31943
G1 X91.215 Y136.567 E18.34569
G1 X90.924 Y136.164 E18.37285
G1 X90.546 Y135.851 E18.39965
G1 X90.103 Y135.643 E18.42639
G1 X89.623 Y135.551 E18.45313
G1 X89.143 Y135.581 E18.47939
G1 X88.669 Y135.733 E18.50656
G1 X88.255 Y135.995 E18.53335
G1 X87.920 Y136.352 E18.56010
G1 X87.684 Y136.781 E18.58684
G1 X87.563 Y137.255 E18.61359
G1 X87.563 Y137.745 E18.64033
G1 X87.684 Y138.219 E18.66708
G1 X87.920 Y138.648 E18.69382
G1 X88.255 Y139.005 E18.72056
G1 X88.669 Y139.267 E18.74731
G1 X88.824 Y139.317 E18.75624
G1 X88.771 Y139.650 E18.77464
G1 X85.523 Y139.650 E18.95211
G1 X84.815 Y139.557 E18.99113
G1 X84.177 Y139.292 E19.02889
G1 X83.628 Y138.872 E19.06664
G1 X83.208 Y138.323 E19.10439
G1 X82.957 Y137.719 E19.14013
G1 X82.850 Y136.975 E19.18122
G1 X82.850 Y63.023 E23.22168
G1 X82.943 Y62.315 E23.26070
G1 X83.208 Y61.677 E23.29846
G1 X83.628 Y61.128 E23.33621
G1 X84.147 Y60.730 E23.37194
G1 X84.817 Y60.443 E23.41177
G1 X85.523 Y60.350 E23.45067
G1 X88.771 Y60.350 E23.62812
G1 X88.823 Y60.684 E23.64657
G1 X88.669 Y60.733 E23.65538
G1 X88.255 Y60.995 E23.68217
G1 X87.920 Y61.352 E23.70891
G1 X87.684 Y61.781 E23.73566
G1 X87.563 Y62.255 E23.76240
G1 X87.563 Y62.745 E23.78914
G1 X87.684 Y63.219 E23.81589
G1 X87.920 Y63.648 E23.84263
G1 X88.255 Y64.005 E23.86938
G1 X88.669 Y64.267 E23.89612
G1 X89.134 Y64.418 E23.92287
G1 X89.623 Y64.449 E23.94961
G1 X90.103 Y64.357 E23.97636
G1 X90.546 Y64.149 E24.00310
G1 X90.924 Y63.837 E24.02984
G1 X91.211 Y63.441 E24.05659
G1 X91.391 Y62.986 E24.08333
G1 X91.453 Y62.500 E24.11008
G1 X91.391 Y62.014 E24.13682
G1 X91.215 Y61.568 E24.16308
G1 X90.924 Y61.164 E24.19025
G1 X90.546 Y60.851 E24.21704
G1 X90.136 Y60.658 E24.24180
G1 X90.205 Y60.350 E24.25906
G1 X109.771 Y60.350 E25.32806
G1 X109.823 Y60.684 E25.34650
G1 X109.669 Y60.733 E25.35531
G1 X109.255 Y60.995 E25.38210
G1 X108.920 Y61.352 E25.40885
G1 X108.684 Y61.781 E25.43559
G1 X108.565 Y62.247 E25.46185
G1 X108.562 Y62.744 E25.48902
G1 X108.684 Y63.219 E25.51581
G1 X108.920 Y63.648 E25.54256
G1 X109.255 Y64.005 E25.56930
G1 X109.669 Y64.267 E25.59605
G1 X110.134 Y64.418 E25.62279
G1 X110.623 Y64.449 E25.64953
G1 X111.103 Y64.357 E25.67628
G1 X111.546 Y64.149 E25.70302
G1 X111.924 Y63.837 E25.72977
G1 X112.211 Y63.441 E25.75651
G1 X112.391 Y62.986 E25.78326
G1 X112.453 Y62.500 E25.81000
G1 X112.391 Y62.014 E25.83675
G1 X112.211 Y61.559 E25.86349
G1 X111.924 Y61.163 E25.89023
G1 X111.546 Y60.851 E25.91698
G1 X111.136 Y60.658 E25.94174
G1 X111.205 Y60.350 E25.95900
G1 X114.477 Y60.350 E26.13776
G1 X115.148 Y60.438 E26.17476
G1 X115.825 Y60.709 E26.21458
G1 X116.372 Y61.128 E26.25222
G1 X116.792 Y61.677 E26.28997
G1 X117.043 Y62.281 E26.32571
G1 X117.150 Y63.025 E26.36679
