; generated by Slic3r 1.2.9 on 2016-03-29 at 20:35:19

; external perimeters extrusion width = 0.50mm
; perimeters extrusion width = 0.50mm
; infill extrusion width = 0.50mm
; solid infill extrusion width = 0.50mm
; top infill extrusion width = 0.50mm

M107
M190 S70 ; set bed temperature
M104 S220 ; set temperature
G28 ; home all axes
M109 S220 ; wait for temperature to be reached
G21 ; set units to millimeters
G90 ; use absolute coordinates
M82 ; use absolute distances for extrusion
G92 E0
G1 Z0.350 F7800.000
G1 E-2.00000 F1920.00000
G92 E0
G1 X46.050 Y32.432 F7800.000
G1 E2.00000 F1920.00000
M204 S3000
G1 X46.739 Y31.464 E2.01626 F1800.000
G1 X48.023 Y29.820 E2.04481
G1 X49.548 Y28.042 E2.07687
G1 X51.340 Y26.159 E2.11244
G1 X53.042 Y24.548 E2.14449
G1 X54.820 Y23.023 E2.17655
G1 X56.670 Y21.586 E2.20861
G1 X58.376 Y20.385 E2.23715
G1 X60.352 Y19.126 E2.26921
G1 X62.613 Y17.845 E2.30478
G1 X64.709 Y16.798 E2.33684
G1 X66.616 Y15.952 E2.36539
G1 X68.799 Y15.103 E2.39744
G1 X71.267 Y14.288 E2.43301
G1 X73.527 Y13.669 E2.46507
G1 X75.814 Y13.162 E2.49713
G1 X78.123 Y12.768 E2.52919
G1 X80.194 Y12.512 E2.55773
G1 X82.786 Y12.321 E2.59330
G1 X85.180 Y12.271 E2.62607
G1 X87.470 Y12.334 E2.65742 F1800.000
G1 X89.806 Y12.512 E2.68948
G1 X91.876 Y12.768 E2.71802
G1 X94.186 Y13.162 E2.75008
G1 X96.722 Y13.731 E2.78565
G1 X98.978 Y14.362 E2.81771
G1 X101.201 Y15.103 E2.84977
G1 X103.147 Y15.854 E2.87831
G1 X105.291 Y16.798 E2.91037
G1 X107.613 Y17.966 E2.94594
G1 X109.648 Y19.126 E2.97800
G1 X111.624 Y20.385 E3.01006
G1 X113.536 Y21.739 E3.04211
G1 X115.180 Y23.023 E3.07066
G1 X117.149 Y24.720 E3.10623
G1 X118.660 Y26.159 E3.13478
G1 X120.280 Y27.851 E3.16683
G1 X121.977 Y29.820 E3.20240
G1 X123.414 Y31.670 E3.23446
G1 X124.758 Y33.589 E3.26652
G1 X125.874 Y35.352 E3.29507
G1 X127.034 Y37.387 E3.32712
G1 X128.093 Y39.477 E3.35918
G1 X129.048 Y41.616 E3.39124
G1 X129.983 Y44.041 E3.42681
G1 X130.712 Y46.268 E3.45887
G1 X131.331 Y48.527 E3.49092
G1 X131.788 Y50.563 E3.51947
G1 X132.195 Y52.870 E3.55153
G1 X132.488 Y55.194 E3.58358
G1 X132.666 Y57.530 E3.61564
G1 X132.730 Y60.128 E3.65121
G1 X132.666 Y62.470 E3.68327
G1 X132.513 Y64.551 E3.71182
G1 X132.232 Y66.877 E3.74387
G1 X131.838 Y69.186 E3.77593
G1 X131.269 Y71.722 E3.81150
G1 X130.712 Y73.733 E3.84005
G1 X129.983 Y75.959 E3.87211
G1 X129.146 Y78.147 E3.90416
G1 X128.202 Y80.291 E3.93622
G1 X127.034 Y82.613 E3.97179
G1 X125.874 Y84.648 E4.00385
G1 X124.615 Y86.624 E4.03591
G1 X123.414 Y88.330 E4.06445
G1 X121.977 Y90.181 E4.09651
G1 X120.452 Y91.959 E4.12857
G1 X118.877 Y93.622 E4.15991
G1 X116.958 Y95.452 E4.19620
G1 X115.379 Y96.814 E4.22474
G1 X113.536 Y98.261 E4.25680
G1 X111.411 Y99.758 E4.29237
G1 X109.428 Y101.006 E4.32443
G1 X107.387 Y102.155 E4.35648
G1 X105.523 Y103.093 E4.38503
G1 X103.384 Y104.048 E4.41709
G1 X101.201 Y104.897 E4.44915
G1 X98.978 Y105.638 E4.48120
G1 X96.473 Y106.331 E4.51677
G1 X94.438 Y106.788 E4.54532
G1 X92.130 Y107.195 E4.57738
G1 X89.499 Y107.517 E4.61366
G1 X87.214 Y107.679 E4.64500
G1 X84.872 Y107.730 E4.67706
G1 X82.786 Y107.679 E4.70561
G1 X80.449 Y107.513 E4.73767
G1 X78.124 Y107.232 E4.76972
G1 X75.814 Y106.838 E4.80178
G1 X73.278 Y106.269 E4.83735
G1 X71.022 Y105.638 E4.86941
G1 X68.799 Y104.897 E4.90147
G1 X66.853 Y104.146 E4.93001
G1 X64.709 Y103.202 E4.96207
G1 X62.342 Y102.008 E4.99835
G1 X60.352 Y100.874 E5.02969
G1 X58.376 Y99.615 E5.06176
G1 X56.670 Y98.414 E5.09030
G1 X54.820 Y96.977 E5.12236
G1 X52.851 Y95.280 E5.15793
G1 X51.159 Y93.660 E5.18999
G1 X49.548 Y91.959 E5.22204
G1 X48.186 Y90.379 E5.25059
G1 X46.739 Y88.536 E5.28265
G1 X45.242 Y86.411 E5.31822
G1 X43.994 Y84.428 E5.35028
G1 X42.845 Y82.387 E5.38233
G1 X41.907 Y80.523 E5.41088
G1 X40.952 Y78.384 E5.44294
G1 X40.017 Y75.959 E5.47851
G1 X39.288 Y73.733 E5.51056
G1 X38.669 Y71.473 E5.54262
G1 X38.162 Y69.186 E5.57468
G1 X37.768 Y66.877 E5.60674
G1 X37.487 Y64.551 E5.63880
G1 X37.334 Y62.470 E5.66734
G1 X37.271 Y59.820 E5.70362
G1 X37.334 Y57.530 E5.73497
G1 X37.512 Y55.194 E5.76703
G1 X37.768 Y53.124 E5.79557
G1 X38.162 Y50.814 E5.82763
G1 X38.669 Y48.527 E5.85969
G1 X39.288 Y46.268 E5.89175
G1 X40.017 Y44.041 E5.92380
G1 X40.854 Y41.853 E5.95586
G1 X41.907 Y39.477 E5.99143
G1 X42.845 Y37.613 E6.01998
G1 X43.994 Y35.572 E6.05204
G1 X45.242 Y33.589 E6.08409
G1 X46.007 Y32.493 E6.10238
G1 X46.415 Y32.689 F7800.000
G4 P29
G1 X47.091 Y31.739 E6.11834 F1800.000
G1 X48.375 Y30.094 E6.14688
G1 X49.886 Y28.333 E6.17864
G1 X51.648 Y26.482 E6.21361
G1 X53.333 Y24.886 E6.24537
G1 X55.094 Y23.375 E6.27713
G1 X56.739 Y22.091 E6.30567
G1 X58.633 Y20.750 E6.33743
G1 X60.590 Y19.504 E6.36919
G1 X62.814 Y18.244 E6.40416
G1 X64.890 Y17.206 E6.43592
G1 X66.797 Y16.360 E6.46447
G1 X68.960 Y15.520 E6.49622
G1 X71.387 Y14.718 E6.53119
G1 X73.625 Y14.105 E6.56295
G1 X75.891 Y13.602 E6.59471
G1 X78.178 Y13.211 E6.62647
G1 X80.248 Y12.955 E6.65501
G1 X82.797 Y12.767 E6.68999
G1 X85.169 Y12.717 E6.72245
G1 X87.437 Y12.779 E6.75350 F1800.000
G1 X89.752 Y12.955 E6.78526
G1 X91.822 Y13.211 E6.81380
G1 X94.109 Y13.602 E6.84556
G1 X96.603 Y14.162 E6.88053
G1 X98.838 Y14.786 E6.91229
G1 X101.040 Y15.520 E6.94405
G1 X102.986 Y16.270 E6.97259
G1 X105.110 Y17.206 E7.00435
G1 X107.393 Y18.355 E7.03932
G1 X109.208 Y19.383 E7.06787
G1 X111.172 Y20.620 E7.09963
G1 X113.073 Y21.951 E7.13139
G1 X114.906 Y23.375 E7.16314
G1 X116.841 Y25.044 E7.19811
G1 X118.352 Y26.482 E7.22666
G1 X119.956 Y28.159 E7.25842
G1 X121.625 Y30.094 E7.29339
G1 X123.049 Y31.927 E7.32515
G1 X124.380 Y33.828 E7.35691
G1 X125.497 Y35.591 E7.38546
G1 X126.645 Y37.607 E7.41721
G1 X127.694 Y39.677 E7.44897
G1 X128.640 Y41.797 E7.48073
G1 X129.480 Y43.960 E7.51248
G1 X130.214 Y46.162 E7.54424
G1 X130.895 Y48.625 E7.57921
G1 X131.353 Y50.660 E7.60776
G1 X131.755 Y52.946 E7.63952
G1 X132.045 Y55.248 E7.67127
G1 X132.221 Y57.563 E7.70303
G1 X132.284 Y60.117 E7.73800
G1 X132.221 Y62.437 E7.76976
G1 X132.068 Y64.518 E7.79831
G1 X131.789 Y66.822 E7.83007
G1 X131.398 Y69.109 E7.86182
G1 X130.838 Y71.603 E7.89679
G1 X130.282 Y73.614 E7.92534
G1 X129.559 Y75.819 E7.95710
G1 X128.730 Y77.986 E7.98886
G1 X127.794 Y80.111 E8.02062
G1 X126.645 Y82.393 E8.05559
G1 X125.496 Y84.410 E8.08734
G1 X124.250 Y86.367 E8.11910
G1 X123.049 Y88.073 E8.14765
G1 X121.625 Y89.906 E8.17941
G1 X120.114 Y91.667 E8.21116
G1 X118.554 Y93.314 E8.24221
G1 X116.667 Y95.114 E8.27789
G1 X115.087 Y96.476 E8.30644
G1 X113.261 Y97.909 E8.33819
G1 X111.172 Y99.380 E8.37317
G1 X109.208 Y100.617 E8.40492
G1 X107.186 Y101.756 E8.43668
G1 X105.323 Y102.694 E8.46523
G1 X103.203 Y103.640 E8.49699
G1 X101.040 Y104.480 E8.52874
G1 X98.838 Y105.214 E8.56050
G1 X96.603 Y105.838 E8.59226
G1 X94.340 Y106.353 E8.62402
G1 X91.822 Y106.789 E8.65899
G1 X89.518 Y107.068 E8.69074
G1 X87.437 Y107.221 E8.71929
G1 X84.883 Y107.284 E8.75426
G1 X82.797 Y107.233 E8.78281
G1 X80.482 Y107.068 E8.81457
G1 X78.178 Y106.789 E8.84633
G1 X75.891 Y106.398 E8.87808
G1 X73.397 Y105.838 E8.91305
G1 X71.162 Y105.214 E8.94481
G1 X68.960 Y104.480 E8.97657
G1 X67.014 Y103.730 E9.00512
G1 X64.890 Y102.794 E9.03687
G1 X62.562 Y101.620 E9.07256
G1 X60.591 Y100.497 E9.10360
G1 X58.633 Y99.250 E9.13536
G1 X56.927 Y98.049 E9.16391
G1 X55.094 Y96.625 E9.19566
G1 X53.159 Y94.956 E9.23063
G1 X51.482 Y93.352 E9.26239
G1 X49.886 Y91.667 E9.29415
G1 X48.524 Y90.087 E9.32270
G1 X47.091 Y88.261 E9.35445
G1 X45.620 Y86.172 E9.38943
G1 X44.383 Y84.208 E9.42118
G1 X43.244 Y82.186 E9.45294
G1 X42.306 Y80.323 E9.48149
G1 X41.360 Y78.203 E9.51325
G1 X40.441 Y75.819 E9.54822
G1 X39.718 Y73.614 E9.57997
G1 X39.105 Y71.375 E9.61173
G1 X38.602 Y69.109 E9.64349
G1 X38.211 Y66.822 E9.67525
G1 X37.955 Y64.752 E9.70379
G1 X37.779 Y62.437 E9.73555
G1 X37.716 Y59.883 E9.77052
G1 X37.779 Y57.563 E9.80228
G1 X37.955 Y55.248 E9.83404
G1 X38.211 Y53.178 E9.86258
G1 X38.602 Y50.891 E9.89434
G1 X39.105 Y48.625 E9.92610
G1 X39.718 Y46.387 E9.95786
G1 X40.441 Y44.181 E9.98962
G1 X41.270 Y42.014 E10.02138
G1 X42.306 Y39.677 E10.05635
G1 X43.244 Y37.814 E10.08489
G1 X44.383 Y35.792 E10.11665
G1 X45.620 Y33.828 E10.14841
G1 X46.372 Y32.750 E10.16639
G1 X46.780 Y32.946 F7800.000
G4 P29
G1 X47.443 Y32.013 E10.18205 F1800.000
G1 X48.726 Y30.369 E10.21060
G1 X50.224 Y28.625 E10.24206
G1 X51.805 Y26.956 E10.27352
G1 X53.625 Y25.224 E10.30789
G1 X55.369 Y23.726 E10.33935
G1 X57.013 Y22.443 E10.36789
G1 X58.890 Y21.115 E10.39935
G1 X60.829 Y19.881 E10.43081
G1 X63.015 Y18.643 E10.46518
G1 X64.878 Y17.705 E10.49372
G1 X66.978 Y16.768 E10.52518
G1 X69.121 Y15.936 E10.55664
G1 X71.506 Y15.148 E10.59101
G1 X73.723 Y14.540 E10.62247
G1 X75.967 Y14.041 E10.65393
G1 X78.233 Y13.654 E10.68539
G1 X80.303 Y13.398 E10.71393
G1 X82.808 Y13.213 E10.74831
G1 X85.158 Y13.164 E10.78048
G1 X87.404 Y13.224 E10.81122 F1800.000
G1 X89.697 Y13.398 E10.84268
G1 X91.767 Y13.654 E10.87123
G1 X94.033 Y14.041 E10.90268
G1 X96.484 Y14.592 E10.93706
G1 X98.698 Y15.210 E10.96851
G1 X100.879 Y15.936 E10.99997
G1 X102.826 Y16.687 E11.02852
G1 X104.929 Y17.614 E11.05998
G1 X107.173 Y18.743 E11.09435
G1 X108.988 Y19.771 E11.12289
G1 X110.933 Y20.997 E11.15435
G1 X112.816 Y22.316 E11.18581
G1 X114.631 Y23.726 E11.21727
G1 X116.375 Y25.224 E11.24873
G1 X118.006 Y26.769 E11.27947
G1 X119.776 Y28.625 E11.31456
G1 X121.139 Y30.204 E11.34310
G1 X122.557 Y32.013 E11.37456
G1 X124.003 Y34.067 E11.40893
G1 X125.120 Y35.830 E11.43748
G1 X126.257 Y37.827 E11.46894
G1 X127.295 Y39.878 E11.50039
G1 X128.232 Y41.978 E11.53185
G1 X129.064 Y44.121 E11.56331
G1 X129.790 Y46.302 E11.59477
G1 X130.460 Y48.723 E11.62914
G1 X130.917 Y50.758 E11.65769
G1 X131.315 Y53.023 E11.68915
G1 X131.602 Y55.303 E11.72060
G1 X131.776 Y57.595 E11.75206
G1 X131.838 Y60.106 E11.78643
G1 X131.776 Y62.405 E11.81789
G1 X131.623 Y64.485 E11.84644
G1 X131.346 Y66.767 E11.87790
G1 X130.959 Y69.033 E11.90935
G1 X130.408 Y71.484 E11.94372
G1 X129.852 Y73.495 E11.97227
G1 X129.136 Y75.679 E12.00373
G1 X128.313 Y77.826 E12.03519
G1 X127.386 Y79.930 E12.06665
G1 X126.257 Y82.173 E12.10102
G1 X125.119 Y84.171 E12.13248
G1 X123.885 Y86.110 E12.16393
G1 X122.684 Y87.816 E12.19248
G1 X121.273 Y89.631 E12.22394
G1 X119.776 Y91.375 E12.25540
G1 X118.231 Y93.006 E12.28614
G1 X116.375 Y94.776 E12.32123
G1 X114.796 Y96.139 E12.34977
G1 X112.987 Y97.557 E12.38123
G1 X110.933 Y99.003 E12.41560
G1 X108.988 Y100.229 E12.44706
G1 X106.985 Y101.357 E12.47852
G1 X104.929 Y102.386 E12.50998
G1 X102.826 Y103.313 E12.54143
G1 X100.879 Y104.064 E12.56998
G1 X98.698 Y104.790 E12.60144
G1 X96.277 Y105.460 E12.63581
G1 X94.242 Y105.917 E12.66435
G1 X91.978 Y106.315 E12.69581
G1 X89.433 Y106.626 E12.73089
G1 X87.192 Y106.787 E12.76164
G1 X84.894 Y106.838 E12.79310
G1 X82.808 Y106.787 E12.82165
G1 X80.515 Y106.623 E12.85310
G1 X78.233 Y106.346 E12.88456
G1 X75.967 Y105.959 E12.91602
G1 X73.516 Y105.408 E12.95039
G1 X71.506 Y104.852 E12.97894
G1 X69.321 Y104.136 E13.01040
G1 X66.978 Y103.232 E13.04477
G1 X64.878 Y102.295 E13.07623
G1 X62.827 Y101.257 E13.10769
G1 X60.830 Y100.120 E13.13914
G1 X59.067 Y99.003 E13.16769
G1 X57.184 Y97.684 E13.19915
G1 X55.369 Y96.274 E13.23061
G1 X53.467 Y94.633 E13.26498
G1 X51.805 Y93.044 E13.29643
G1 X50.224 Y91.375 E13.32789
G1 X48.861 Y89.796 E13.35644
G1 X47.443 Y87.987 E13.38790
G1 X45.997 Y85.933 E13.42227
G1 X44.771 Y83.988 E13.45373
G1 X43.643 Y81.985 E13.48519
G1 X42.705 Y80.122 E13.51373
G1 X41.768 Y78.022 E13.54519
G1 X40.864 Y75.679 E13.57956
G1 X40.148 Y73.494 E13.61102
G1 X39.540 Y71.277 E13.64248
G1 X39.041 Y69.033 E13.67394
G1 X38.654 Y66.767 E13.70539
G1 X38.377 Y64.485 E13.73685
G1 X38.224 Y62.405 E13.76540
G1 X38.164 Y59.841 E13.80048
G1 X38.224 Y57.596 E13.83123
G1 X38.398 Y55.303 E13.86269
G1 X38.654 Y53.233 E13.89123
G1 X39.041 Y50.967 E13.92269
G1 X39.540 Y48.723 E13.95415
G1 X40.148 Y46.506 E13.98561
G1 X40.864 Y44.321 E14.01707
G1 X41.687 Y42.174 E14.04852
G1 X42.705 Y39.878 E14.08290
G1 X43.643 Y38.015 E14.11144
G1 X44.771 Y36.012 E14.14290
G1 X45.997 Y34.067 E14.17436
G1 X46.736 Y33.007 E14.19204
G1 X47.145 Y33.203 F7800.000
G4 P29
G1 X47.795 Y32.288 E14.20740 F1800.000
G1 X49.078 Y30.643 E14.23595
G1 X50.562 Y28.916 E14.26711
G1 X52.129 Y27.264 E14.29827
G1 X53.916 Y25.562 E14.33204
G1 X55.643 Y24.078 E14.36320
G1 X57.288 Y22.795 E14.39174
G1 X59.147 Y21.480 E14.42290
G1 X61.068 Y20.258 E14.45406
G1 X63.215 Y19.041 E14.48783
G1 X65.079 Y18.103 E14.51638
G1 X67.158 Y17.176 E14.54754
G1 X69.281 Y16.353 E14.57870
G1 X71.442 Y15.634 E14.60985
G1 X73.820 Y14.976 E14.64363
G1 X76.043 Y14.481 E14.67479
G1 X78.287 Y14.097 E14.70594
G1 X80.358 Y13.841 E14.73449
G1 X82.819 Y13.660 E14.76826
G1 X85.148 Y13.610 E14.80013
G1 X87.372 Y13.669 E14.83058 F1800.000
G1 X89.642 Y13.841 E14.86174
G1 X91.902 Y14.125 E14.89290
G1 X93.957 Y14.481 E14.92144
G1 X96.365 Y15.022 E14.95521
G1 X98.558 Y15.634 E14.98637
G1 X100.719 Y16.353 E15.01753
G1 X102.665 Y17.103 E15.04608
G1 X104.749 Y18.022 E15.07723
G1 X106.953 Y19.131 E15.11101
G1 X108.768 Y20.160 E15.13955
G1 X110.694 Y21.374 E15.17071
G1 X112.559 Y22.681 E15.20187
G1 X114.357 Y24.078 E15.23303
G1 X116.225 Y25.690 E15.26680
G1 X117.736 Y27.129 E15.29535
G1 X119.310 Y28.775 E15.32650
G1 X120.922 Y30.643 E15.36028
G1 X122.319 Y32.441 E15.39144
G1 X123.626 Y34.306 E15.42259
G1 X124.742 Y36.068 E15.45114
G1 X125.869 Y38.047 E15.48230
G1 X126.897 Y40.079 E15.51346
G1 X127.824 Y42.158 E15.54462
G1 X128.712 Y44.461 E15.57839
G1 X129.422 Y46.625 E15.60955
G1 X130.024 Y48.820 E15.64071
G1 X130.482 Y50.856 E15.66925
G1 X130.875 Y53.099 E15.70041
G1 X131.159 Y55.358 E15.73157
G1 X131.331 Y57.628 E15.76273
G1 X131.392 Y60.096 E15.79650
G1 X131.340 Y62.181 E15.82504
G1 X131.177 Y64.452 E15.85621
G1 X130.903 Y66.713 E15.88736
G1 X130.519 Y68.957 E15.91852
G1 X129.978 Y71.365 E15.95229
G1 X129.422 Y73.376 E15.98084
G1 X128.712 Y75.539 E16.01200
G1 X127.897 Y77.665 E16.04316
G1 X126.978 Y79.749 E16.07432
G1 X125.869 Y81.953 E16.10809
G1 X124.742 Y83.932 E16.13925
G1 X123.520 Y85.853 E16.17040
G1 X122.319 Y87.559 E16.19895
G1 X120.922 Y89.357 E16.23011
G1 X119.438 Y91.084 E16.26127
G1 X117.907 Y92.698 E16.29171
G1 X116.084 Y94.438 E16.32620
G1 X114.504 Y95.801 E16.35474
G1 X112.712 Y97.205 E16.38590
G1 X110.694 Y98.626 E16.41967
G1 X108.768 Y99.840 E16.45083
G1 X106.785 Y100.959 E16.48199
G1 X104.921 Y101.897 E16.51054
G1 X102.842 Y102.824 E16.54169
G1 X100.719 Y103.647 E16.57285
G1 X98.558 Y104.366 E16.60401
G1 X96.365 Y104.978 E16.63517
G1 X94.144 Y105.481 E16.66633
G1 X91.713 Y105.903 E16.70010
G1 X89.452 Y106.177 E16.73126
G1 X87.372 Y106.331 E16.75981
G1 X84.904 Y106.392 E16.79358
G1 X82.819 Y106.340 E16.82212
G1 X80.548 Y106.178 E16.85328
G1 X78.287 Y105.903 E16.88444
G1 X76.043 Y105.519 E16.91560
G1 X73.635 Y104.978 E16.94937
G1 X71.625 Y104.422 E16.97792
G1 X69.461 Y103.712 E17.00908
G1 X67.158 Y102.824 E17.04285
G1 X65.079 Y101.897 E17.07401
G1 X63.047 Y100.869 E17.10516
G1 X61.068 Y99.742 E17.13632
G1 X59.147 Y98.520 E17.16748
G1 X57.441 Y97.319 E17.19603
G1 X55.643 Y95.922 E17.22719
G1 X53.775 Y94.310 E17.26096
G1 X52.129 Y92.736 E17.29212
G1 X50.562 Y91.084 E17.32328
G1 X49.078 Y89.357 E17.35444
G1 X47.795 Y87.712 E17.38298
G1 X46.374 Y85.694 E17.41675
G1 X45.160 Y83.768 E17.44791
G1 X44.041 Y81.785 E17.47907
G1 X43.103 Y79.921 E17.50762
G1 X42.176 Y77.842 E17.53877
G1 X41.288 Y75.539 E17.57255
G1 X40.578 Y73.375 E17.60370
G1 X39.976 Y71.180 E17.63486
G1 X39.481 Y68.957 E17.66602
G1 X39.097 Y66.713 E17.69718
G1 X38.823 Y64.452 E17.72834
G1 X38.669 Y62.372 E17.75688
G1 X38.610 Y59.852 E17.79137
G1 X38.669 Y57.628 E17.82181
G1 X38.841 Y55.358 E17.85297
G1 X39.125 Y53.098 E17.88413
G1 X39.481 Y51.043 E17.91268
G1 X39.976 Y48.820 E17.94384
G1 X40.578 Y46.625 E17.97500
G1 X41.288 Y44.461 E18.00615
G1 X42.103 Y42.335 E18.03731
G1 X43.103 Y40.079 E18.07109
G1 X44.131 Y38.047 E18.10224
G1 X45.160 Y36.232 E18.13079
G1 X46.374 Y34.306 E18.16195
G1 X47.101 Y33.264 E18.17933
G1 X47.510 Y33.460 F7800.000
G4 P29
G1 X48.147 Y32.562 E18.19439 F1800.000
G1 X49.430 Y30.918 E18.22294
G1 X50.900 Y29.208 E18.25380
G1 X52.452 Y27.572 E18.28466
G1 X54.208 Y25.900 E18.31783
