; generated by Slic3r 1.2.9 on 2016-05-02 at 20:08:25

; external perimeters extrusion width = 0.50mm
; perimeters extrusion width = 0.50mm
; infill extrusion width = 0.50mm
; solid infill extrusion width = 0.50mm
; top infill extrusion width = 0.50mm

M107
M190 S60 ; set bed temperature
M104 S210 ; set temperature
G28 ; home all axes
M109 S210 ; wait for temperature to be reached
G21 ; set units to millimeters
G90 ; use absolute coordinates
M82 ; use absolute distances for extrusion
G92 E0
G1 Z0.350 F7800.000
G1 E-2.00000 F1920.00000
G92 E0
G1 X59.096 Y47.147 F7800.000
G1 E2.00000 F1920.00000
M204 S3000
G1 X59.647 Y46.596 E2.00592 F1500.000
G1 X60.639 Y45.834 E2.01542
G1 X61.358 Y45.412 E2.02175
G1 X62.563 Y44.912 E2.03167
G1 X63.316 Y44.711 E2.03759
G1 X64.610 Y44.540 E2.04751
G1 X65.000 Y44.515 E2.05048
G1 X105.000 Y44.515 E2.35437
G1 X105.390 Y44.540 E2.35733
G1 X106.684 Y44.711 E2.36725 F1500.000
G1 X107.437 Y44.912 E2.37317
G1 X108.642 Y45.412 E2.38309
G1 X109.317 Y45.801 E2.38901
G1 X110.353 Y46.596 E2.39892
G1 X110.904 Y47.147 E2.40484
G1 X111.699 Y48.183 E2.41476
G1 X112.088 Y48.858 E2.42068
G1 X112.588 Y50.063 E2.43060
G1 X112.789 Y50.816 E2.43652
G1 X112.960 Y52.110 E2.44644
G1 X112.985 Y52.500 E2.44940
G1 X112.985 Y67.500 E2.56336
G1 X112.960 Y67.890 E2.56633
G1 X112.789 Y69.184 E2.57624
G1 X112.588 Y69.937 E2.58216
G1 X112.088 Y71.142 E2.59208
G1 X111.699 Y71.817 E2.59800
G1 X110.904 Y72.853 E2.60792
G1 X110.353 Y73.404 E2.61384
G1 X109.361 Y74.165 E2.62334
G1 X108.642 Y74.588 E2.62967
G1 X107.437 Y75.088 E2.63959
G1 X106.684 Y75.289 E2.64551
G1 X105.390 Y75.460 E2.65543
G1 X105.000 Y75.485 E2.65839
G1 X65.000 Y75.485 E2.96228
G1 X64.610 Y75.460 E2.96525
G1 X63.316 Y75.289 E2.97517
G1 X62.563 Y75.088 E2.98109
G1 X61.358 Y74.588 E2.99101
G1 X60.683 Y74.199 E2.99693
G1 X59.647 Y73.404 E3.00684
G1 X59.096 Y72.853 E3.01276
G1 X58.301 Y71.817 E3.02268
G1 X57.912 Y71.142 E3.02860
G1 X57.412 Y69.937 E3.03852
G1 X57.211 Y69.184 E3.04444
G1 X57.040 Y67.890 E3.05436
G1 X57.015 Y67.500 E3.05732
G1 X57.015 Y52.500 E3.17128
G1 X57.040 Y52.110 E3.17425
G1 X57.211 Y50.816 E3.18416
G1 X57.412 Y50.063 E3.19008
G1 X57.912 Y48.858 E3.20000
G1 X58.301 Y48.183 E3.20592
G1 X59.050 Y47.207 E3.21527
G1 X59.291 Y47.297 F7800.000
G4 P31
G1 X59.797 Y46.791 E3.22070 F1500.000
G1 X60.789 Y46.030 E3.23020
G1 X61.452 Y45.639 E3.23605
G1 X62.658 Y45.140 E3.24596
G1 X63.348 Y44.955 E3.25139
G1 X64.643 Y44.784 E3.26131
G1 X65.000 Y44.761 E3.26403
G1 X105.000 Y44.761 E3.56792
G1 X105.358 Y44.784 E3.57065
G1 X106.652 Y44.955 E3.58056 F1500.000
G1 X107.342 Y45.140 E3.58599
G1 X108.548 Y45.639 E3.59591
G1 X109.167 Y45.997 E3.60134
G1 X110.203 Y46.791 E3.61126
G1 X110.709 Y47.297 E3.61669
G1 X111.503 Y48.333 E3.62661
G1 X111.861 Y48.952 E3.63204
G1 X112.360 Y50.158 E3.64196
G1 X112.545 Y50.848 E3.64739
G1 X112.716 Y52.142 E3.65731
G1 X112.739 Y52.500 E3.66003
G1 X112.739 Y67.500 E3.77399
G1 X112.716 Y67.858 E3.77671
G1 X112.545 Y69.152 E3.78663
G1 X112.360 Y69.842 E3.79206
G1 X111.861 Y71.048 E3.80197
G1 X111.503 Y71.667 E3.80741
G1 X110.709 Y72.703 E3.81732
G1 X110.203 Y73.209 E3.82275
G1 X109.211 Y73.970 E3.83226
G1 X108.548 Y74.361 E3.83810
G1 X107.342 Y74.860 E3.84802
G1 X106.652 Y75.045 E3.85345
G1 X105.357 Y75.216 E3.86337
G1 X105.000 Y75.239 E3.86609
G1 X65.000 Y75.239 E4.16998
G1 X64.642 Y75.216 E4.17270
G1 X63.348 Y75.045 E4.18262
G1 X62.658 Y74.860 E4.18805
G1 X61.452 Y74.361 E4.19796
G1 X60.833 Y74.003 E4.20340
G1 X59.797 Y73.209 E4.21331
G1 X59.291 Y72.703 E4.21875
G1 X58.497 Y71.667 E4.22866
G1 X58.139 Y71.048 E4.23409
G1 X57.640 Y69.842 E4.24401
G1 X57.455 Y69.152 E4.24944
G1 X57.284 Y67.857 E4.25936
G1 X57.261 Y67.500 E4.26208
G1 X57.261 Y52.500 E4.37604
G1 X57.284 Y52.143 E4.37876
G1 X57.455 Y50.848 E4.38868
G1 X57.640 Y50.158 E4.39411
G1 X58.139 Y48.952 E4.40403
G1 X58.497 Y48.333 E4.40946
G1 X59.246 Y47.357 E4.41881
G1 X59.487 Y47.447 F7800.000
G4 P31
G1 X59.947 Y46.987 E4.42375 F1500.000
G1 X60.939 Y46.225 E4.43325
G1 X61.546 Y45.867 E4.43861
G1 X62.752 Y45.367 E4.44852
G1 X63.381 Y45.199 E4.45347
G1 X64.675 Y45.029 E4.46338
G1 X65.000 Y45.007 E4.46586
G1 X105.000 Y45.007 E4.76975
G1 X105.325 Y45.029 E4.77223
G1 X106.619 Y45.199 E4.78214 F1500.000
G1 X107.248 Y45.367 E4.78709
G1 X108.454 Y45.867 E4.79700
G1 X109.017 Y46.192 E4.80195
G1 X110.053 Y46.987 E4.81186
G1 X110.513 Y47.447 E4.81681
G1 X111.308 Y48.483 E4.82672
G1 X111.633 Y49.046 E4.83167
G1 X112.133 Y50.252 E4.84159
G1 X112.301 Y50.881 E4.84653
G1 X112.471 Y52.175 E4.85645
G1 X112.493 Y52.500 E4.85892
G1 X112.493 Y67.500 E4.97288
G1 X112.471 Y67.825 E4.97536
G1 X112.301 Y69.120 E4.98528
G1 X112.133 Y69.748 E4.99022
G1 X111.633 Y70.954 E5.00013
G1 X111.308 Y71.517 E5.00508
G1 X110.513 Y72.553 E5.01500
G1 X110.053 Y73.013 E5.01994
G1 X109.061 Y73.775 E5.02944
G1 X108.454 Y74.133 E5.03480
G1 X107.248 Y74.633 E5.04471
G1 X106.619 Y74.801 E5.04966
G1 X105.325 Y74.971 E5.05957
G1 X105.000 Y74.993 E5.06205
G1 X65.000 Y74.993 E5.36594
G1 X64.675 Y74.971 E5.36842
G1 X63.381 Y74.801 E5.37833
G1 X62.752 Y74.633 E5.38328
G1 X61.546 Y74.133 E5.39319
G1 X60.983 Y73.808 E5.39814
G1 X59.947 Y73.013 E5.40805
G1 X59.487 Y72.553 E5.41300
G1 X58.692 Y71.517 E5.42291
G1 X58.367 Y70.954 E5.42786
G1 X57.867 Y69.748 E5.43777
G1 X57.699 Y69.119 E5.44272
G1 X57.529 Y67.825 E5.45263
G1 X57.507 Y67.500 E5.45511
G1 X57.507 Y52.500 E5.56907
G1 X57.529 Y52.175 E5.57155
G1 X57.699 Y50.881 E5.58146
G1 X57.867 Y50.252 E5.58641
G1 X58.367 Y49.046 E5.59632
G1 X58.692 Y48.483 E5.60127
G1 X59.441 Y47.507 E5.61061
G1 X59.682 Y47.597 F7800.000
G4 P31
G1 X60.097 Y47.182 E5.61507 F1500.000
G1 X61.089 Y46.421 E5.62457
G1 X61.640 Y46.095 E5.62944
G1 X62.846 Y45.595 E5.63935
G1 X63.413 Y45.443 E5.64381
G1 X64.707 Y45.273 E5.65373
G1 X65.000 Y45.254 E5.65596
G1 X105.000 Y45.254 E5.95985
G1 X105.293 Y45.273 E5.96208
G1 X106.587 Y45.443 E5.97200 F1500.000
G1 X107.154 Y45.595 E5.97645
G1 X108.360 Y46.095 E5.98637
G1 X108.867 Y46.388 E5.99082
G1 X109.903 Y47.182 E6.00074
G1 X110.318 Y47.597 E6.00520
G1 X111.112 Y48.633 E6.01511
G1 X111.405 Y49.140 E6.01957
G1 X111.905 Y50.346 E6.02948
G1 X112.057 Y50.913 E6.03394
G1 X112.227 Y52.207 E6.04385
G1 X112.246 Y52.500 E6.04609
G1 X112.246 Y67.500 E6.16005
G1 X112.227 Y67.793 E6.16228
G1 X112.057 Y69.087 E6.17220
G1 X111.905 Y69.654 E6.17665
G1 X111.405 Y70.860 E6.18657
G1 X111.112 Y71.367 E6.19102
G1 X110.318 Y72.403 E6.20094
G1 X109.903 Y72.818 E6.20539
G1 X108.911 Y73.579 E6.21490
G1 X108.360 Y73.905 E6.21976
G1 X107.154 Y74.405 E6.22968
G1 X106.587 Y74.557 E6.23413
G1 X105.293 Y74.727 E6.24405
G1 X105.000 Y74.746 E6.24628
G1 X65.000 Y74.746 E6.55017
G1 X64.707 Y74.727 E6.55240
G1 X63.413 Y74.557 E6.56232
G1 X62.846 Y74.405 E6.56678
G1 X61.640 Y73.905 E6.57669
G1 X61.133 Y73.612 E6.58115
G1 X60.097 Y72.818 E6.59106
G1 X59.682 Y72.403 E6.59552
G1 X58.888 Y71.367 E6.60544
G1 X58.595 Y70.860 E6.60989
G1 X58.095 Y69.654 E6.61981
G1 X57.943 Y69.087 E6.62426
G1 X57.773 Y67.793 E6.63418
G1 X57.754 Y67.500 E6.63641
G1 X57.754 Y52.500 E6.75037
G1 X57.773 Y52.207 E6.75260
G1 X57.943 Y50.913 E6.76252
G1 X58.095 Y50.346 E6.76697
G1 X58.595 Y49.140 E6.77689
G1 X58.888 Y48.633 E6.78135
G1 X59.637 Y47.656 E6.79069
G1 E4.79069 F1920.00000
G92 E0
G1 X66.970 Y68.583 F7800.000
G1 E2.00000 F1920.00000
G1 X66.639 Y69.039 E2.00428 F1500.000
G1 X66.204 Y69.398 E2.00856
G1 X65.695 Y69.638 E2.01284
G1 X65.141 Y69.743 E2.01712
G1 X64.579 Y69.708 E2.02140
G1 X64.043 Y69.534 E2.02568
G1 X63.567 Y69.232 E2.02996
G1 X63.181 Y68.821 E2.03425
G1 X62.920 Y68.345 E2.03837
G1 X62.770 Y67.785 E2.04278
G1 X62.770 Y67.218 E2.04708
G1 X62.910 Y66.673 E2.05136
G1 X63.181 Y66.179 E2.05564
G1 X63.567 Y65.768 E2.05993
G1 X64.046 Y65.464 E2.06423
G1 X64.599 Y65.291 E2.06863
G1 X65.141 Y65.257 E2.07276 F1500.000
G1 X65.695 Y65.362 E2.07704
G1 X66.204 Y65.602 E2.08133
G1 X66.639 Y65.961 E2.08561
G1 X66.970 Y66.417 E2.08989
G1 X67.177 Y66.941 E2.09417
G1 X67.248 Y67.500 E2.09845
G1 X67.177 Y68.059 E2.10273
G1 X66.997 Y68.513 E2.10644
G1 X66.752 Y68.463 F7800.000
G4 P31
G1 X66.458 Y68.869 E2.11025 F1500.000
G1 X66.071 Y69.188 E2.11406
G1 X65.618 Y69.402 E2.11786
G1 X65.126 Y69.496 E2.12167
G1 X64.625 Y69.464 E2.12548
G1 X64.149 Y69.309 E2.12929
G1 X63.725 Y69.041 E2.13309
G1 X63.382 Y68.675 E2.13690
G1 X63.150 Y68.252 E2.14057
G1 X63.016 Y67.753 E2.14450
G1 X63.016 Y67.249 E2.14832
G1 X63.141 Y66.764 E2.15213
G1 X63.382 Y66.325 E2.15594
G1 X63.725 Y65.959 E2.15974
G1 X64.150 Y65.690 E2.16357
G1 X64.644 Y65.535 E2.16750
G1 X65.126 Y65.504 E2.17116 F1500.000
G1 X65.618 Y65.598 E2.17497
G1 X66.071 Y65.812 E2.17878
G1 X66.458 Y66.131 E2.18259
G1 X66.752 Y66.537 E2.18640
G1 X66.937 Y67.003 E2.19020
G1 X66.999 Y67.500 E2.19401
G1 X66.937 Y67.997 E2.19782
G1 X66.780 Y68.394 E2.20106
G1 X66.535 Y68.344 F7800.000
G4 P31
G1 X66.277 Y68.699 E2.20439 F1500.000
G1 X65.938 Y68.979 E2.20773
G1 X65.541 Y69.165 E2.21106
G1 X65.110 Y69.248 E2.21440
G1 X64.672 Y69.220 E2.21773
G1 X64.254 Y69.085 E2.22107
G1 X63.884 Y68.849 E2.22440
G1 X63.583 Y68.529 E2.22774
G1 X63.380 Y68.160 E2.23094
G1 X63.263 Y67.720 E2.23440
G1 X63.263 Y67.281 E2.23774
G1 X63.372 Y66.855 E2.24107
G1 X63.583 Y66.471 E2.24441
G1 X63.884 Y66.151 E2.24774
G1 X64.255 Y65.915 E2.25108
G1 X64.689 Y65.779 E2.25454
G1 X65.110 Y65.752 E2.25774 F1500.000
G1 X65.541 Y65.835 E2.26108
G1 X65.938 Y66.021 E2.26441
G1 X66.277 Y66.301 E2.26775
G1 X66.535 Y66.656 E2.27108
G1 X66.696 Y67.064 E2.27442
G1 X66.751 Y67.500 E2.27775
G1 X66.696 Y67.936 E2.28109
G1 X66.562 Y68.274 E2.28385
G4 P1
G1 X66.746 Y68.728 F7800.000
G1 E0.28385 F1920.00000
G92 E0
G4 P29
G1 X65.141 Y54.743 F7800.000
G1 E2.00000 F1920.00000
G1 X64.579 Y54.708 E2.00428 F1500.000
G1 X64.043 Y54.534 E2.00856
G1 X63.567 Y54.232 E2.01284
G1 X63.181 Y53.821 E2.01712
G1 X62.910 Y53.327 E2.02140
G1 X62.770 Y52.782 E2.02568
G1 X62.770 Y52.218 E2.02996
G1 X62.910 Y51.673 E2.03425
G1 X63.181 Y51.179 E2.03853
G1 X63.567 Y50.768 E2.04281
G1 X64.046 Y50.464 E2.04711
G1 X64.599 Y50.291 E2.05152
G1 X65.141 Y50.257 E2.05565 F1500.000
G1 X65.695 Y50.362 E2.05993
G1 X66.204 Y50.602 E2.06421
G1 X66.639 Y50.961 E2.06849
G1 X66.970 Y51.417 E2.07277
G1 X67.177 Y51.941 E2.07705
G1 X67.248 Y52.500 E2.08133
G1 X67.177 Y53.059 E2.08561
G1 X66.970 Y53.583 E2.08989
G1 X66.639 Y54.039 E2.09417
G1 X66.204 Y54.398 E2.09845
G1 X65.695 Y54.638 E2.10273
G1 X65.215 Y54.729 E2.10644
G1 X65.126 Y54.496 F7800.000
G1 X64.625 Y54.464 E2.11025 F1500.000
G1 X64.149 Y54.309 E2.11406
G1 X63.725 Y54.041 E2.11787
G1 X63.382 Y53.675 E2.12167
G1 X63.141 Y53.236 E2.12548
G1 X63.016 Y52.751 E2.12929
G1 X63.016 Y52.249 E2.13310
G1 X63.141 Y51.764 E2.13691
G1 X63.382 Y51.325 E2.14071
G1 X63.725 Y50.959 E2.14452
G1 X64.150 Y50.690 E2.14834
G1 X64.644 Y50.535 E2.15228
G1 X65.126 Y50.504 E2.15594 F1500.000
G1 X65.618 Y50.598 E2.15975
G1 X66.071 Y50.812 E2.16356
G1 X66.458 Y51.131 E2.16736
G1 X66.752 Y51.537 E2.17117
G1 X66.937 Y52.003 E2.17498
G1 X66.999 Y52.500 E2.17879
G1 X66.937 Y52.997 E2.18260
G1 X66.752 Y53.463 E2.18640
G1 X66.458 Y53.869 E2.19021
G1 X66.071 Y54.188 E2.19402
G1 X65.618 Y54.402 E2.19783
G1 X65.199 Y54.481 E2.20106
G1 X65.110 Y54.248 F7800.000
G1 X64.672 Y54.220 E2.20440 F1500.000
G1 X64.254 Y54.085 E2.20773
G1 X63.884 Y53.849 E2.21107
G1 X63.583 Y53.529 E2.21440
G1 X63.372 Y53.145 E2.21774
G1 X63.263 Y52.719 E2.22107
G1 X63.263 Y52.281 E2.22441
G1 X63.372 Y51.855 E2.22774
G1 X63.583 Y51.471 E2.23108
G1 X63.884 Y51.151 E2.23441
G1 X64.255 Y50.915 E2.23775
G1 X64.689 Y50.779 E2.24121
G1 X65.110 Y50.752 E2.24442 F1500.000
G1 X65.541 Y50.835 E2.24775
G1 X65.938 Y51.021 E2.25108
G1 X66.277 Y51.301 E2.25442
G1 X66.535 Y51.656 E2.25775
G1 X66.696 Y52.064 E2.26109
G1 X66.751 Y52.500 E2.26442
G1 X66.696 Y52.936 E2.26776
G1 X66.535 Y53.344 E2.27109
G1 X66.277 Y53.699 E2.27443
G1 X65.938 Y53.979 E2.27776
G1 X65.541 Y54.165 E2.28110
G1 X65.184 Y54.234 E2.28386
G1 X64.898 Y54.632 F7800.000
G1 E0.28386 F1920.00000
G92 E0
G1 X102.770 Y52.782 F7800.000
G1 E2.00000 F1920.00000
G1 X102.770 Y52.218 E2.00428 F1500.000
G1 X102.905 Y51.692 E2.00841
G1 X103.179 Y51.181 E2.01281
G1 X103.567 Y50.768 E2.01712
G1 X104.046 Y50.464 E2.02142
G1 X104.599 Y50.291 E2.02583
G1 X105.141 Y50.257 E2.02996 F1500.000
G1 X105.695 Y50.362 E2.03424
G1 X106.204 Y50.602 E2.03852
G1 X106.639 Y50.961 E2.04280
G1 X106.970 Y51.417 E2.04708
G1 X107.177 Y51.941 E2.05136
G1 X107.248 Y52.500 E2.05564
G1 X107.177 Y53.059 E2.05992
G1 X106.970 Y53.583 E2.06420
G1 X106.639 Y54.039 E2.06848
G1 X106.204 Y54.398 E2.07276
G1 X105.695 Y54.638 E2.07704
G1 X105.141 Y54.743 E2.08133
G1 X104.579 Y54.708 E2.08561
G1 X104.043 Y54.534 E2.08989
G1 X103.567 Y54.232 E2.09417
G1 X103.181 Y53.821 E2.09845
G1 X102.910 Y53.327 E2.10273
G1 X102.789 Y52.854 E2.10644
G1 X103.016 Y52.751 F7800.000
G1 X103.016 Y52.249 E2.11025 F1500.000
G1 X103.136 Y51.782 E2.11391
G1 X103.381 Y51.326 E2.11784
G1 X103.725 Y50.959 E2.12167
G1 X104.150 Y50.690 E2.12549
G1 X104.644 Y50.535 E2.12942
G1 X105.126 Y50.504 E2.13309 F1500.000
G1 X105.618 Y50.598 E2.13689
G1 X106.071 Y50.812 E2.14070
G1 X106.458 Y51.131 E2.14451
G1 X106.752 Y51.537 E2.14832
G1 X106.937 Y52.003 E2.15213
G1 X106.999 Y52.500 E2.15593
G1 X106.937 Y52.997 E2.15974
G1 X106.752 Y53.463 E2.16355
G1 X106.458 Y53.869 E2.16736
G1 X106.071 Y54.188 E2.17116
G1 X105.618 Y54.402 E2.17497
G1 X105.126 Y54.496 E2.17878
G1 X104.625 Y54.464 E2.18259
G1 X104.149 Y54.309 E2.18640
G1 X103.725 Y54.041 E2.19020
G1 X103.382 Y53.675 E2.19401
G1 X103.141 Y53.236 E2.19782
G1 X103.035 Y52.823 E2.20106
G1 X103.263 Y52.719 F7800.000
G1 X103.263 Y52.281 E2.20439 F1500.000
G1 X103.367 Y51.872 E2.20759
G1 X103.583 Y51.471 E2.21105
G1 X103.884 Y51.151 E2.21439
G1 X104.255 Y50.915 E2.21773
G1 X104.689 Y50.779 E2.22119
G1 X105.110 Y50.752 E2.22439 F1500.000
G1 X105.541 Y50.835 E2.22773
G1 X105.938 Y51.021 E2.23106
G1 X106.277 Y51.301 E2.23440
G1 X106.535 Y51.656 E2.23773
G1 X106.696 Y52.064 E2.24107
G1 X106.751 Y52.500 E2.24440
G1 X106.696 Y52.936 E2.24774
G1 X106.535 Y53.344 E2.25107
G1 X106.277 Y53.699 E2.25441
G1 X105.938 Y53.979 E2.25774
G1 X105.541 Y54.165 E2.26108
G1 X105.110 Y54.248 E2.26441
G1 X104.672 Y54.220 E2.26775
G1 X104.254 Y54.085 E2.27108
G1 X103.884 Y53.849 E2.27442
G1 X103.583 Y53.529 E2.27775
G1 X103.372 Y53.145 E2.28109
G1 X103.281 Y52.792 E2.28385
G1 X102.865 Y52.533 F7800.000
G1 E0.28385 F1920.00000
G92 E0
G1 X104.599 Y65.291 F7800.000
G1 E2.00000 F1920.00000
G1 X105.141 Y65.257 E2.00413 F1500.000
G4 P11
G1 X105.695 Y65.362 E2.00841
G1 X106.204 Y65.602 E2.01269
G1 X106.639 Y65.961 E2.01697
G1 X106.970 Y66.417 E2.02125
G1 X107.177 Y66.941 E2.02553
G1 X107.248 Y67.500 E2.02981
G1 X107.177 Y68.059 E2.03409
G1 X106.970 Y68.583 E2.03837
G1 X106.639 Y69.039 E2.04266
G1 X106.204 Y69.398 E2.04694
G1 X105.695 Y69.638 E2.05122
G1 X105.141 Y69.743 E2.05550
G1 X104.579 Y69.708 E2.05978
G1 X104.043 Y69.534 E2.06406
G1 X103.567 Y69.232 E2.06834
G1 X103.181 Y68.821 E2.07262
G1 X102.910 Y68.327 E2.07690
G1 X102.770 Y67.782 E2.08118
G1 X102.770 Y67.218 E2.08546
G1 X102.910 Y66.673 E2.08974
G1 X103.181 Y66.179 E2.09402
G1 X103.567 Y65.768 E2.09830
G1 X104.046 Y65.464 E2.10261
G1 X104.527 Y65.313 E2.10644
G1 X104.644 Y65.535 F7800.000
G4 P31
G1 X105.126 Y65.504 E2.11011 F1500.000
G4 P14
G1 X105.618 Y65.598 E2.11392
G1 X106.071 Y65.812 E2.11772
G1 X106.458 Y66.131 E2.12153
G1 X106.752 Y66.537 E2.12534
G1 X106.937 Y67.003 E2.12915
G1 X106.999 Y67.500 E2.13296
G1 X106.937 Y67.997 E2.13676
G1 X106.752 Y68.463 E2.14057
G1 X106.458 Y68.869 E2.14438
G1 X106.071 Y69.188 E2.14819
G1 X105.618 Y69.402 E2.15199
G1 X105.126 Y69.496 E2.15580
G1 X104.625 Y69.464 E2.15961
G1 X104.149 Y69.309 E2.16342
G1 X103.725 Y69.041 E2.16723
G1 X103.382 Y68.675 E2.17103
G1 X103.141 Y68.236 E2.17484
G1 X103.016 Y67.751 E2.17865
G1 X103.016 Y67.249 E2.18246
G1 X103.141 Y66.764 E2.18627
G1 X103.382 Y66.325 E2.19007
G1 X103.725 Y65.959 E2.19388
G1 X104.150 Y65.690 E2.19770
G1 X104.572 Y65.557 E2.20106
G1 X104.689 Y65.779 F7800.000
G4 P31
G1 X105.110 Y65.752 E2.20427 F1500.000
G4 P16
