; generated by Slic3r 1.2.9 on 2016-05-01 at 16:02:25

; external perimeters extrusion width = 0.50mm
; perimeters extrusion width = 0.50mm
; infill extrusion width = 0.50mm
; solid infill extrusion width = 0.50mm
; top infill extrusion width = 0.50mm

M107
M190 S60 ; set bed temperature
M104 S210 ; set temperature
G28 ; home all axes
M109 S210 ; wait for temperature to be reached
G21 ; set units to millimeters
G90 ; use absolute coordinates
M82 ; use absolute distances for extrusion
G92 E0
G1 Z0.350 F7800.000
G1 E-2.00000 F1920.00000
G92 E0
G1 X68.278 Y38.108 F7800.000
G1 E2.00000 F1920.00000
M204 S3000
G1 X68.667 Y37.433 E2.00592 F1500.000
G1 X69.303 Y36.604 E2.01385
G1 X69.854 Y36.053 E2.01977
G1 X70.672 Y35.425 E2.02761
G1 X71.358 Y35.028 E2.03363
G1 X72.322 Y34.628 E2.04156
G1 X73.075 Y34.426 E2.04748
G1 X74.111 Y34.290 E2.05542
G1 X74.500 Y34.265 E2.05838
G1 X95.500 Y34.265 E2.21792
G1 X95.889 Y34.290 E2.22089
G1 X96.925 Y34.426 E2.22882 F1500.000
G1 X97.678 Y34.628 E2.23475
G1 X98.642 Y35.028 E2.24268
G1 X99.317 Y35.417 E2.24860
G1 X100.146 Y36.053 E2.25653
G1 X100.697 Y36.604 E2.26245
G1 X101.333 Y37.433 E2.27039
G1 X101.722 Y38.108 E2.27631
G1 X102.122 Y39.072 E2.28424
G1 X102.324 Y39.825 E2.29016
G1 X102.460 Y40.860 E2.29809
G1 X102.485 Y41.250 E2.30106
G1 X102.485 Y78.750 E2.58596
G1 X102.460 Y79.140 E2.58893
G1 X102.324 Y80.175 E2.59686
G1 X102.122 Y80.928 E2.60278
G1 X101.722 Y81.892 E2.61071
G1 X101.333 Y82.567 E2.61663
G1 X100.697 Y83.396 E2.62457
G1 X100.146 Y83.947 E2.63049
G1 X99.317 Y84.583 E2.63842
G1 X98.642 Y84.972 E2.64434
G1 X97.678 Y85.372 E2.65227
G1 X96.925 Y85.574 E2.65819
G1 X95.890 Y85.710 E2.66613
G1 X95.500 Y85.735 E2.66910
G1 X74.500 Y85.735 E2.82864
G1 X74.110 Y85.710 E2.83160
G1 X73.075 Y85.574 E2.83954
G1 X72.322 Y85.372 E2.84546
G1 X71.357 Y84.972 E2.85339
G1 X70.683 Y84.583 E2.85931
G1 X69.854 Y83.947 E2.86725
G1 X69.303 Y83.396 E2.87317
G1 X68.667 Y82.567 E2.88110
G1 X68.278 Y81.892 E2.88702
G1 X67.878 Y80.928 E2.89495
G1 X67.676 Y80.175 E2.90087
G1 X67.540 Y79.139 E2.90881
G1 X67.515 Y78.750 E2.91177
G1 X67.515 Y41.250 E3.19667
G1 X67.540 Y40.860 E3.19964
G1 X67.676 Y39.825 E3.20757
G1 X67.878 Y39.072 E3.21349
G1 X68.249 Y38.177 E3.22086
G1 X68.505 Y38.202 F7800.000
G4 P31
G1 X68.863 Y37.583 E3.22629 F1500.000
G1 X69.499 Y36.754 E3.23422
G1 X70.004 Y36.249 E3.23965
G1 X70.822 Y35.621 E3.24749
G1 X71.452 Y35.255 E3.25302
G1 X72.417 Y34.856 E3.26095
G1 X73.107 Y34.671 E3.26638
G1 X74.143 Y34.534 E3.27432
G1 X74.500 Y34.511 E3.27704
G1 X95.500 Y34.511 E3.43658
G1 X95.857 Y34.534 E3.43930
G1 X96.893 Y34.671 E3.44724 F1500.000
G1 X97.583 Y34.856 E3.45267
G1 X98.548 Y35.255 E3.46060
G1 X99.167 Y35.613 E3.46603
G1 X99.996 Y36.249 E3.47397
G1 X100.501 Y36.754 E3.47940
G1 X101.137 Y37.583 E3.48733
G1 X101.495 Y38.202 E3.49276
G1 X101.894 Y39.167 E3.50070
G1 X102.079 Y39.857 E3.50613
G1 X102.216 Y40.892 E3.51406
G1 X102.239 Y41.250 E3.51679
G1 X102.239 Y78.750 E3.80168
G1 X102.216 Y79.108 E3.80440
G1 X102.079 Y80.143 E3.81234
G1 X101.894 Y80.833 E3.81777
G1 X101.495 Y81.798 E3.82570
G1 X101.137 Y82.417 E3.83114
G1 X100.501 Y83.246 E3.83907
G1 X99.996 Y83.751 E3.84450
G1 X99.167 Y84.387 E3.85244
G1 X98.548 Y84.745 E3.85787
G1 X97.583 Y85.144 E3.86580
G1 X96.893 Y85.329 E3.87123
G1 X95.858 Y85.466 E3.87916
G1 X95.500 Y85.489 E3.88189
G1 X74.500 Y85.489 E4.04143
G1 X74.142 Y85.466 E4.04415
G1 X73.107 Y85.329 E4.05208
G1 X72.417 Y85.144 E4.05752
G1 X71.452 Y84.745 E4.06545
G1 X70.833 Y84.387 E4.07088
G1 X70.004 Y83.751 E4.07881
G1 X69.499 Y83.246 E4.08425
G1 X68.863 Y82.417 E4.09218
G1 X68.505 Y81.798 E4.09761
G1 X68.106 Y80.833 E4.10555
G1 X67.921 Y80.143 E4.11098
G1 X67.784 Y79.107 E4.11891
G1 X67.761 Y78.750 E4.12163
G1 X67.761 Y41.250 E4.40653
G1 X67.784 Y40.892 E4.40925
G1 X67.921 Y39.857 E4.41719
G1 X68.106 Y39.167 E4.42262
G1 X68.477 Y38.271 E4.42998
G1 X68.733 Y38.296 F7800.000
G4 P31
G1 X69.058 Y37.733 E4.43492 F1500.000
G1 X69.694 Y36.904 E4.44286
G1 X70.154 Y36.444 E4.44780
G1 X70.983 Y35.808 E4.45574
G1 X71.546 Y35.483 E4.46068
G1 X72.511 Y35.083 E4.46861
G1 X73.139 Y34.915 E4.47356
G1 X74.175 Y34.779 E4.48149
G1 X74.500 Y34.757 E4.48397
G1 X95.500 Y34.757 E4.64351
G1 X95.825 Y34.779 E4.64598
G1 X96.861 Y34.915 E4.65392 F1500.000
G1 X97.489 Y35.083 E4.65886
G1 X98.454 Y35.483 E4.66680
G1 X99.017 Y35.808 E4.67174
G1 X99.846 Y36.444 E4.67967
G1 X100.306 Y36.904 E4.68462
G1 X100.942 Y37.733 E4.69255
G1 X101.267 Y38.296 E4.69749
G1 X101.667 Y39.261 E4.70543
G1 X101.835 Y39.889 E4.71037
G1 X101.971 Y40.925 E4.71830
G1 X101.993 Y41.250 E4.72078
G1 X101.993 Y78.750 E5.00568
G1 X101.971 Y79.075 E5.00815
G1 X101.835 Y80.111 E5.01609
G1 X101.667 Y80.739 E5.02103
G1 X101.267 Y81.704 E5.02896
G1 X100.942 Y82.267 E5.03391
G1 X100.306 Y83.096 E5.04184
G1 X99.846 Y83.556 E5.04678
G1 X99.017 Y84.192 E5.05472
G1 X98.454 Y84.517 E5.05966
G1 X97.489 Y84.917 E5.06759
G1 X96.861 Y85.085 E5.07254
G1 X95.825 Y85.221 E5.08047
G1 X95.500 Y85.243 E5.08295
G1 X74.500 Y85.243 E5.24249
G1 X74.175 Y85.221 E5.24497
G1 X73.139 Y85.085 E5.25290
G1 X72.511 Y84.917 E5.25784
G1 X71.546 Y84.517 E5.26578
G1 X70.983 Y84.192 E5.27072
G1 X70.154 Y83.556 E5.27866
G1 X69.694 Y83.096 E5.28360
G1 X69.058 Y82.267 E5.29153
G1 X68.733 Y81.704 E5.29648
G1 X68.333 Y80.739 E5.30441
G1 X68.165 Y80.111 E5.30935
G1 X68.029 Y79.075 E5.31729
G1 X68.007 Y78.750 E5.31976
G1 X68.007 Y41.250 E5.60466
G1 X68.029 Y40.925 E5.60714
G1 X68.165 Y39.889 E5.61507
G1 X68.333 Y39.261 E5.62001
G1 X68.704 Y38.365 E5.62738
G1 X68.961 Y38.390 F7800.000
G4 P31
G1 X69.254 Y37.883 E5.63183 F1500.000
G1 X69.889 Y37.054 E5.63977
G1 X70.304 Y36.639 E5.64422
G1 X71.133 Y36.004 E5.65216
G1 X71.640 Y35.711 E5.65661
G1 X72.605 Y35.311 E5.66454
G1 X73.172 Y35.159 E5.66900
G1 X74.207 Y35.023 E5.67693
G1 X74.500 Y35.004 E5.67916
G1 X95.500 Y35.004 E5.83871
G1 X95.793 Y35.023 E5.84094
G1 X96.829 Y35.159 E5.84887 F1500.000
G1 X97.395 Y35.311 E5.85333
G1 X98.360 Y35.711 E5.86126
G1 X98.867 Y36.004 E5.86571
G1 X99.696 Y36.639 E5.87365
G1 X100.111 Y37.054 E5.87810
G1 X100.746 Y37.883 E5.88604
G1 X101.039 Y38.390 E5.89049
G1 X101.439 Y39.355 E5.89842
G1 X101.591 Y39.922 E5.90288
G1 X101.727 Y40.957 E5.91081
G1 X101.746 Y41.250 E5.91304
G1 X101.746 Y78.750 E6.19794
G1 X101.727 Y79.043 E6.20017
G1 X101.591 Y80.078 E6.20811
G1 X101.439 Y80.645 E6.21256
G1 X101.039 Y81.610 E6.22050
G1 X100.746 Y82.117 E6.22495
G1 X100.111 Y82.946 E6.23288
G1 X99.696 Y83.361 E6.23734
G1 X98.867 Y83.996 E6.24527
G1 X98.360 Y84.289 E6.24973
G1 X97.395 Y84.689 E6.25766
G1 X96.829 Y84.841 E6.26211
G1 X95.793 Y84.977 E6.27005
G1 X95.500 Y84.996 E6.27228
G1 X74.500 Y84.996 E6.43182
G1 X74.207 Y84.977 E6.43406
G1 X73.172 Y84.841 E6.44199
G1 X72.605 Y84.689 E6.44644
G1 X71.640 Y84.289 E6.45438
G1 X71.133 Y83.996 E6.45883
G1 X70.304 Y83.361 E6.46677
G1 X69.889 Y82.946 E6.47122
G1 X69.254 Y82.117 E6.47915
G1 X68.961 Y81.610 E6.48361
G1 X68.561 Y80.645 E6.49154
G1 X68.409 Y80.078 E6.49600
G1 X68.273 Y79.043 E6.50393
G1 X68.254 Y78.750 E6.50616
G1 X68.254 Y41.250 E6.79106
G1 X68.273 Y40.957 E6.79329
G1 X68.409 Y39.921 E6.80123
G1 X68.561 Y39.355 E6.80568
G1 X68.932 Y38.460 E6.81304
G1 E4.81304 F1920.00000
G92 E0
G1 X97.848 Y78.750 F7800.000
G1 E2.00000 F1920.00000
G1 X97.774 Y79.334 E2.00447 F1500.000
G1 X97.557 Y79.881 E2.00894
G1 X97.211 Y80.357 E2.01341
G1 X96.758 Y80.732 E2.01788
G1 X96.225 Y80.983 E2.02236
G1 X95.647 Y81.093 E2.02683
G1 X95.060 Y81.056 E2.03130
G1 X94.500 Y80.874 E2.03577
G1 X94.003 Y80.559 E2.04024
G1 X93.601 Y80.130 E2.04471
G1 X93.317 Y79.614 E2.04918
G1 X93.171 Y79.044 E2.05365
G1 X93.171 Y78.456 E2.05812
G1 X93.317 Y77.886 E2.06260
G1 X93.601 Y77.370 E2.06707
G1 X94.003 Y76.941 E2.07154
G1 X94.500 Y76.626 E2.07601
G1 X95.060 Y76.444 E2.08048
G1 X95.647 Y76.407 E2.08495 F1500.000
G1 X96.225 Y76.517 E2.08942
G1 X96.758 Y76.768 E2.09389
G1 X97.211 Y77.143 E2.09836
G1 X97.557 Y77.619 E2.10284
G1 X97.774 Y78.166 E2.10731
G1 X97.838 Y78.676 E2.11121
G1 X97.599 Y78.750 F7800.000
G1 X97.534 Y79.272 E2.11521 F1500.000
G1 X97.340 Y79.761 E2.11920
G1 X97.030 Y80.187 E2.12320
G1 X96.625 Y80.523 E2.12720
G1 X96.149 Y80.747 E2.13120
G1 X95.632 Y80.845 E2.13520
G1 X95.107 Y80.812 E2.13920
G1 X94.606 Y80.650 E2.14319
G1 X94.162 Y80.368 E2.14719
G1 X93.801 Y79.984 E2.15119
G1 X93.548 Y79.523 E2.15519
G1 X93.417 Y79.013 E2.15919
G1 X93.417 Y78.487 E2.16318
G1 X93.548 Y77.977 E2.16718
G1 X93.801 Y77.516 E2.17118
G1 X94.162 Y77.132 E2.17518
G1 X94.606 Y76.850 E2.17918
G1 X95.107 Y76.688 E2.18318
G1 X95.632 Y76.655 E2.18717 F1500.000
G1 X96.149 Y76.753 E2.19117
G1 X96.625 Y76.977 E2.19517
G1 X97.030 Y77.313 E2.19917
G1 X97.340 Y77.739 E2.20317
G1 X97.534 Y78.228 E2.20716
G1 X97.590 Y78.676 E2.21059
G1 X97.351 Y78.750 F7800.000
G1 X97.293 Y79.210 E2.21412 F1500.000
G1 X97.122 Y79.642 E2.21764
G1 X96.849 Y80.017 E2.22117
G1 X96.492 Y80.313 E2.22469
G1 X96.072 Y80.511 E2.22822
G1 X95.616 Y80.598 E2.23175
G1 X95.153 Y80.568 E2.23527
G1 X94.712 Y80.425 E2.23880
G1 X94.320 Y80.176 E2.24232
G1 X94.002 Y79.838 E2.24585
G1 X93.779 Y79.431 E2.24937
G1 X93.663 Y78.982 E2.25290
G1 X93.663 Y78.518 E2.25642
G1 X93.779 Y78.069 E2.25995
G1 X94.002 Y77.662 E2.26347
G1 X94.320 Y77.324 E2.26700
G1 X94.712 Y77.075 E2.27052
G1 X95.153 Y76.932 E2.27405
G1 X95.616 Y76.902 E2.27757 F1500.000
G1 X96.072 Y76.989 E2.28110
G1 X96.492 Y77.187 E2.28463
G1 X96.849 Y77.483 E2.28815
G1 X97.122 Y77.858 E2.29168
G1 X97.293 Y78.290 E2.29520
G1 X97.342 Y78.676 E2.29816
G1 X97.743 Y78.999 F7800.000
G1 E0.29816 F1920.00000
G92 E0
G1 X95.789 Y70.561 F7800.000
G1 E2.00000 F1920.00000
G1 X95.616 Y70.594 E2.00134 F1500.000
G4 P26
G1 X95.154 Y70.565 E2.00486
G1 X94.713 Y70.422 E2.00838
G1 X94.322 Y70.174 E2.01189
G1 X94.005 Y69.836 E2.01541
G1 X93.782 Y69.430 E2.01893
G1 X93.667 Y68.982 E2.02245
G1 X93.667 Y68.518 E2.02597
G1 X93.782 Y68.070 E2.02949
G1 X94.005 Y67.664 E2.03301
G1 X94.322 Y67.326 E2.03653
G1 X94.716 Y67.076 E2.04007
G1 X95.170 Y66.934 E2.04368
G1 X95.616 Y66.906 E2.04708 F1500.000
G1 X96.071 Y66.993 E2.05060
G1 X96.490 Y67.190 E2.05412
G1 X96.847 Y67.485 E2.05764
G1 X97.119 Y67.860 E2.06116
G1 X97.290 Y68.290 E2.06468
G1 X97.348 Y68.753 E2.06822
G1 X97.284 Y69.224 E2.07183
G1 X97.119 Y69.640 E2.07523
G1 X96.847 Y70.015 E2.07875
G1 X96.490 Y70.310 E2.08227
G1 X96.071 Y70.507 E2.08579
G1 X95.863 Y70.547 E2.08740
G1 X95.743 Y70.319 F7800.000
G4 P31
G1 X95.600 Y70.346 E2.08850 F1500.000
G4 P27
G1 X95.200 Y70.321 E2.09154
G1 X94.819 Y70.197 E2.09459
G1 X94.480 Y69.982 E2.09764
G1 X94.206 Y69.690 E2.10068
G1 X94.013 Y69.339 E2.10373
G1 X93.913 Y68.950 E2.10677
G1 X93.913 Y68.550 E2.10982
G1 X94.013 Y68.161 E2.11287
G1 X94.206 Y67.810 E2.11591
G1 X94.480 Y67.518 E2.11896
G1 X94.821 Y67.302 E2.12202
G1 X95.215 Y67.178 E2.12516
G1 X95.600 Y67.154 E2.12809 F1500.000
G1 X95.994 Y67.229 E2.13114
G1 X96.357 Y67.400 E2.13419
G1 X96.666 Y67.655 E2.13723
G1 X96.902 Y67.979 E2.14028
G1 X97.049 Y68.352 E2.14332
G1 X97.100 Y68.752 E2.14639
G1 X97.044 Y69.161 E2.14952
G1 X96.902 Y69.521 E2.15246
G1 X96.666 Y69.845 E2.15551
G1 X96.357 Y70.100 E2.15855
G1 X95.994 Y70.271 E2.16160
G1 X95.817 Y70.305 E2.16297
G1 X95.697 Y70.077 F7800.000
G4 P31
G1 X95.585 Y70.099 E2.16384 F1500.000
G4 P28
G1 X95.247 Y70.077 E2.16641
G1 X94.925 Y69.973 E2.16898
G1 X94.639 Y69.791 E2.17156
G1 X94.407 Y69.544 E2.17413
G1 X94.244 Y69.247 E2.17670
G1 X94.159 Y68.919 E2.17928
G1 X94.159 Y68.581 E2.18185
G1 X94.244 Y68.253 E2.18442
G1 X94.407 Y67.956 E2.18700
G1 X94.639 Y67.709 E2.18957
G1 X94.925 Y67.527 E2.19215
G1 X95.260 Y67.422 E2.19481
G1 X95.585 Y67.401 E2.19729 F1500.000
G1 X95.918 Y67.465 E2.19986
G1 X96.224 Y67.609 E2.20243
G1 X96.485 Y67.825 E2.20501
G1 X96.684 Y68.099 E2.20758
G1 X96.809 Y68.414 E2.21015
G1 X96.851 Y68.751 E2.21273
G1 X96.804 Y69.098 E2.21540
G1 X96.684 Y69.401 E2.21787
G1 X96.485 Y69.675 E2.22044
G1 X96.224 Y69.891 E2.22301
G1 X95.918 Y70.035 E2.22559
G1 X95.770 Y70.063 E2.22673
G1 X95.659 Y70.185 F7800.000
G1 E0.22673 F1920.00000
G92 E0
G1 X95.616 Y58.094 F7800.000
G1 E2.00000 F1920.00000
G1 X95.154 Y58.065 E2.00352 F1500.000
G1 X94.713 Y57.922 E2.00704
G1 X94.322 Y57.674 E2.01056
G1 X94.005 Y57.336 E2.01408
G1 X93.790 Y56.944 E2.01747
G1 X93.667 Y56.485 E2.02109
G1 X93.667 Y56.018 E2.02463
G1 X93.782 Y55.570 E2.02815
G1 X94.005 Y55.164 E2.03167
G1 X94.322 Y54.826 E2.03519
G1 X94.716 Y54.576 E2.03873
G1 X95.170 Y54.434 E2.04234
G1 X95.616 Y54.406 E2.04574 F1500.000
G1 X96.071 Y54.493 E2.04926
G1 X96.490 Y54.690 E2.05278
G1 X96.847 Y54.985 E2.05630
G1 X97.119 Y55.360 E2.05982
G1 X97.290 Y55.790 E2.06333
G1 X97.348 Y56.250 E2.06685
G1 X97.290 Y56.710 E2.07037
G1 X97.119 Y57.140 E2.07389
G1 X96.847 Y57.515 E2.07741
G1 X96.490 Y57.810 E2.08093
G1 X96.071 Y58.007 E2.08445
G1 X95.690 Y58.080 E2.08740
G1 X95.600 Y57.846 F7800.000
G1 X95.200 Y57.821 E2.09044 F1500.000
G1 X94.819 Y57.697 E2.09349
G1 X94.480 Y57.482 E2.09654
G1 X94.206 Y57.190 E2.09958
G1 X94.020 Y56.852 E2.10252
G1 X93.913 Y56.452 E2.10566
G1 X93.913 Y56.050 E2.10872
G1 X94.013 Y55.661 E2.11176
G1 X94.206 Y55.310 E2.11481
G1 X94.480 Y55.018 E2.11785
G1 X94.821 Y54.802 E2.12092
G1 X95.215 Y54.678 E2.12405
G1 X95.600 Y54.654 E2.12699 F1500.000
G1 X95.994 Y54.729 E2.13004
G1 X96.357 Y54.900 E2.13308
G1 X96.666 Y55.155 E2.13613
G1 X96.902 Y55.479 E2.13917
G1 X97.049 Y55.852 E2.14222
G1 X97.100 Y56.250 E2.14527
G1 X97.049 Y56.648 E2.14831
G1 X96.902 Y57.021 E2.15136
G1 X96.666 Y57.345 E2.15440
G1 X96.357 Y57.600 E2.15745
G1 X95.994 Y57.771 E2.16050
G1 X95.674 Y57.832 E2.16297
G1 X95.585 Y57.599 F7800.000
G1 X95.247 Y57.577 E2.16555 F1500.000
G1 X94.925 Y57.473 E2.16812
G1 X94.639 Y57.291 E2.17069
G1 X94.407 Y57.044 E2.17327
G1 X94.250 Y56.759 E2.17574
G1 X94.159 Y56.420 E2.17840
G1 X94.159 Y56.081 E2.18098
G1 X94.244 Y55.753 E2.18355
G1 X94.407 Y55.456 E2.18613
G1 X94.639 Y55.209 E2.18870
G1 X94.925 Y55.027 E2.19128
G1 X95.260 Y54.922 E2.19395
G1 X95.585 Y54.901 E2.19642 F1500.000
G1 X95.918 Y54.965 E2.19899
G1 X96.224 Y55.109 E2.20156
G1 X96.485 Y55.325 E2.20414
G1 X96.684 Y55.599 E2.20671
G1 X96.809 Y55.914 E2.20928
G1 X96.851 Y56.250 E2.21186
G1 X96.809 Y56.586 E2.21443
G1 X96.684 Y56.901 E2.21700
G1 X96.485 Y57.175 E2.21958
G1 X96.224 Y57.391 E2.22215
G1 X95.918 Y57.535 E2.22472
G1 X95.659 Y57.584 E2.22673
G1 X95.422 Y57.895 F7800.000
G1 E0.22673 F1920.00000
G92 E0
G1 X95.647 Y43.593 F7800.000
G1 E2.00000 F1920.00000
G1 X95.060 Y43.556 E2.00447 F1500.000
G1 X94.500 Y43.374 E2.00894
G1 X94.003 Y43.059 E2.01341
G1 X93.601 Y42.630 E2.01788
G1 X93.317 Y42.114 E2.02236
G1 X93.171 Y41.544 E2.02683
G1 X93.171 Y40.956 E2.03130
G1 X93.317 Y40.386 E2.03577
G1 X93.601 Y39.870 E2.04024
G1 X94.003 Y39.441 E2.04471
G1 X94.500 Y39.126 E2.04918
G1 X95.060 Y38.944 E2.05365
G1 X95.647 Y38.907 E2.05812 F1500.000
G1 X96.225 Y39.017 E2.06260
G1 X96.758 Y39.268 E2.06707
G1 X97.211 Y39.643 E2.07154
G1 X97.557 Y40.119 E2.07601
G1 X97.774 Y40.666 E2.08048
G1 X97.848 Y41.250 E2.08495
G1 X97.774 Y41.834 E2.08942
G1 X97.557 Y42.381 E2.09389
G1 X97.211 Y42.857 E2.09836
G1 X96.758 Y43.232 E2.10284
G1 X96.225 Y43.483 E2.10731
G1 X95.721 Y43.579 E2.11121
G1 X95.632 Y43.345 F7800.000
G1 X95.107 Y43.312 E2.11521 F1500.000
G1 X94.606 Y43.150 E2.11920
G1 X94.162 Y42.868 E2.12320
G1 X93.801 Y42.484 E2.12720
G1 X93.548 Y42.023 E2.13120
G1 X93.417 Y41.513 E2.13520
G1 X93.417 Y40.987 E2.13920
G1 X93.548 Y40.477 E2.14319
G1 X93.801 Y40.016 E2.14719
G1 X94.162 Y39.632 E2.15119
G1 X94.606 Y39.350 E2.15519
G1 X95.107 Y39.188 E2.15919
G1 X95.632 Y39.155 E2.16318 F1500.000
G1 X96.149 Y39.253 E2.16718
G1 X96.625 Y39.477 E2.17118
G1 X97.030 Y39.813 E2.17518
G1 X97.340 Y40.239 E2.17918
G1 X97.534 Y40.728 E2.18318
G1 X97.599 Y41.250 E2.18717
G1 X97.534 Y41.772 E2.19117
G1 X97.340 Y42.261 E2.19517
G1 X97.030 Y42.687 E2.19917
G1 X96.625 Y43.023 E2.20317
G1 X96.149 Y43.247 E2.20716
G1 X95.705 Y43.331 E2.21059
G1 X95.616 Y43.098 F7800.000
G1 X95.153 Y43.068 E2.21412 F1500.000
G1 X94.712 Y42.925 E2.21764
G1 X94.320 Y42.676 E2.22117
G1 X94.002 Y42.338 E2.22469
G1 X93.779 Y41.931 E2.22822
