; generated by Slic3r 1.2.9 on 2016-02-10 at 20:58:09

; external perimeters extrusion width = 0.50mm
; perimeters extrusion width = 0.50mm
; infill extrusion width = 0.50mm
; solid infill extrusion width = 0.50mm
; top infill extrusion width = 0.50mm

M107
M190 S70 ; set bed temperature
M104 S220 ; set temperature
G28 ; home all axes
M109 S220 ; wait for temperature to be reached
G21 ; set units to millimeters
G90 ; use absolute coordinates
M82 ; use absolute distances for extrusion
G92 E0
G1 Z0.350 F7800.000
G1 E-2.00000 F1920.00000
G92 E0
G1 X54.888 Y36.277 F7800.000
G1 E2.00000 F1920.00000
M204 S3000
G1 X55.330 Y35.616 E2.01088 F1800.000
G1 X55.753 Y35.067 E2.02036
G1 X56.279 Y34.471 E2.03124
G1 X56.771 Y33.982 E2.04073
G1 X57.371 Y33.461 E2.05161
G1 X57.923 Y33.041 E2.06109
G1 X58.587 Y32.604 E2.07197
G1 X59.189 Y32.261 E2.08146
G1 X59.905 Y31.915 E2.09234
G1 X60.548 Y31.655 E2.10182
G1 X61.256 Y31.422 E2.11202
G1 X61.974 Y31.234 E2.12219
G1 X62.756 Y31.087 E2.13307
G1 X63.444 Y31.005 E2.14255
G1 X64.513 Y30.956 E2.15720
G1 X105.762 Y30.963 E2.72165
G1 X106.556 Y31.005 E2.73253 F1800.000
G1 X107.244 Y31.087 E2.74202
G1 X108.026 Y31.234 E2.75290
G1 X108.697 Y31.407 E2.76238
G1 X109.453 Y31.655 E2.77326
G1 X110.095 Y31.915 E2.78275
G1 X110.811 Y32.261 E2.79363
G1 X111.413 Y32.604 E2.80311
G1 X112.077 Y33.041 E2.81399
G1 X112.629 Y33.460 E2.82348
G1 X113.229 Y33.982 E2.83436
G1 X113.721 Y34.471 E2.84384
G1 X114.247 Y35.067 E2.85472
G1 X114.670 Y35.616 E2.86421
G1 X115.112 Y36.277 E2.87509
G1 X115.458 Y36.877 E2.88457
G1 X115.809 Y37.591 E2.89545
G1 X116.074 Y38.231 E2.90494
G1 X116.327 Y38.985 E2.91581
G1 X116.504 Y39.655 E2.92530
G1 X116.656 Y40.435 E2.93618
G1 X116.743 Y41.123 E2.94567
G1 X116.790 Y41.917 E2.95654
G1 X116.786 Y42.610 E2.96603
G1 X116.728 Y43.403 E2.97691
G1 X116.631 Y44.089 E2.98639
G1 X116.479 Y44.819 E2.99659
G1 X116.283 Y45.535 E3.00676
G1 X116.019 Y46.285 E3.01764
G1 X115.746 Y46.922 E3.02712
G1 X115.254 Y47.873 E3.04178
G1 X94.767 Y83.357 E3.60245
G1 X94.190 Y84.259 E3.61711
G1 X93.774 Y84.814 E3.62659
G1 X93.257 Y85.417 E3.63747
G1 X92.772 Y85.912 E3.64696
G1 X92.179 Y86.442 E3.65784
G1 X91.633 Y86.869 E3.66732
G1 X90.975 Y87.316 E3.67820
G1 X90.377 Y87.666 E3.68769
G1 X89.711 Y88.000 E3.69788
G1 X89.027 Y88.291 E3.70805
G1 X88.275 Y88.549 E3.71893
G1 X87.606 Y88.731 E3.72841
G1 X86.827 Y88.888 E3.73929
G1 X86.140 Y88.980 E3.74878
G1 X85.347 Y89.032 E3.75966
G1 X84.653 Y89.032 E3.76914
G1 X83.860 Y88.980 E3.78002
G1 X83.124 Y88.878 E3.79018
G1 X82.394 Y88.731 E3.80039
G1 X81.725 Y88.549 E3.80987
G1 X80.973 Y88.291 E3.82075
G1 X80.334 Y88.022 E3.83024
G1 X79.623 Y87.666 E3.84112
G1 X79.025 Y87.316 E3.85060
G1 X78.367 Y86.869 E3.86148
G1 X77.821 Y86.442 E3.87096
G1 X77.228 Y85.912 E3.88184
G1 X76.743 Y85.417 E3.89133
G1 X76.226 Y84.814 E3.90221
G1 X75.810 Y84.259 E3.91169
G1 X75.233 Y83.357 E3.92635
G1 X54.746 Y47.873 E4.48703
G1 X54.254 Y46.922 E4.50168
G1 X53.981 Y46.285 E4.51116
G1 X53.717 Y45.535 E4.52204
G1 X53.531 Y44.868 E4.53153
G1 X53.369 Y44.089 E4.54241
G1 X53.272 Y43.403 E4.55189
G1 X53.214 Y42.610 E4.56277
G1 X53.210 Y41.917 E4.57226
G1 X53.257 Y41.123 E4.58314
G1 X53.344 Y40.436 E4.59262
G1 X53.496 Y39.655 E4.60350
G1 X53.673 Y38.985 E4.61299
G1 X53.926 Y38.231 E4.62387
G1 X54.191 Y37.591 E4.63335
G1 X54.542 Y36.877 E4.64423
G1 X54.851 Y36.342 E4.65269
G1 X55.259 Y36.525 F7800.000
G4 P29
G1 X55.701 Y35.865 E4.66357 F1800.000
G1 X56.088 Y35.362 E4.67225
G1 X56.614 Y34.766 E4.68312
G1 X57.064 Y34.319 E4.69180
G1 X57.664 Y33.797 E4.70268
G1 X58.169 Y33.414 E4.71136
G1 X58.832 Y32.976 E4.72224
G1 X59.384 Y32.663 E4.73091
G1 X60.099 Y32.317 E4.74179
G1 X60.687 Y32.079 E4.75047
G1 X61.395 Y31.846 E4.76067
G1 X62.056 Y31.673 E4.77002
G1 X62.838 Y31.526 E4.78090
G1 X63.467 Y31.451 E4.78958
G1 X64.513 Y31.402 E4.80391
G1 X105.739 Y31.409 E5.36804
G1 X106.533 Y31.451 E5.37891 F1800.000
G1 X107.162 Y31.526 E5.38759
G1 X107.944 Y31.673 E5.39847
G1 X108.558 Y31.831 E5.40715
G1 X109.313 Y32.079 E5.41803
G1 X109.901 Y32.317 E5.42670
G1 X110.617 Y32.663 E5.43758
G1 X111.168 Y32.976 E5.44626
G1 X111.831 Y33.414 E5.45714
G1 X112.336 Y33.797 E5.46581
G1 X112.936 Y34.319 E5.47669
G1 X113.386 Y34.766 E5.48537
G1 X113.912 Y35.362 E5.49625
G1 X114.299 Y35.865 E5.50492
G1 X114.741 Y36.525 E5.51580
G1 X115.058 Y37.074 E5.52448
G1 X115.409 Y37.788 E5.53536
G1 X115.651 Y38.374 E5.54403
G1 X115.904 Y39.127 E5.55491
G1 X116.066 Y39.740 E5.56359
G1 X116.218 Y40.521 E5.57447
G1 X116.298 Y41.150 E5.58315
G1 X116.345 Y41.943 E5.59402
G1 X116.341 Y42.577 E5.60270
G1 X116.283 Y43.370 E5.61358
G1 X116.194 Y43.998 E5.62226
G1 X116.042 Y44.728 E5.63245
G1 X115.862 Y45.387 E5.64181
G1 X115.598 Y46.137 E5.65269
G1 X115.348 Y46.720 E5.66136
G1 X114.867 Y47.650 E5.67570
G1 X94.381 Y83.134 E6.23638
G1 X93.816 Y84.016 E6.25071
G1 X93.436 Y84.523 E6.25938
G1 X92.918 Y85.127 E6.27026
G1 X92.474 Y85.580 E6.27894
G1 X91.881 Y86.109 E6.28982
G1 X91.382 Y86.500 E6.29849
G1 X90.724 Y86.946 E6.30937
G1 X90.177 Y87.267 E6.31805
G1 X89.511 Y87.601 E6.32825
G1 X88.882 Y87.869 E6.33760
G1 X88.130 Y88.127 E6.34848
G1 X87.518 Y88.294 E6.35716
G1 X86.739 Y88.451 E6.36804
G1 X86.110 Y88.534 E6.37671
G1 X85.317 Y88.587 E6.38759
G1 X84.683 Y88.587 E6.39627
G1 X83.890 Y88.534 E6.40715
G1 X83.213 Y88.441 E6.41650
G1 X82.482 Y88.294 E6.42670
G1 X81.870 Y88.127 E6.43538
G1 X81.118 Y87.869 E6.44626
G1 X80.534 Y87.623 E6.45493
G1 X79.823 Y87.267 E6.46581
G1 X79.276 Y86.946 E6.47449
G1 X78.618 Y86.500 E6.48537
G1 X78.119 Y86.109 E6.49404
G1 X77.526 Y85.580 E6.50492
G1 X77.082 Y85.127 E6.51360
G1 X76.564 Y84.523 E6.52448
G1 X76.184 Y84.016 E6.53315
G1 X75.619 Y83.134 E6.54748
G1 X55.133 Y47.650 E7.10816
G1 X54.652 Y46.720 E7.12249
G1 X54.402 Y46.137 E7.13117
G1 X54.138 Y45.387 E7.14205
G1 X53.968 Y44.776 E7.15073
G1 X53.806 Y43.998 E7.16161
G1 X53.717 Y43.370 E7.17028
G1 X53.659 Y42.577 E7.18116
G1 X53.655 Y41.943 E7.18984
G1 X53.702 Y41.150 E7.20072
G1 X53.782 Y40.521 E7.20939
G1 X53.934 Y39.740 E7.22027
G1 X54.096 Y39.127 E7.22895
G1 X54.349 Y38.374 E7.23983
G1 X54.591 Y37.788 E7.24850
G1 X54.942 Y37.074 E7.25938
G1 X55.222 Y36.590 E7.26703
G1 X55.630 Y36.773 F7800.000
G4 P29
G1 X56.072 Y36.113 E7.27791 F1800.000
G1 X56.423 Y35.657 E7.28578
G1 X56.949 Y35.061 E7.29666
G1 X57.357 Y34.656 E7.30452
G1 X57.957 Y34.134 E7.31540
G1 X58.414 Y33.787 E7.32327
G1 X59.078 Y33.349 E7.33415
G1 X59.578 Y33.065 E7.34202
G1 X60.294 Y32.719 E7.35290
G1 X60.827 Y32.503 E7.36076
G1 X61.535 Y32.270 E7.37096
G1 X62.139 Y32.111 E7.37951
G1 X62.920 Y31.965 E7.39039
G1 X63.491 Y31.897 E7.39825
G1 X64.513 Y31.849 E7.41226
G1 X105.715 Y31.855 E7.97607
G1 X106.509 Y31.897 E7.98695 F1800.000
G1 X107.080 Y31.965 E7.99481
G1 X107.861 Y32.111 E8.00569
G1 X108.418 Y32.255 E8.01356
G1 X109.174 Y32.503 E8.02444
G1 X109.706 Y32.719 E8.03231
G1 X110.422 Y33.065 E8.04319
G1 X110.922 Y33.349 E8.05105
G1 X111.586 Y33.787 E8.06193
G1 X112.043 Y34.134 E8.06980
G1 X112.643 Y34.656 E8.08068
G1 X113.051 Y35.061 E8.08854
G1 X113.577 Y35.657 E8.09942
G1 X113.928 Y36.113 E8.10729
G1 X114.370 Y36.773 E8.11817
G1 X114.657 Y37.271 E8.12604
G1 X115.008 Y37.985 E8.13692
G1 X115.228 Y38.516 E8.14478
G1 X115.481 Y39.270 E8.15566
G1 X115.628 Y39.826 E8.16353
G1 X115.780 Y40.606 E8.17441
G1 X115.852 Y41.176 E8.18228
G1 X115.899 Y41.970 E8.19315
G1 X115.895 Y42.545 E8.20102
G1 X115.837 Y43.338 E8.21190
G1 X115.758 Y43.907 E8.21977
G1 X115.605 Y44.637 E8.22997
G1 X115.441 Y45.239 E8.23851
G1 X115.177 Y45.989 E8.24939
G1 X114.951 Y46.517 E8.25726
G1 X114.481 Y47.427 E8.27127
G1 X93.994 Y82.911 E8.83195
G1 X93.441 Y83.773 E8.84595
G1 X93.097 Y84.233 E8.85382
G1 X92.579 Y84.836 E8.86470
G1 X92.177 Y85.247 E8.87257
G1 X91.584 Y85.777 E8.88345
G1 X91.131 Y86.130 E8.89131
G1 X90.473 Y86.577 E8.90219
G1 X89.977 Y86.868 E8.91006
G1 X89.311 Y87.202 E8.92026
G1 X88.736 Y87.447 E8.92880
G1 X87.985 Y87.705 E8.93968
G1 X87.430 Y87.856 E8.94755
G1 X86.651 Y88.013 E8.95843
G1 X86.081 Y88.089 E8.96629
G1 X85.287 Y88.142 E8.97717
G1 X84.713 Y88.142 E8.98504
G1 X83.919 Y88.089 E8.99592
G1 X83.301 Y88.003 E9.00447
G1 X82.570 Y87.856 E9.01467
G1 X82.015 Y87.705 E9.02253
G1 X81.263 Y87.447 E9.03341
G1 X80.733 Y87.224 E9.04128
G1 X80.023 Y86.868 E9.05216
G1 X79.527 Y86.577 E9.06002
G1 X78.869 Y86.130 E9.07090
G1 X78.416 Y85.777 E9.07877
G1 X77.823 Y85.247 E9.08965
G1 X77.421 Y84.836 E9.09752
G1 X76.903 Y84.233 E9.10840
G1 X76.559 Y83.773 E9.11626
G1 X76.006 Y82.911 E9.13027
G1 X55.519 Y47.427 E9.69095
G1 X55.049 Y46.518 E9.70496
G1 X54.823 Y45.989 E9.71283
G1 X54.559 Y45.239 E9.72371
G1 X54.405 Y44.685 E9.73157
G1 X54.242 Y43.907 E9.74245
G1 X54.163 Y43.338 E9.75032
G1 X54.105 Y42.545 E9.76120
G1 X54.101 Y41.970 E9.76906
G1 X54.148 Y41.176 E9.77995
G1 X54.220 Y40.606 E9.78781
G1 X54.372 Y39.826 E9.79869
G1 X54.519 Y39.270 E9.80656
G1 X54.772 Y38.516 E9.81744
G1 X54.992 Y37.985 E9.82530
G1 X55.343 Y37.271 E9.83618
G1 X55.593 Y36.838 E9.84302
G1 X56.001 Y37.022 F7800.000
G4 P29
G1 X56.443 Y36.361 E9.85390 F1800.000
G1 X56.758 Y35.952 E9.86096
G1 X57.284 Y35.356 E9.87184
G1 X57.650 Y34.993 E9.87890
G1 X58.249 Y34.471 E9.88978
G1 X58.660 Y34.159 E9.89683
G1 X59.324 Y33.721 E9.90771
G1 X59.772 Y33.467 E9.91477
G1 X60.488 Y33.120 E9.92565
G1 X60.966 Y32.927 E9.93271
G1 X61.674 Y32.694 E9.94291
G1 X62.221 Y32.550 E9.95064
G1 X63.002 Y32.404 E9.96152
G1 X63.514 Y32.342 E9.96858
G1 X64.513 Y32.295 E9.98226
G1 X105.692 Y32.300 E10.54575
G1 X106.486 Y32.342 E10.55663 F1800.000
G1 X106.998 Y32.404 E10.56369
G1 X107.779 Y32.550 E10.57457
G1 X108.279 Y32.679 E10.58162
G1 X109.034 Y32.927 E10.59251
G1 X109.512 Y33.120 E10.59956
G1 X110.228 Y33.467 E10.61044
G1 X110.676 Y33.721 E10.61750
G1 X111.340 Y34.159 E10.62838
G1 X111.751 Y34.471 E10.63543
G1 X112.350 Y34.993 E10.64631
G1 X112.716 Y35.356 E10.65337
G1 X113.242 Y35.953 E10.66425
G1 X113.557 Y36.361 E10.67131
G1 X113.999 Y37.022 E10.68219
G1 X114.257 Y37.468 E10.68925
G1 X114.608 Y38.182 E10.70012
G1 X114.805 Y38.659 E10.70718
G1 X115.058 Y39.412 E10.71806
G1 X115.190 Y39.911 E10.72512
G1 X115.342 Y40.691 E10.73600
G1 X115.406 Y41.203 E10.74306
G1 X115.454 Y41.996 E10.75393
G1 X115.450 Y42.512 E10.76099
G1 X115.392 Y43.305 E10.77187
G1 X115.321 Y43.816 E10.77893
G1 X115.158 Y44.594 E10.78981
G1 X115.020 Y45.091 E10.79687
G1 X114.756 Y45.841 E10.80775
G1 X114.553 Y46.315 E10.81480
G1 X114.094 Y47.204 E10.82849
G1 X93.608 Y82.688 E11.38917
G1 X93.067 Y83.529 E11.40286
G1 X92.758 Y83.942 E11.40991
G1 X92.240 Y84.546 E11.42079
G1 X91.879 Y84.914 E11.42785
G1 X91.287 Y85.444 E11.43873
G1 X90.880 Y85.761 E11.44579
G1 X90.223 Y86.208 E11.45667
G1 X89.778 Y86.469 E11.46372
G1 X89.111 Y86.802 E11.47392
G1 X88.591 Y87.025 E11.48166
G1 X87.839 Y87.283 E11.49254
G1 X87.342 Y87.418 E11.49960
G1 X86.562 Y87.576 E11.51047
G1 X86.051 Y87.644 E11.51753
G1 X85.258 Y87.696 E11.52841
G1 X84.742 Y87.696 E11.53547
G1 X83.949 Y87.644 E11.54635
G1 X83.389 Y87.566 E11.55408
G1 X82.658 Y87.418 E11.56428
G1 X82.161 Y87.283 E11.57134
G1 X81.409 Y87.024 E11.58222
G1 X80.933 Y86.825 E11.58928
G1 X80.222 Y86.469 E11.60016
G1 X79.777 Y86.208 E11.60721
G1 X79.120 Y85.761 E11.61809
G1 X78.713 Y85.444 E11.62515
G1 X78.121 Y84.914 E11.63603
G1 X77.760 Y84.546 E11.64309
G1 X77.242 Y83.942 E11.65397
G1 X76.933 Y83.529 E11.66102
G1 X76.392 Y82.688 E11.67471
G1 X55.906 Y47.204 E12.23539
G1 X55.447 Y46.315 E12.24908
G1 X55.244 Y45.841 E12.25613
G1 X54.980 Y45.091 E12.26701
G1 X54.842 Y44.594 E12.27407
G1 X54.679 Y43.816 E12.28495
G1 X54.608 Y43.305 E12.29201
G1 X54.550 Y42.512 E12.30289
G1 X54.546 Y41.996 E12.30995
G1 X54.594 Y41.203 E12.32083
G1 X54.658 Y40.691 E12.32788
G1 X54.810 Y39.911 E12.33876
G1 X54.942 Y39.412 E12.34582
G1 X55.195 Y38.659 E12.35670
G1 X55.392 Y38.182 E12.36376
G1 X55.743 Y37.468 E12.37463
G1 X55.963 Y37.087 E12.38067
G1 X56.372 Y37.270 F7800.000
G4 P29
G1 X56.814 Y36.609 E12.39154 F1800.000
G1 X57.093 Y36.248 E12.39779
G1 X57.618 Y35.651 E12.40867
G1 X57.942 Y35.329 E12.41492
G1 X58.542 Y34.808 E12.42580
G1 X58.906 Y34.532 E12.43205
G1 X59.570 Y34.094 E12.44293
G1 X59.967 Y33.868 E12.44918
G1 X60.682 Y33.522 E12.46006
G1 X61.106 Y33.351 E12.46630
G1 X61.814 Y33.118 E12.47650
G1 X62.303 Y32.989 E12.48343
G1 X63.085 Y32.842 E12.49431
G1 X63.538 Y32.788 E12.50056
G1 X64.513 Y32.741 E12.51392
G1 X105.668 Y32.746 E13.07709
G1 X106.462 Y32.788 E13.08796 F1800.000
G1 X106.915 Y32.842 E13.09421
G1 X107.697 Y32.989 E13.10509
G1 X108.139 Y33.102 E13.11134
G1 X108.894 Y33.351 E13.12222
G1 X109.318 Y33.522 E13.12847
G1 X110.033 Y33.868 E13.13935
G1 X110.430 Y34.094 E13.14560
G1 X111.094 Y34.532 E13.15648
G1 X111.458 Y34.808 E13.16272
G1 X112.058 Y35.329 E13.17360
G1 X112.382 Y35.651 E13.17985
G1 X112.907 Y36.248 E13.19073
G1 X113.186 Y36.609 E13.19698
G1 X113.600 Y37.229 E13.20718
G1 X113.856 Y37.666 E13.21410
G1 X114.207 Y38.379 E13.22498
G1 X114.382 Y38.801 E13.23123
G1 X114.635 Y39.554 E13.24211
G1 X114.752 Y39.996 E13.24836
G1 X114.904 Y40.776 E13.25924
G1 X114.961 Y41.229 E13.26549
G1 X115.008 Y42.023 E13.27637
G1 X115.005 Y42.480 E13.28261
G1 X114.947 Y43.272 E13.29349
G1 X114.884 Y43.725 E13.29974
G1 X114.721 Y44.503 E13.31062
G1 X114.599 Y44.943 E13.31687
G1 X114.335 Y45.693 E13.32775
G1 X114.155 Y46.112 E13.33400
G1 X113.708 Y46.981 E13.34736
G1 X93.221 Y82.465 E13.90804
G1 X92.693 Y83.286 E13.92141
G1 X92.419 Y83.652 E13.92765
G1 X91.902 Y84.255 E13.93853
G1 X91.582 Y84.581 E13.94478
G1 X90.989 Y85.111 E13.95566
G1 X90.629 Y85.392 E13.96191
G1 X89.972 Y85.839 E13.97279
G1 X89.578 Y86.070 E13.97904
G1 X88.911 Y86.403 E13.98923
G1 X88.446 Y86.602 E13.99616
G1 X87.694 Y86.861 E14.00704
G1 X87.254 Y86.981 E14.01329
G1 X86.474 Y87.138 E14.02417
G1 X86.022 Y87.198 E14.03042
G1 X85.228 Y87.251 E14.04130
G1 X84.772 Y87.251 E14.04754
G1 X83.978 Y87.198 E14.05842
G1 X83.477 Y87.128 E14.06535
G1 X82.746 Y86.981 E14.07555
G1 X82.306 Y86.861 E14.08180
G1 X81.554 Y86.602 E14.09268
G1 X81.133 Y86.426 E14.09893
G1 X80.422 Y86.070 E14.10980
G1 X80.028 Y85.839 E14.11605
G1 X79.371 Y85.392 E14.12693
G1 X79.011 Y85.111 E14.13318
G1 X78.418 Y84.581 E14.14406
G1 X78.098 Y84.255 E14.15031
G1 X77.581 Y83.652 E14.16119
G1 X77.307 Y83.286 E14.16743
G1 X76.779 Y82.465 E14.18080
G1 X56.292 Y46.981 E14.74148
G1 X55.845 Y46.113 E14.75484
G1 X55.665 Y45.693 E14.76109
G1 X55.401 Y44.943 E14.77197
G1 X55.279 Y44.503 E14.77822
G1 X55.116 Y43.725 E14.78910
G1 X55.053 Y43.272 E14.79535
G1 X54.995 Y42.480 E14.80623
G1 X54.992 Y42.023 E14.81247
G1 X55.039 Y41.229 E14.82336
G1 X55.096 Y40.776 E14.82960
G1 X55.248 Y39.996 E14.84048
G1 X55.365 Y39.554 E14.84673
G1 X55.618 Y38.801 E14.85761
G1 X55.792 Y38.379 E14.86386
G1 X56.144 Y37.666 E14.87474
G1 X56.334 Y37.335 E14.87996
G1 E12.87996 F1920.00000
G92 E0
G1 X88.828 Y76.829 F7800.000
G1 E2.00000 F1920.00000
G1 X88.952 Y77.812 E2.01356 F1800.000
G1 X88.828 Y78.795 E2.02711
G1 X88.463 Y79.716 E2.04067
G1 X87.881 Y80.517 E2.05422
G1 X87.117 Y81.149 E2.06778
G1 X86.269 Y81.548 E2.08061
G1 X85.257 Y81.757 E2.09475
G1 X84.260 Y81.694 E2.10842
G1 X83.367 Y81.404 E2.12126
G1 X82.487 Y80.863 E2.13540
G1 X81.803 Y80.135 E2.14907
G1 X81.326 Y79.267 E2.16263
G1 X81.079 Y78.308 E2.17618
G1 X81.079 Y77.317 E2.18974
G1 X81.326 Y76.357 E2.20329
G1 X81.803 Y75.489 E2.21685
G1 X82.481 Y74.767 E2.23040
G1 X83.317 Y74.237 E2.24396
G1 X84.260 Y73.930 E2.25751
G1 X85.196 Y73.872 E2.27035 F1800.000
G1 X86.213 Y74.050 E2.28449
G1 X87.117 Y74.476 E2.29816
G1 X87.881 Y75.107 E2.31171
G1 X88.463 Y75.908 E2.32527
G1 X88.800 Y76.760 E2.33780
G1 X88.392 Y76.941 F7800.000
G4 P29
G1 X88.502 Y77.812 E2.34981 F1800.000
G4 P4
G1 X88.392 Y78.683 E2.36182
G1 X88.069 Y79.499 E2.37383
G1 X87.553 Y80.209 E2.38585
G1 X86.876 Y80.769 E2.39786
G1 X86.127 Y81.122 E2.40920
G1 X85.225 Y81.308 E2.42179
G1 X84.344 Y81.252 E2.43388
G1 X83.556 Y80.996 E2.44522
G1 X82.771 Y80.514 E2.45781
G1 X82.167 Y79.871 E2.46989
G1 X81.744 Y79.101 E2.48191
G1 X81.526 Y78.251 E2.49392
G1 X81.526 Y77.373 E2.50593
G1 X81.744 Y76.523 E2.51794
G1 X82.167 Y75.754 E2.52995
G1 X82.768 Y75.114 E2.54197
G1 X83.509 Y74.644 E2.55398
