; generated by Slic3r 1.2.9 on 2016-02-10 at 21:37:45

; external perimeters extrusion width = 0.50mm
; perimeters extrusion width = 0.50mm
; infill extrusion width = 0.50mm
; solid infill extrusion width = 0.50mm
; top infill extrusion width = 0.50mm

M107
M190 S70 ; set bed temperature
M104 S220 ; set temperature
G28 ; home all axes
M109 S220 ; wait for temperature to be reached
G21 ; set units to millimeters
G90 ; use absolute coordinates
M82 ; use absolute distances for extrusion
G92 E0
G1 Z0.350 F7800.000
G1 E-2.00000 F1920.00000
G92 E0
G1 X28.471 Y27.296 F7800.000
G1 E2.00000 F1920.00000
M204 S3000
G1 X28.963 Y26.808 E2.00949 F1800.000
G1 X29.563 Y26.286 E2.02036
G1 X30.115 Y25.867 E2.02985
G1 X30.779 Y25.429 E2.04073
G1 X31.382 Y25.086 E2.05022
G1 X32.097 Y24.740 E2.06109
G1 X32.740 Y24.480 E2.07058
G1 X33.448 Y24.248 E2.08078
G1 X34.166 Y24.059 E2.09094
G1 X34.948 Y23.913 E2.10182
G1 X35.636 Y23.831 E2.11131
G1 X36.430 Y23.789 E2.12219
G1 X92.302 Y23.576 E2.88674
G1 X133.570 Y23.583 E3.45146
G1 X134.364 Y23.625 E3.46234 F1800.000
G1 X135.052 Y23.707 E3.47182
G1 X135.834 Y23.854 E3.48270
G1 X136.505 Y24.026 E3.49219
G1 X137.260 Y24.275 E3.50307
G1 X137.903 Y24.535 E3.51255
G1 X138.619 Y24.881 E3.52343
G1 X139.221 Y25.223 E3.53292
G1 X139.885 Y25.661 E3.54380
G1 X140.437 Y26.080 E3.55328
G1 X141.037 Y26.602 E3.56416
G1 X141.529 Y27.091 E3.57365
G1 X142.054 Y27.687 E3.58453
G1 X142.477 Y28.236 E3.59401
G1 X142.892 Y28.855 E3.60421
G1 X143.266 Y29.497 E3.61437
G1 X143.617 Y30.210 E3.62525
G1 X143.881 Y30.851 E3.63474
G1 X144.135 Y31.605 E3.64562
G1 X144.312 Y32.275 E3.65510
G1 X144.464 Y33.055 E3.66598
G1 X144.551 Y33.743 E3.67547
G1 X144.598 Y34.537 E3.68635
G1 X144.593 Y35.230 E3.69583
G1 X144.535 Y36.023 E3.70671
G1 X144.439 Y36.709 E3.71620
G1 X144.277 Y37.487 E3.72708
G1 X144.090 Y38.155 E3.73656
G1 X143.827 Y38.905 E3.74744
G1 X143.554 Y39.542 E3.75692
G1 X143.111 Y40.406 E3.77021
G1 X115.326 Y90.722 E4.55673
G1 X115.094 Y91.103 E4.56284
G1 X114.652 Y91.764 E4.57372
G1 X114.229 Y92.313 E4.58321
G1 X113.703 Y92.909 E4.59409
G1 X113.211 Y93.398 E4.60357
G1 X112.611 Y93.920 E4.61445
G1 X112.059 Y94.339 E4.62394
G1 X111.395 Y94.777 E4.63482
G1 X110.793 Y95.119 E4.64430
G1 X110.077 Y95.465 E4.65518
G1 X109.434 Y95.725 E4.66467
G1 X108.679 Y95.974 E4.67555
G1 X108.008 Y96.146 E4.68503
G1 X107.226 Y96.293 E4.69591
G1 X106.538 Y96.375 E4.70540
G1 X105.744 Y96.417 E4.71628
G1 X64.495 Y96.424 E5.28073
G1 X63.426 Y96.375 E5.29538
G1 X62.737 Y96.293 E5.30486
G1 X61.956 Y96.146 E5.31574
G1 X61.285 Y95.974 E5.32523
G1 X60.530 Y95.725 E5.33611
G1 X59.887 Y95.465 E5.34559
G1 X59.171 Y95.119 E5.35647
G1 X58.569 Y94.777 E5.36596
G1 X57.946 Y94.366 E5.37616
G1 X57.353 Y93.920 E5.38632
G1 X56.753 Y93.398 E5.39720
G1 X56.261 Y92.909 E5.40669
G1 X55.735 Y92.313 E5.41757
G1 X55.312 Y91.764 E5.42705
G1 X54.641 Y90.727 E5.44395
G1 X26.892 Y40.617 E6.22777
G1 X26.446 Y39.748 E6.24114
G1 X26.173 Y39.111 E6.25063
G1 X25.910 Y38.361 E6.26151
G1 X25.723 Y37.693 E6.27100
G1 X25.561 Y36.915 E6.28188
G1 X25.465 Y36.228 E6.29136
G1 X25.407 Y35.435 E6.30224
G1 X25.402 Y34.742 E6.31172
G1 X25.446 Y33.998 E6.32192
G1 X25.536 Y33.261 E6.33209
G1 X25.688 Y32.481 E6.34297
G1 X25.865 Y31.810 E6.35245
G1 X26.119 Y31.057 E6.36333
G1 X26.383 Y30.416 E6.37282
G1 X26.734 Y29.703 E6.38370
G1 X27.081 Y29.102 E6.39318
G1 X27.523 Y28.442 E6.40406
G1 X27.946 Y27.892 E6.41355
G1 X28.422 Y27.352 E6.42340
G1 X28.806 Y27.591 F7800.000
G4 P29
G1 X29.256 Y27.144 E6.43208 F1800.000
G1 X29.856 Y26.623 E6.44295
G1 X30.361 Y26.239 E6.45163
G1 X31.025 Y25.802 E6.46251
G1 X31.576 Y25.488 E6.47119
G1 X32.292 Y25.142 E6.48207
G1 X32.879 Y24.904 E6.49074
G1 X33.587 Y24.671 E6.50094
G1 X34.249 Y24.498 E6.51030
G1 X35.030 Y24.352 E6.52118
G1 X35.660 Y24.276 E6.52985
G1 X36.454 Y24.234 E6.54073
G1 X92.303 Y24.022 E7.30499
G1 X133.546 Y24.029 E7.86936
G1 X134.340 Y24.071 E7.88024 F1800.000
G1 X134.970 Y24.146 E7.88891
G1 X135.751 Y24.293 E7.89979
G1 X136.365 Y24.450 E7.90847
G1 X137.121 Y24.699 E7.91935
G1 X137.708 Y24.937 E7.92802
G1 X138.424 Y25.283 E7.93890
G1 X138.975 Y25.596 E7.94758
G1 X139.639 Y26.034 E7.95846
G1 X140.144 Y26.417 E7.96713
G1 X140.744 Y26.939 E7.97801
G1 X141.194 Y27.386 E7.98669
G1 X141.719 Y27.982 E7.99757
G1 X142.106 Y28.484 E8.00624
G1 X142.521 Y29.104 E8.01644
G1 X142.866 Y29.694 E8.02580
G1 X143.217 Y30.408 E8.03668
G1 X143.458 Y30.994 E8.04535
G1 X143.712 Y31.747 E8.05623
G1 X143.874 Y32.360 E8.06491
G1 X144.026 Y33.141 E8.07579
G1 X144.105 Y33.770 E8.08446
G1 X144.153 Y34.563 E8.09534
G1 X144.148 Y35.197 E8.10402
G1 X144.090 Y35.990 E8.11490
G1 X144.002 Y36.618 E8.12358
G1 X143.840 Y37.396 E8.13445
G1 X143.669 Y38.007 E8.14313
G1 X143.406 Y38.757 E8.15401
G1 X143.156 Y39.340 E8.16268
G1 X142.720 Y40.191 E8.17577
G1 X114.935 Y90.506 E8.96229
G1 X114.723 Y90.855 E8.96788
G1 X114.281 Y91.516 E8.97876
G1 X113.894 Y92.018 E8.98743
G1 X113.368 Y92.614 E8.99831
G1 X112.918 Y93.061 E9.00699
G1 X112.318 Y93.583 E9.01787
G1 X111.813 Y93.966 E9.02654
G1 X111.150 Y94.404 E9.03742
G1 X110.598 Y94.717 E9.04610
G1 X109.883 Y95.063 E9.05698
G1 X109.295 Y95.301 E9.06565
G1 X108.540 Y95.550 E9.07653
G1 X107.926 Y95.707 E9.08521
G1 X107.144 Y95.854 E9.09609
G1 X106.515 Y95.929 E9.10477
G1 X105.721 Y95.971 E9.11564
G1 X64.495 Y95.978 E9.67977
G1 X63.449 Y95.929 E9.69410
G1 X62.820 Y95.854 E9.70278
G1 X62.038 Y95.707 E9.71366
G1 X61.424 Y95.550 E9.72234
G1 X60.669 Y95.301 E9.73321
G1 X60.081 Y95.063 E9.74189
G1 X59.365 Y94.717 E9.75277
G1 X58.814 Y94.404 E9.76145
G1 X58.192 Y93.994 E9.77164
G1 X57.646 Y93.583 E9.78100
G1 X57.046 Y93.061 E9.79188
G1 X56.596 Y92.614 E9.80056
G1 X56.070 Y92.018 E9.81143
G1 X55.683 Y91.516 E9.82011
G1 X55.031 Y90.511 E9.83650
G1 X27.283 Y40.401 E10.62032
G1 X26.844 Y39.545 E10.63348
G1 X26.594 Y38.963 E10.64215
G1 X26.331 Y38.213 E10.65303
G1 X26.160 Y37.602 E10.66171
G1 X25.998 Y36.823 E10.67259
G1 X25.910 Y36.196 E10.68126
G1 X25.852 Y35.403 E10.69214
G1 X25.847 Y34.769 E10.70082
G1 X25.892 Y34.025 E10.71102
G1 X25.974 Y33.346 E10.72037
G1 X26.126 Y32.566 E10.73125
G1 X26.288 Y31.953 E10.73993
G1 X26.542 Y31.199 E10.75081
G1 X26.783 Y30.613 E10.75948
G1 X27.134 Y29.900 E10.77036
G1 X27.451 Y29.351 E10.77904
G1 X27.894 Y28.690 E10.78992
G1 X28.281 Y28.188 E10.79860
G1 X28.757 Y27.647 E10.80845
G1 X29.141 Y27.886 F7800.000
G4 P29
G1 X29.549 Y27.481 E10.81632 F1800.000
G1 X30.149 Y26.960 E10.82719
G1 X30.607 Y26.612 E10.83506
G1 X31.271 Y26.174 E10.84594
G1 X31.770 Y25.890 E10.85381
G1 X32.486 Y25.544 E10.86469
G1 X33.019 Y25.328 E10.87255
G1 X33.727 Y25.095 E10.88275
G1 X34.331 Y24.937 E10.89130
G1 X35.112 Y24.790 E10.90218
G1 X35.683 Y24.722 E10.91004
G1 X36.477 Y24.680 E10.92092
G1 X92.305 Y24.469 E11.68488
G1 X133.523 Y24.475 E12.24891
G1 X134.317 Y24.517 E12.25979 F1800.000
G1 X134.888 Y24.585 E12.26765
G1 X135.669 Y24.731 E12.27853
G1 X136.226 Y24.874 E12.28640
G1 X136.981 Y25.123 E12.29728
G1 X137.514 Y25.338 E12.30514
G1 X138.230 Y25.685 E12.31603
G1 X138.730 Y25.969 E12.32389
G1 X139.393 Y26.406 E12.33477
G1 X139.851 Y26.754 E12.34264
G1 X140.451 Y27.276 E12.35352
G1 X140.859 Y27.681 E12.36138
G1 X141.385 Y28.277 E12.37226
G1 X141.735 Y28.733 E12.38013
G1 X142.178 Y29.393 E12.39101
G1 X142.465 Y29.891 E12.39888
G1 X142.816 Y30.605 E12.40975
G1 X143.035 Y31.136 E12.41762
G1 X143.289 Y31.890 E12.42850
G1 X143.436 Y32.445 E12.43637
G1 X143.588 Y33.226 E12.44725
G1 X143.660 Y33.796 E12.45511
G1 X143.707 Y34.590 E12.46599
G1 X143.703 Y35.165 E12.47386
G1 X143.645 Y35.958 E12.48474
G1 X143.565 Y36.527 E12.49261
G1 X143.403 Y37.305 E12.50348
G1 X143.248 Y37.859 E12.51135
G1 X142.984 Y38.609 E12.52223
G1 X142.758 Y39.137 E12.53010
G1 X142.329 Y39.975 E12.54298
G1 X114.545 Y90.290 E13.32950
G1 X114.352 Y90.607 E13.33456
G1 X113.910 Y91.267 E13.34544
G1 X113.559 Y91.723 E13.35331
G1 X113.033 Y92.319 E13.36419
G1 X112.625 Y92.724 E13.37205
G1 X112.025 Y93.246 E13.38293
G1 X111.567 Y93.594 E13.39080
G1 X110.904 Y94.031 E13.40168
G1 X110.404 Y94.315 E13.40955
G1 X109.688 Y94.662 E13.42043
G1 X109.155 Y94.877 E13.42829
G1 X108.400 Y95.126 E13.43917
G1 X107.843 Y95.269 E13.44704
G1 X107.062 Y95.415 E13.45792
G1 X106.491 Y95.483 E13.46578
G1 X105.697 Y95.525 E13.47666
G1 X64.495 Y95.531 E14.04047
G1 X63.473 Y95.483 E14.05448
G1 X62.902 Y95.415 E14.06235
G1 X62.121 Y95.269 E14.07323
G1 X61.564 Y95.126 E14.08109
G1 X60.809 Y94.877 E14.09197
G1 X60.276 Y94.662 E14.09984
G1 X59.560 Y94.315 E14.11072
G1 X59.060 Y94.031 E14.11858
G1 X58.438 Y93.621 E14.12878
G1 X57.939 Y93.246 E14.13733
G1 X57.339 Y92.724 E14.14821
G1 X56.931 Y92.319 E14.15608
G1 X56.405 Y91.723 E14.16695
G1 X56.054 Y91.267 E14.17482
G1 X55.422 Y90.295 E14.19069
G1 X27.673 Y40.185 E14.97451
G1 X27.242 Y39.343 E14.98746
G1 X27.016 Y38.814 E14.99533
G1 X26.752 Y38.064 E15.00621
G1 X26.597 Y37.511 E15.01408
G1 X26.435 Y36.732 E15.02496
G1 X26.355 Y36.163 E15.03282
G1 X26.297 Y35.370 E15.04370
G1 X26.293 Y34.795 E15.05157
G1 X26.337 Y34.051 E15.06177
G1 X26.412 Y33.431 E15.07031
G1 X26.564 Y32.651 E15.08119
G1 X26.711 Y32.095 E15.08906
G1 X26.965 Y31.342 E15.09994
G1 X27.184 Y30.810 E15.10780
G1 X27.535 Y30.097 E15.11868
G1 X27.822 Y29.599 E15.12655
G1 X28.265 Y28.938 E15.13743
G1 X28.615 Y28.483 E15.14530
G1 X29.091 Y27.943 E15.15515
G1 X29.476 Y28.182 F7800.000
G4 P29
G1 X29.842 Y27.818 E15.16221 F1800.000
G1 X30.442 Y27.296 E15.17309
G1 X30.853 Y26.985 E15.18014
G1 X31.516 Y26.547 E15.19102
G1 X31.965 Y26.292 E15.19808
G1 X32.680 Y25.946 E15.20896
G1 X33.158 Y25.752 E15.21602
G1 X33.866 Y25.519 E15.22622
G1 X34.413 Y25.376 E15.23395
G1 X35.195 Y25.229 E15.24483
G1 X35.707 Y25.168 E15.25189
G1 X36.501 Y25.126 E15.26277
G1 X92.307 Y24.915 E16.02643
G1 X133.499 Y24.920 E16.59011
G1 X134.293 Y24.962 E16.60099 F1800.000
G1 X134.805 Y25.023 E16.60804
G1 X135.587 Y25.170 E16.61892
G1 X136.086 Y25.298 E16.62598
G1 X136.842 Y25.547 E16.63686
G1 X137.320 Y25.740 E16.64392
G1 X138.035 Y26.086 E16.65480
G1 X138.484 Y26.341 E16.66186
G1 X139.147 Y26.779 E16.67274
G1 X139.558 Y27.091 E16.67979
G1 X140.158 Y27.613 E16.69067
G1 X140.524 Y27.976 E16.69773
G1 X141.050 Y28.572 E16.70861
G1 X141.364 Y28.981 E16.71567
G1 X141.807 Y29.642 E16.72654
G1 X142.065 Y30.088 E16.73360
G1 X142.416 Y30.802 E16.74448
G1 X142.612 Y31.278 E16.75154
G1 X142.866 Y32.032 E16.76242
G1 X142.998 Y32.531 E16.76948
G1 X143.149 Y33.311 E16.78036
G1 X143.214 Y33.823 E16.78741
G1 X143.261 Y34.616 E16.79829
G1 X143.258 Y35.132 E16.80535
G1 X143.200 Y35.925 E16.81623
G1 X143.128 Y36.436 E16.82329
G1 X142.966 Y37.214 E16.83417
G1 X142.827 Y37.711 E16.84122
G1 X142.563 Y38.461 E16.85210
G1 X142.360 Y38.935 E16.85916
G1 X141.938 Y39.759 E16.87183
G1 X114.154 Y90.075 E17.65835
G1 X113.981 Y90.358 E17.66290
G1 X113.539 Y91.019 E17.67378
G1 X113.224 Y91.428 E17.68083
G1 X112.698 Y92.024 E17.69171
G1 X112.332 Y92.387 E17.69877
G1 X111.733 Y92.909 E17.70965
G1 X111.322 Y93.221 E17.71671
G1 X110.658 Y93.659 E17.72759
G1 X110.210 Y93.914 E17.73464
G1 X109.494 Y94.260 E17.74552
G1 X109.016 Y94.453 E17.75258
G1 X108.261 Y94.702 E17.76346
G1 X107.761 Y94.830 E17.77052
G1 X106.980 Y94.976 E17.78140
G1 X106.468 Y95.038 E17.78846
G1 X105.674 Y95.080 E17.79933
G1 X64.495 Y95.085 E18.36282
G1 X63.496 Y95.038 E18.37651
G1 X62.984 Y94.976 E18.38356
G1 X62.203 Y94.830 E18.39444
G1 X61.703 Y94.702 E18.40150
G1 X60.948 Y94.453 E18.41238
G1 X60.470 Y94.260 E18.41944
G1 X59.754 Y93.914 E18.43032
G1 X59.306 Y93.659 E18.43737
G1 X58.684 Y93.248 E18.44757
G1 X58.231 Y92.909 E18.45531
G1 X57.631 Y92.387 E18.46619
G1 X57.265 Y92.024 E18.47325
G1 X56.740 Y91.428 E18.48413
G1 X56.425 Y91.019 E18.49118
G1 X55.812 Y90.079 E18.50654
G1 X28.064 Y39.969 E19.29036
G1 X27.640 Y39.140 E19.30310
G1 X27.437 Y38.666 E19.31015
G1 X27.173 Y37.916 E19.32103
G1 X27.034 Y37.420 E19.32809
G1 X26.872 Y36.641 E19.33897
G1 X26.800 Y36.130 E19.34603
G1 X26.742 Y35.338 E19.35691
G1 X26.739 Y34.822 E19.36396
G1 X26.783 Y34.078 E19.37416
G1 X26.851 Y33.517 E19.38190
G1 X27.002 Y32.736 E19.39278
G1 X27.134 Y32.237 E19.39984
G1 X27.388 Y31.484 E19.41072
G1 X27.584 Y31.007 E19.41777
G1 X27.935 Y30.294 E19.42865
G1 X28.193 Y29.847 E19.43571
G1 X28.636 Y29.187 E19.44659
G1 X28.950 Y28.778 E19.45365
G1 X29.426 Y28.238 E19.46350
G1 X29.811 Y28.477 F7800.000
G4 P29
G1 X30.135 Y28.155 E19.46975 F1800.000
G1 X30.735 Y27.633 E19.48063
G1 X31.098 Y27.357 E19.48688
G1 X31.762 Y26.919 E19.49776
G1 X32.159 Y26.694 E19.50400
G1 X32.875 Y26.348 E19.51488
G1 X33.298 Y26.176 E19.52113
G1 X34.006 Y25.943 E19.53133
G1 X34.495 Y25.814 E19.53826
G1 X35.277 Y25.668 E19.54914
G1 X35.730 Y25.614 E19.55539
G1 X36.524 Y25.572 E19.56626
G1 X92.308 Y25.361 E20.32962
G1 X133.476 Y25.366 E20.89296
G1 X134.270 Y25.408 E20.90384 F1800.000
G1 X134.723 Y25.462 E20.91009
G1 X135.505 Y25.609 E20.92097
G1 X135.947 Y25.722 E20.92722
G1 X136.702 Y25.971 E20.93810
G1 X137.125 Y26.142 E20.94434
G1 X137.841 Y26.488 E20.95522
G1 X138.238 Y26.714 E20.96147
G1 X138.902 Y27.152 E20.97235
G1 X139.265 Y27.428 E20.97860
G1 X139.865 Y27.949 E20.98948
G1 X140.189 Y28.271 E20.99573
G1 X140.715 Y28.868 E21.00660
G1 X140.994 Y29.229 E21.01285
G1 X141.408 Y29.849 E21.02305
G1 X141.664 Y30.285 E21.02998
G1 X142.015 Y30.999 E21.04086
G1 X142.189 Y31.421 E21.04711
G1 X142.443 Y32.174 E21.05798
G1 X142.559 Y32.616 E21.06423
G1 X142.711 Y33.396 E21.07511
G1 X142.769 Y33.849 E21.08136
G1 X142.816 Y34.643 E21.09224
G1 X142.813 Y35.099 E21.09849
G1 X142.755 Y35.892 E21.10937
G1 X142.691 Y36.345 E21.11562
G1 X142.529 Y37.123 E21.12650
G1 X142.406 Y37.563 E21.13274
G1 X142.142 Y38.313 E21.14362
G1 X141.963 Y38.732 E21.14987
G1 X141.548 Y39.543 E21.16234
G1 X113.610 Y90.110 E21.95288
G1 X113.168 Y90.771 E21.96376
G1 X112.889 Y91.132 E21.97001
G1 X112.364 Y91.729 E21.98088
G1 X112.040 Y92.051 E21.98713
G1 X111.440 Y92.572 E21.99801
G1 X111.076 Y92.848 E22.00426
G1 X110.412 Y93.286 E22.01514
G1 X110.015 Y93.512 E22.02139
G1 X109.300 Y93.858 E22.03227
G1 X108.876 Y94.029 E22.03852
G1 X108.121 Y94.278 E22.04939
G1 X107.679 Y94.391 E22.05564
G1 X106.897 Y94.538 E22.06652
G1 X106.444 Y94.592 E22.07277
G1 X105.650 Y94.634 E22.08365
G1 X64.495 Y94.639 E22.64681
G1 X63.520 Y94.592 E22.66018
G1 X63.066 Y94.538 E22.66643
G1 X62.285 Y94.391 E22.67731
G1 X61.843 Y94.278 E22.68355
G1 X61.088 Y94.029 E22.69443
G1 X60.664 Y93.858 E22.70068
G1 X59.949 Y93.512 E22.71156
G1 X59.552 Y93.286 E22.71781
G1 X58.888 Y92.848 E22.72869
G1 X58.524 Y92.572 E22.73494
G1 X57.924 Y92.051 E22.74582
G1 X57.600 Y91.729 E22.75206
G1 X57.075 Y91.132 E22.76294
G1 X56.796 Y90.771 E22.76919
G1 X56.203 Y89.862 E22.78404
G1 X28.454 Y39.752 E23.56786
G1 X28.037 Y38.938 E23.58038
G1 X27.858 Y38.518 E23.58663
G1 X27.594 Y37.768 E23.59751
G1 X27.471 Y37.328 E23.60375
G1 X27.309 Y36.550 E23.61463
G1 X27.245 Y36.098 E23.62088
G1 X27.187 Y35.305 E23.63176
G1 X27.184 Y34.848 E23.63801
G1 X27.228 Y34.104 E23.64821
G1 X27.289 Y33.602 E23.65513
G1 X27.441 Y32.821 E23.66601
G1 X27.557 Y32.380 E23.67226
G1 X27.811 Y31.626 E23.68314
G1 X27.985 Y31.204 E23.68939
G1 X28.336 Y30.491 E23.70027
G1 X28.564 Y30.095 E23.70652
G1 X29.006 Y29.435 E23.71740
G1 X29.285 Y29.073 E23.72365
G1 X29.761 Y28.533 E23.73350
G1 E21.73350 F1920.00000
G92 E0
G1 X58.406 Y66.876 F7800.000
G1 E2.00000 F1920.00000
G1 X59.310 Y67.301 E2.01367 F1800.000
G1 X60.073 Y67.932 E2.02723
G1 X60.655 Y68.734 E2.04078
G1 X61.020 Y69.655 E2.05434
G1 X61.144 Y70.638 E2.06789
G1 X61.020 Y71.620 E2.08145
G1 X60.655 Y72.541 E2.09500
G1 X60.073 Y73.343 E2.10856
G1 X59.310 Y73.974 E2.12211
G1 X58.461 Y74.374 E2.13495
G1 X57.449 Y74.582 E2.14909
G1 X56.452 Y74.519 E2.16276
G1 X55.560 Y74.229 E2.17560
G1 X54.679 Y73.689 E2.18974
G1 X53.995 Y72.960 E2.20341
G1 X53.518 Y72.092 E2.21696
G1 X53.272 Y71.133 E2.23052
G1 X53.272 Y70.142 E2.24407
G1 X53.518 Y69.183 E2.25763
G1 X53.995 Y68.315 E2.27118
G1 X54.673 Y67.593 E2.28474
G1 X55.510 Y67.062 E2.29829
G1 X56.452 Y66.756 E2.31185
G1 X57.388 Y66.697 E2.32469 F1800.000
G1 X58.332 Y66.863 E2.33780
G1 X58.270 Y67.305 F7800.000
G4 P29
G1 X59.069 Y67.681 E2.34988 F1800.000
