; generated by Slic3r 1.2.9 on 2016-02-11 at 00:59:42

; external perimeters extrusion width = 0.50mm
; perimeters extrusion width = 0.50mm
; infill extrusion width = 0.50mm
; solid infill extrusion width = 0.50mm
; top infill extrusion width = 0.50mm

M107
M190 S70 ; set bed temperature
M104 S220 ; set temperature
G28 ; home all axes
M109 S220 ; wait for temperature to be reached
G21 ; set units to millimeters
G90 ; use absolute coordinates
M82 ; use absolute distances for extrusion
G92 E0
G1 Z0.350 F7800.000
G1 E-2.00000 F1920.00000
G92 E0
G1 X52.844 Y37.528 F7800.000
G1 E2.00000 F1920.00000
M204 S3000
G1 X54.131 Y35.791 E2.02958 F1800.000
G1 X55.511 Y34.127 E2.05917
G1 X56.981 Y32.542 E2.08875
G1 X58.324 Y31.235 E2.11439
G1 X59.949 Y29.810 E2.14397
G1 X61.651 Y28.475 E2.17356
G1 X63.423 Y27.237 E2.20314
G1 X65.260 Y26.098 E2.23273
G1 X67.415 Y24.932 E2.26625
G1 X69.374 Y24.017 E2.29584
G1 X71.110 Y23.311 E2.32148
G1 X72.930 Y22.678 E2.34786
G1 X73.427 Y22.516 E2.35501
G1 X75.230 Y22.006 E2.38065
G1 X77.338 Y21.526 E2.41023
G1 X79.469 Y21.162 E2.43981
G1 X81.617 Y20.916 E2.46940
G1 X83.775 Y20.789 E2.49898
G1 X86.225 Y20.789 E2.53251
G1 X88.096 Y20.892 E2.55815 F1800.000
G1 X90.246 Y21.122 E2.58773
G1 X92.662 Y21.526 E2.62126
G1 X94.491 Y21.935 E2.64690
G1 X96.573 Y22.516 E2.67648
G1 X98.890 Y23.311 E2.71001
G1 X100.626 Y24.017 E2.73565
G1 X102.585 Y24.932 E2.76523
G1 X104.740 Y26.098 E2.79876
G1 X106.336 Y27.079 E2.82440
G1 X108.117 Y28.305 E2.85398
G1 X110.051 Y29.810 E2.88751
G1 X111.676 Y31.235 E2.91709
G1 X113.019 Y32.542 E2.94273
G1 X114.678 Y34.344 E2.97626
G1 X115.869 Y35.791 E3.00190
G1 X117.156 Y37.528 E3.03148
G1 X118.496 Y39.579 E3.06501
G1 X119.570 Y41.455 E3.09460
G1 X120.416 Y43.127 E3.12024
G1 X121.400 Y45.371 E3.15376
G1 X122.057 Y47.126 E3.17940
G1 X122.710 Y49.187 E3.20899
G1 X123.312 Y51.562 E3.24251
G1 X123.671 Y53.401 E3.26815
G1 X123.976 Y55.541 E3.29774
G1 X124.178 Y57.983 E3.33126
G1 X124.230 Y60.144 E3.36085
G1 X124.178 Y62.017 E3.38649
G1 X123.976 Y64.459 E3.42001
G1 X123.718 Y66.315 E3.44565
G1 X123.312 Y68.438 E3.47524
G1 X122.710 Y70.813 E3.50877
G1 X122.151 Y72.602 E3.53441
G1 X121.400 Y74.629 E3.56399
G1 X120.416 Y76.873 E3.59752
G1 X119.570 Y78.545 E3.62316
G1 X118.496 Y80.421 E3.65274
G1 X117.156 Y82.472 E3.68627
G1 X116.046 Y83.982 E3.71191
G1 X114.678 Y85.656 E3.74149
G1 X113.019 Y87.458 E3.77502
G1 X111.464 Y88.960 E3.80460
G1 X110.051 Y90.190 E3.83024
G1 X108.117 Y91.695 E3.86377
G1 X106.577 Y92.763 E3.88941
G1 X104.740 Y93.902 E3.91899
G1 X102.585 Y95.068 E3.95252
G1 X100.890 Y95.868 E3.97816
G1 X98.890 Y96.689 E4.00774
G1 X96.573 Y97.484 E4.04127
G1 X94.770 Y97.994 E4.06691
G1 X92.662 Y98.474 E4.09649
G1 X90.246 Y98.878 E4.13002
G1 X88.383 Y99.084 E4.15566
G1 X86.225 Y99.211 E4.18524
G1 X83.775 Y99.211 E4.21877
G1 X81.904 Y99.108 E4.24441
G1 X79.754 Y98.878 E4.27400
G1 X77.338 Y98.474 E4.30752
G1 X75.509 Y98.065 E4.33316
G1 X73.427 Y97.484 E4.36275
G1 X71.110 Y96.689 E4.39627
G1 X69.374 Y95.983 E4.42191
G1 X67.415 Y95.068 E4.45150
G1 X65.260 Y93.902 E4.48502
G1 X63.664 Y92.921 E4.51066
G1 X61.883 Y91.695 E4.54025
G1 X59.949 Y90.190 E4.57378
G1 X58.536 Y88.960 E4.59941
G1 X56.981 Y87.458 E4.62900
G1 X55.322 Y85.656 E4.66253
G1 X53.954 Y83.982 E4.69211
G1 X52.844 Y82.472 E4.71775
G1 X51.504 Y80.421 E4.75128
G1 X50.567 Y78.798 E4.77692
G1 X49.584 Y76.873 E4.80650
G1 X48.600 Y74.629 E4.84003
G1 X47.849 Y72.602 E4.86961
G1 X47.290 Y70.813 E4.89525
G1 X46.688 Y68.438 E4.92878
G1 X46.329 Y66.599 E4.95442
G1 X46.024 Y64.459 E4.98400
G1 X45.822 Y62.017 E5.01753
G1 X45.770 Y60.144 E5.04317
G1 X45.822 Y57.983 E5.07275
G1 X46.024 Y55.541 E5.10628
G1 X46.282 Y53.685 E5.13192
G1 X46.688 Y51.562 E5.16150
G1 X47.290 Y49.187 E5.19503
G1 X47.849 Y47.398 E5.22067
G1 X48.600 Y45.371 E5.25025
G1 X49.584 Y43.127 E5.28378
G1 X50.430 Y41.455 E5.30942
G1 X51.504 Y39.579 E5.33900
G1 X52.801 Y37.590 E5.37151
G1 X53.204 Y37.792 F7800.000
G4 P29
G1 X54.475 Y36.075 E5.40075 F1800.000
G1 X55.840 Y34.429 E5.43000
G1 X57.293 Y32.862 E5.45925
G1 X58.636 Y31.555 E5.48489
G1 X60.243 Y30.146 E5.51413
G1 X61.925 Y28.828 E5.54338
G1 X63.677 Y27.604 E5.57263
G1 X65.494 Y26.478 E5.60188
G1 X67.606 Y25.336 E5.63473
G1 X69.542 Y24.430 E5.66398
G1 X71.278 Y23.725 E5.68962
G1 X73.075 Y23.100 E5.71566
G1 X73.548 Y22.945 E5.72247
G1 X75.351 Y22.436 E5.74811
G1 X77.435 Y21.961 E5.77736
G1 X79.542 Y21.602 E5.80661
G1 X81.929 Y21.338 E5.83946
G1 X84.063 Y21.228 E5.86871
G1 X86.200 Y21.235 E5.89796
G1 X88.071 Y21.338 E5.92360 F1800.000
G1 X90.196 Y21.566 E5.95284
G1 X92.565 Y21.961 E5.98570
G1 X94.393 Y22.371 E6.01134
G1 X96.452 Y22.945 E6.04058
G1 X98.722 Y23.725 E6.07344
G1 X100.458 Y24.430 E6.09908
G1 X102.394 Y25.336 E6.12833
G1 X104.506 Y26.478 E6.16118
G1 X106.102 Y27.460 E6.18682
G1 X107.863 Y28.671 E6.21607
G1 X109.757 Y30.146 E6.24892
G1 X111.170 Y31.377 E6.27456
G1 X112.707 Y32.862 E6.30381
G1 X114.334 Y34.628 E6.33666
G1 X115.525 Y36.075 E6.36230
G1 X116.796 Y37.792 E6.39155
G1 X118.110 Y39.802 E6.42440
G1 X119.172 Y41.657 E6.45365
G1 X120.018 Y43.329 E6.47929
G1 X120.982 Y45.528 E6.51215
G1 X121.725 Y47.532 E6.54139
G1 X122.284 Y49.320 E6.56703
G1 X122.874 Y51.647 E6.59989
G1 X123.233 Y53.486 E6.62553
G1 X123.534 Y55.602 E6.65477
G1 X123.732 Y57.995 E6.68763
G1 X123.784 Y60.132 E6.71688
G1 X123.732 Y62.005 E6.74252
G1 X123.534 Y64.398 E6.77537
G1 X123.276 Y66.253 E6.80101
G1 X122.874 Y68.353 E6.83026
G1 X122.284 Y70.680 E6.86311
G1 X121.725 Y72.468 E6.88875
G1 X120.982 Y74.472 E6.91800
G1 X120.018 Y76.671 E6.95085
G1 X119.172 Y78.343 E6.97649
G1 X118.110 Y80.198 E7.00574
G1 X116.796 Y82.208 E7.03859
G1 X115.525 Y83.925 E7.06784
G1 X114.334 Y85.372 E7.09348
G1 X112.707 Y87.138 E7.12634
G1 X111.170 Y88.623 E7.15558
G1 X109.757 Y89.854 E7.18122
G1 X107.863 Y91.329 E7.21408
G1 X106.323 Y92.396 E7.23972
G1 X104.506 Y93.522 E7.26896
G1 X102.394 Y94.664 E7.30182
G1 X100.700 Y95.464 E7.32746
G1 X98.722 Y96.275 E7.35670
G1 X96.452 Y97.055 E7.38956
G1 X94.649 Y97.564 E7.41520
G1 X92.565 Y98.039 E7.44445
G1 X90.196 Y98.434 E7.47730
G1 X88.334 Y98.640 E7.50294
G1 X86.200 Y98.765 E7.53219
G1 X83.800 Y98.765 E7.56504
G1 X81.929 Y98.662 E7.59068
G1 X79.804 Y98.434 E7.61993
G1 X77.435 Y98.039 E7.65278
G1 X75.607 Y97.629 E7.67842
G1 X73.548 Y97.055 E7.70767
G1 X71.278 Y96.275 E7.74052
G1 X69.300 Y95.464 E7.76977
G1 X67.606 Y94.664 E7.79541
G1 X65.494 Y93.522 E7.82827
G1 X63.898 Y92.540 E7.85391
G1 X62.137 Y91.329 E7.88315
G1 X60.243 Y89.854 E7.91601
G1 X58.830 Y88.623 E7.94165
G1 X57.293 Y87.138 E7.97089
G1 X55.666 Y85.372 E8.00375
G1 X54.475 Y83.925 E8.02939
G1 X53.204 Y82.208 E8.05864
G1 X51.890 Y80.198 E8.09149
G1 X50.954 Y78.575 E8.11713
G1 X49.982 Y76.671 E8.14638
G1 X49.018 Y74.472 E8.17923
G1 X48.361 Y72.718 E8.20487
G1 X47.716 Y70.680 E8.23412
G1 X47.126 Y68.353 E8.26697
G1 X46.767 Y66.514 E8.29261
G1 X46.466 Y64.398 E8.32186
G1 X46.268 Y62.005 E8.35471
G1 X46.216 Y60.132 E8.38035
G1 X46.268 Y57.995 E8.40960
G1 X46.466 Y55.602 E8.44246
G1 X46.724 Y53.746 E8.46809
G1 X47.126 Y51.647 E8.49734
G1 X47.716 Y49.320 E8.53020
G1 X48.275 Y47.532 E8.55584
G1 X49.018 Y45.528 E8.58508
G1 X49.982 Y43.329 E8.61794
G1 X50.828 Y41.657 E8.64358
G1 X51.890 Y39.802 E8.67282
G1 X53.161 Y37.854 E8.70465
G1 X53.563 Y38.057 F7800.000
G4 P29
G1 X54.820 Y36.358 E8.73356 F1800.000
G1 X56.168 Y34.732 E8.76247
G1 X57.604 Y33.182 E8.79139
G1 X58.947 Y31.875 E8.81703
G1 X60.536 Y30.483 E8.84594
G1 X62.199 Y29.180 E8.87485
G1 X63.931 Y27.971 E8.90376
G1 X65.728 Y26.859 E8.93267
G1 X67.796 Y25.739 E8.96485
G1 X69.710 Y24.844 E8.99376
G1 X71.446 Y24.139 E9.01940
G1 X73.220 Y23.522 E9.04511
G1 X73.670 Y23.375 E9.05158
G1 X75.473 Y22.865 E9.07722
G1 X77.533 Y22.397 E9.10613
G1 X79.616 Y22.042 E9.13504
G1 X81.953 Y21.784 E9.16722
G1 X84.063 Y21.674 E9.19614
G1 X86.176 Y21.680 E9.22505
G1 X88.047 Y21.784 E9.25069 F1800.000
G1 X90.147 Y22.010 E9.27960
G1 X92.467 Y22.397 E9.31178
G1 X94.527 Y22.865 E9.34069
G1 X96.330 Y23.375 E9.36633
G1 X98.554 Y24.139 E9.39851
G1 X100.290 Y24.844 E9.42415
G1 X102.204 Y25.739 E9.45306
G1 X104.272 Y26.859 E9.48524
G1 X105.869 Y27.840 E9.51088
G1 X107.608 Y29.038 E9.53979
G1 X109.464 Y30.483 E9.57197
G1 X110.877 Y31.713 E9.59761
G1 X112.396 Y33.182 E9.62652
G1 X113.989 Y34.912 E9.65871
G1 X115.180 Y36.358 E9.68435
G1 X116.437 Y38.057 E9.71326
G1 X117.723 Y40.026 E9.74544
G1 X118.660 Y41.648 E9.77108
G1 X119.620 Y43.530 E9.79999
G1 X120.564 Y45.684 E9.83217
G1 X121.221 Y47.439 E9.85781
G1 X121.858 Y49.453 E9.88672
G1 X122.436 Y51.733 E9.91890
G1 X122.795 Y53.572 E9.94454
G1 X123.092 Y55.664 E9.97345
G1 X123.286 Y58.007 E10.00563
G1 X123.337 Y60.120 E10.03454
G1 X123.286 Y61.993 E10.06018
G1 X123.092 Y64.336 E10.09237
G1 X122.834 Y66.192 E10.11800
G1 X122.436 Y68.267 E10.14692
G1 X121.858 Y70.547 E10.17910
G1 X121.299 Y72.335 E10.20474
G1 X120.564 Y74.316 E10.23365
G1 X119.620 Y76.470 E10.26583
G1 X118.660 Y78.352 E10.29474
G1 X117.723 Y79.974 E10.32038
G1 X116.437 Y81.943 E10.35256
G1 X115.180 Y83.642 E10.38147
G1 X113.989 Y85.088 E10.40711
G1 X112.396 Y86.818 E10.43929
G1 X111.053 Y88.125 E10.46493
G1 X109.464 Y89.517 E10.49384
G1 X107.608 Y90.962 E10.52603
G1 X106.069 Y92.029 E10.55166
G1 X104.272 Y93.141 E10.58058
G1 X102.204 Y94.261 E10.61276
G1 X100.509 Y95.060 E10.63840
G1 X98.554 Y95.861 E10.66731
G1 X96.330 Y96.625 E10.69949
G1 X94.527 Y97.135 E10.72513
G1 X92.467 Y97.603 E10.75404
G1 X90.147 Y97.990 E10.78622
G1 X88.285 Y98.197 E10.81186
G1 X86.176 Y98.320 E10.84077
G1 X83.824 Y98.320 E10.87295
G1 X81.953 Y98.216 E10.89859
G1 X79.853 Y97.990 E10.92750
G1 X77.533 Y97.603 E10.95968
G1 X75.705 Y97.194 E10.98532
G1 X73.670 Y96.625 E11.01424
G1 X71.445 Y95.861 E11.04642
G1 X69.710 Y95.156 E11.07206
G1 X67.796 Y94.261 E11.10097
G1 X65.728 Y93.141 E11.13315
G1 X64.132 Y92.160 E11.15879
G1 X62.392 Y90.962 E11.18770
G1 X60.536 Y89.517 E11.21988
G1 X59.123 Y88.287 E11.24552
G1 X57.604 Y86.818 E11.27443
G1 X56.011 Y85.088 E11.30661
G1 X54.673 Y83.453 E11.33552
G1 X53.563 Y81.943 E11.36116
G1 X52.277 Y79.974 E11.39334
G1 X51.340 Y78.352 E11.41898
G1 X50.380 Y76.470 E11.44789
G1 X49.436 Y74.316 E11.48008
G1 X48.779 Y72.561 E11.50572
G1 X48.142 Y70.547 E11.53463
G1 X47.564 Y68.267 E11.56681
G1 X47.205 Y66.428 E11.59245
G1 X46.908 Y64.336 E11.62136
G1 X46.714 Y61.993 E11.65354
G1 X46.663 Y60.120 E11.67918
G1 X46.714 Y58.007 E11.70809
G1 X46.908 Y55.664 E11.74027
G1 X47.166 Y53.808 E11.76591
G1 X47.564 Y51.733 E11.79482
G1 X48.142 Y49.453 E11.82700
G1 X48.701 Y47.665 E11.85264
G1 X49.436 Y45.684 E11.88155
G1 X50.380 Y43.530 E11.91374
G1 X51.226 Y41.859 E11.93938
G1 X52.277 Y40.026 E11.96829
G1 X53.521 Y38.118 E11.99944
G1 X53.923 Y38.321 F7800.000
G4 P29
G1 X55.164 Y36.642 E12.02802 F1800.000
G1 X56.496 Y35.034 E12.05659
G1 X57.915 Y33.502 E12.08516
G1 X59.258 Y32.195 E12.11080
G1 X60.829 Y30.819 E12.13938
G1 X62.473 Y29.532 E12.16795
G1 X64.365 Y28.220 E12.19946
G1 X66.147 Y27.132 E12.22804
G1 X67.987 Y26.143 E12.25661
G1 X69.877 Y25.257 E12.28518
G1 X71.613 Y24.552 E12.31082
G1 X73.365 Y23.944 E12.33619
G1 X73.791 Y23.804 E12.34233
G1 X75.594 Y23.295 E12.36797
G1 X77.631 Y22.832 E12.39655
G1 X79.689 Y22.483 E12.42512
G1 X81.978 Y22.229 E12.45663
G1 X84.063 Y22.120 E12.48520
G1 X86.151 Y22.126 E12.51378
G1 X88.022 Y22.229 E12.53942 F1800.000
G1 X90.098 Y22.453 E12.56799
G1 X92.369 Y22.832 E12.59950
G1 X94.198 Y23.242 E12.62514
G1 X96.209 Y23.804 E12.65371
G1 X98.387 Y24.552 E12.68522
G1 X100.123 Y25.257 E12.71086
G1 X102.013 Y26.143 E12.73944
G1 X104.038 Y27.239 E12.77095
G1 X105.635 Y28.220 E12.79659
G1 X107.354 Y29.405 E12.82516
G1 X109.171 Y30.819 E12.85667
G1 X110.584 Y32.050 E12.88231
G1 X112.085 Y33.502 E12.91088
G1 X113.644 Y35.196 E12.94239
G1 X114.836 Y36.642 E12.96803
G1 X116.077 Y38.321 E12.99660
G1 X117.336 Y40.249 E13.02811
G1 X118.273 Y41.871 E13.05375
G1 X119.221 Y43.732 E13.08233
G1 X120.146 Y45.841 E13.11384
G1 X120.803 Y47.595 E13.13947
G1 X121.432 Y49.586 E13.16805
G1 X121.998 Y51.819 E13.19956
G1 X122.392 Y53.869 E13.22813
G1 X122.649 Y55.725 E13.25377
G1 X122.840 Y58.020 E13.28528
G1 X122.891 Y60.107 E13.31385
G1 X122.840 Y61.980 E13.33949
G1 X122.649 Y64.275 E13.37100
G1 X122.392 Y66.131 E13.39664
G1 X121.998 Y68.181 E13.42522
G1 X121.432 Y70.414 E13.45673
G1 X120.873 Y72.202 E13.48237
G1 X120.146 Y74.159 E13.51094
G1 X119.221 Y76.268 E13.54245
G1 X118.273 Y78.129 E13.57102
G1 X117.336 Y79.751 E13.59666
G1 X116.077 Y81.679 E13.62817
G1 X114.967 Y83.189 E13.65381
G1 X113.644 Y84.804 E13.68238
G1 X112.085 Y86.498 E13.71389
G1 X110.742 Y87.805 E13.73953
G1 X109.171 Y89.181 E13.76811
G1 X107.354 Y90.595 E13.79962
G1 X105.814 Y91.663 E13.82525
G1 X104.038 Y92.761 E13.85383
G1 X102.013 Y93.857 E13.88534
G1 X100.319 Y94.657 E13.91098
G1 X98.387 Y95.448 E13.93955
G1 X96.209 Y96.196 E13.97106
G1 X94.198 Y96.758 E13.99963
G1 X92.369 Y97.168 E14.02527
G1 X90.098 Y97.547 E14.05678
G1 X88.236 Y97.753 E14.08242
G1 X86.151 Y97.874 E14.11100
G1 X83.849 Y97.874 E14.14250
G1 X81.978 Y97.771 E14.16815
G1 X79.902 Y97.547 E14.19672
G1 X77.631 Y97.168 E14.22823
G1 X75.802 Y96.758 E14.25387
G1 X73.791 Y96.196 E14.28244
G1 X71.613 Y95.448 E14.31395
G1 X69.877 Y94.743 E14.33959
G1 X67.987 Y93.857 E14.36816
G1 X65.962 Y92.761 E14.39967
G1 X64.365 Y91.780 E14.42531
G1 X62.646 Y90.595 E14.45389
G1 X60.829 Y89.181 E14.48540
G1 X59.416 Y87.950 E14.51103
G1 X57.915 Y86.498 E14.53961
G1 X56.356 Y84.804 E14.57112
G1 X55.033 Y83.189 E14.59969
G1 X53.923 Y81.679 E14.62533
G1 X52.664 Y79.751 E14.65684
G1 X51.727 Y78.129 E14.68248
G1 X50.779 Y76.268 E14.71105
G1 X49.854 Y74.159 E14.74256
G1 X49.197 Y72.405 E14.76820
G1 X48.568 Y70.414 E14.79678
G1 X48.002 Y68.181 E14.82828
G1 X47.643 Y66.342 E14.85392
G1 X47.351 Y64.275 E14.88250
G1 X47.160 Y61.980 E14.91401
G1 X47.109 Y60.107 E14.93965
G1 X47.160 Y58.020 E14.96822
G1 X47.351 Y55.725 E14.99973
G1 X47.608 Y53.869 E15.02537
G1 X48.002 Y51.819 E15.05394
G1 X48.568 Y49.586 E15.08545
G1 X49.127 Y47.798 E15.11109
G1 X49.854 Y45.841 E15.13967
G1 X50.779 Y43.732 E15.17117
G1 X51.727 Y41.871 E15.19975
G1 X52.664 Y40.249 E15.22539
G1 X53.880 Y38.383 E15.25587
G1 X54.283 Y38.585 F7800.000
G4 P29
G1 X55.509 Y36.926 E15.28411 F1800.000
G1 X56.825 Y35.336 E15.31235
G1 X58.226 Y33.822 E15.34058
G1 X59.569 Y32.515 E15.36622
G1 X61.122 Y31.156 E15.39446
G1 X62.747 Y29.884 E15.42270
G1 X64.599 Y28.600 E15.45354
G1 X66.360 Y27.524 E15.48177
G1 X68.177 Y26.547 E15.51001
G1 X70.045 Y25.671 E15.53825
G1 X71.781 Y24.966 E15.56389
G1 X73.510 Y24.367 E15.58892
G1 X73.913 Y24.234 E15.59472
G1 X75.716 Y23.724 E15.62036
G1 X77.728 Y23.268 E15.64860
G1 X79.763 Y22.923 E15.67684
G1 X81.813 Y22.691 E15.70508
G1 X83.873 Y22.572 E15.73332
G1 X86.127 Y22.572 E15.76415
G1 X87.998 Y22.675 E15.78979 F1800.000
G1 X90.049 Y22.897 E15.81803
G1 X92.272 Y23.268 E15.84886
G1 X94.100 Y23.677 E15.87450
G1 X96.087 Y24.234 E15.90274
G1 X98.219 Y24.966 E15.93358
G1 X99.955 Y25.671 E15.95922
G1 X101.823 Y26.547 E15.98745
G1 X103.805 Y27.619 E16.01829
G1 X105.401 Y28.600 E16.04393
G1 X107.100 Y29.772 E16.07217
G1 X108.878 Y31.156 E16.10300
G1 X110.291 Y32.386 E16.12864
G1 X111.774 Y33.822 E16.15688
G1 X113.300 Y35.480 E16.18772
G1 X114.491 Y36.926 E16.21336
G1 X115.717 Y38.585 E16.24159
G1 X116.950 Y40.472 E16.27243
G1 X117.887 Y42.095 E16.29807
G1 X118.823 Y43.933 E16.32631
G1 X119.728 Y45.997 E16.35714
G1 X120.385 Y47.752 E16.38278
G1 X121.006 Y49.720 E16.41102
G1 X121.560 Y51.904 E16.44186
G1 X121.919 Y53.743 E16.46749
G1 X122.207 Y55.786 E16.49573
G1 X122.393 Y58.032 E16.52657
G1 X122.445 Y59.905 E16.55221
G1 X122.393 Y61.968 E16.58045
G1 X122.207 Y64.214 E16.61128
G1 X121.950 Y66.070 E16.63692
G1 X121.559 Y68.096 E16.66516
G1 X121.006 Y70.280 E16.69599
G1 X120.447 Y72.069 E16.72163
G1 X119.728 Y74.003 E16.74987
G1 X118.823 Y76.067 E16.78071
G1 X117.887 Y77.905 E16.80895
G1 X116.950 Y79.528 E16.83459
G1 X115.717 Y81.415 E16.86542
G1 X114.608 Y82.924 E16.89106
G1 X113.300 Y84.521 E16.91930
G1 X111.774 Y86.178 E16.95013
G1 X110.291 Y87.614 E16.97837
G1 X108.878 Y88.844 E17.00401
G1 X107.100 Y90.228 E17.03485
