; generated by Slic3r 1.2.9 on 2016-02-23 at 20:08:09

; external perimeters extrusion width = 0.50mm
; perimeters extrusion width = 0.50mm
; infill extrusion width = 0.50mm
; solid infill extrusion width = 0.50mm
; top infill extrusion width = 0.50mm

M107
M190 S70 ; set bed temperature
M104 S220 ; set temperature
G28 ; home all axes
M109 S220 ; wait for temperature to be reached
G21 ; set units to millimeters
G90 ; use absolute coordinates
M82 ; use absolute distances for extrusion
G92 E0
G1 Z0.350 F7800.000
G1 E-2.00000 F1920.00000
G92 E0
G1 X23.622 Y12.779 F7800.000
G1 E2.00000 F1920.00000
M204 S3000
G1 X24.305 Y11.596 E2.01869 F1800.000
G1 X25.099 Y10.561 E2.03655
G1 X26.065 Y9.595 E2.05524
G1 X27.100 Y8.800 E2.07310
G1 X27.589 Y8.468 E2.08118
G1 X37.295 Y2.629 E2.23618
G1 X38.009 Y2.271 E2.24712
G1 X38.249 Y2.173 E2.25066
G1 X39.555 Y1.827 E2.26915
G1 X39.813 Y1.793 E2.27271
G1 X40.487 Y1.749 E2.28195
G1 X123.513 Y1.749 E3.41809
G1 X124.188 Y1.793 E3.42735
G1 X124.445 Y1.827 E3.43090 F1800.000
G1 X125.580 Y2.106 E3.44689
G1 X140.319 Y7.543 E3.66186
G1 X141.717 Y8.118 E3.68254
G1 X142.900 Y8.800 E3.70123
G1 X143.935 Y9.595 E3.71909
G1 X144.901 Y10.561 E3.73778
G1 X145.696 Y11.596 E3.75564
G1 X146.378 Y12.779 E3.77433
G1 X146.878 Y13.985 E3.79219
G1 X147.231 Y15.304 E3.81088
G1 X147.402 Y16.598 E3.82874
G1 X147.446 Y17.281 E3.83811
G1 X147.446 Y54.281 E4.34441
G1 X147.402 Y54.964 E4.35378
G1 X147.231 Y56.258 E4.37164
G1 X146.878 Y57.577 E4.39033
G1 X146.378 Y58.783 E4.40819
G1 X146.200 Y59.170 E4.41402
G1 X118.627 Y112.907 E5.24051
G1 X118.123 Y113.704 E5.25341
G1 X117.328 Y114.739 E5.27127
G1 X116.362 Y115.705 E5.28996
G1 X115.327 Y116.500 E5.30782
G1 X114.144 Y117.182 E5.32651
G1 X112.938 Y117.682 E5.34437
G1 X111.619 Y118.035 E5.36306
G1 X110.325 Y118.206 E5.38092
G1 X109.642 Y118.251 E5.39029
G1 X63.642 Y118.251 E6.01975
G1 X62.959 Y118.206 E6.02912
G1 X61.665 Y118.035 E6.04698
G1 X60.346 Y117.682 E6.06567
G1 X59.139 Y117.182 E6.08353
G1 X57.957 Y116.500 E6.10222
G1 X56.921 Y115.705 E6.12008
G1 X55.956 Y114.739 E6.13877
G1 X55.161 Y113.704 E6.15663
G1 X54.775 Y113.124 E6.16616
G1 X23.918 Y59.386 E7.01412
G1 X23.622 Y58.783 E7.02331
G1 X23.122 Y57.577 E7.04117
G1 X22.769 Y56.258 E7.05986
G1 X22.598 Y54.964 E7.07773
G1 X22.554 Y54.281 E7.08709
G1 X22.554 Y17.281 E7.59340
G1 X22.598 Y16.598 E7.60276
G1 X22.769 Y15.304 E7.62063
G1 X23.122 Y13.985 E7.63931
G1 X23.593 Y12.848 E7.65615
G1 X24.034 Y12.950 F7800.000
G4 P29
G1 X24.659 Y11.868 E7.67324 F1800.000
G1 X25.453 Y10.832 E7.69110
G1 X26.337 Y9.949 E7.70820
G1 X27.372 Y9.155 E7.72606
G1 X27.819 Y8.850 E7.73345
G1 X37.525 Y3.012 E7.88845
G1 X38.178 Y2.684 E7.89845
G1 X38.418 Y2.586 E7.90200
G1 X39.612 Y2.269 E7.91891
G1 X39.870 Y2.236 E7.92247
G1 X40.487 Y2.196 E7.93092
G1 X123.513 Y2.196 E9.06706
G1 X124.131 Y2.236 E9.07553
G1 X124.388 Y2.269 E9.07907 F1800.000
G1 X125.426 Y2.525 E9.09370
G1 X140.165 Y7.962 E9.30868
G1 X141.546 Y8.530 E9.32911
G1 X142.628 Y9.155 E9.34621
G1 X143.663 Y9.949 E9.36407
G1 X144.547 Y10.833 E9.38116
G1 X145.341 Y11.868 E9.39903
G1 X145.966 Y12.950 E9.41612
G1 X146.465 Y14.156 E9.43398
G1 X146.789 Y15.362 E9.45107
G1 X146.959 Y16.657 E9.46894
G1 X147.000 Y17.281 E9.47750
G1 X147.000 Y54.281 E9.98381
G1 X146.959 Y54.906 E9.99238
G1 X146.789 Y56.200 E10.01024
G1 X146.465 Y57.407 E10.02733
G1 X145.802 Y58.966 E10.05052
G1 X118.230 Y112.703 E10.87701
G1 X117.768 Y113.432 E10.88881
G1 X116.974 Y114.468 E10.90667
G1 X116.090 Y115.351 E10.92377
G1 X115.055 Y116.145 E10.94163
G1 X113.973 Y116.770 E10.95872
G1 X112.767 Y117.270 E10.97659
G1 X111.560 Y117.593 E10.99368
G1 X110.266 Y117.763 E11.01154
G1 X109.642 Y117.804 E11.02011
G1 X63.642 Y117.804 E11.64957
G1 X63.017 Y117.763 E11.65814
G1 X61.723 Y117.593 E11.67600
G1 X60.516 Y117.270 E11.69310
G1 X59.310 Y116.770 E11.71096
G1 X58.229 Y116.145 E11.72805
G1 X57.193 Y115.351 E11.74591
G1 X56.310 Y114.467 E11.76301
G1 X55.515 Y113.432 E11.78087
G1 X55.162 Y112.902 E11.78959
G1 X24.305 Y59.164 E12.63754
G1 X24.034 Y58.613 E12.64595
G1 X23.535 Y57.407 E12.66381
G1 X23.211 Y56.200 E12.68091
G1 X23.041 Y54.906 E12.69877
G1 X23.000 Y54.281 E12.70733
G1 X23.000 Y17.281 E13.21364
G1 X23.041 Y16.657 E13.22221
G1 X23.211 Y15.362 E13.24007
G1 X23.534 Y14.156 E13.25716
G1 X24.005 Y13.019 E13.27400
G1 X24.446 Y13.121 F7800.000
G4 P29
G1 X25.013 Y12.140 E13.28950 F1800.000
G1 X25.807 Y11.104 E13.30736
G1 X26.608 Y10.303 E13.32286
G1 X27.644 Y9.509 E13.34072
G1 X28.049 Y9.233 E13.34743
G1 X37.755 Y3.394 E13.50242
G1 X38.347 Y3.097 E13.51149
G1 X38.587 Y2.999 E13.51504
G1 X39.670 Y2.712 E13.53037
G1 X39.928 Y2.678 E13.53393
G1 X40.487 Y2.642 E13.54159
G1 X123.513 Y2.642 E14.67773
G1 X124.073 Y2.678 E14.68541
G1 X124.330 Y2.712 E14.68895 F1800.000
G1 X125.271 Y2.944 E14.70222
G1 X140.010 Y8.381 E14.91719
G1 X141.375 Y8.942 E14.93739
G1 X142.356 Y9.509 E14.95289
G1 X143.392 Y10.303 E14.97075
G1 X144.193 Y11.104 E14.98625
G1 X144.987 Y12.140 E15.00411
G1 X145.554 Y13.121 E15.01961
G1 X146.053 Y14.327 E15.03747
G1 X146.346 Y15.421 E15.05297
G1 X146.517 Y16.715 E15.07083
G1 X146.554 Y17.281 E15.07860
G1 X146.554 Y54.281 E15.58491
G1 X146.517 Y54.848 E15.59268
G1 X146.346 Y56.142 E15.61054
G1 X146.053 Y57.236 E15.62604
G1 X145.405 Y58.762 E15.64873
G1 X117.832 Y112.500 E16.47522
G1 X117.414 Y113.160 E16.48592
G1 X116.620 Y114.196 E16.50378
G1 X115.819 Y114.997 E16.51928
G1 X114.783 Y115.791 E16.53714
G1 X113.802 Y116.358 E16.55265
G1 X112.596 Y116.857 E16.57051
G1 X111.502 Y117.150 E16.58601
G1 X110.208 Y117.321 E16.60387
G1 X109.642 Y117.358 E16.61163
G1 X63.642 Y117.358 E17.24110
G1 X63.075 Y117.321 E17.24887
G1 X61.781 Y117.150 E17.26673
G1 X60.687 Y116.857 E17.28223
G1 X59.481 Y116.358 E17.30009
G1 X58.500 Y115.791 E17.31559
G1 X57.465 Y114.997 E17.33345
G1 X56.664 Y114.196 E17.34895
G1 X55.869 Y113.160 E17.36681
G1 X55.549 Y112.679 E17.37472
G1 X24.692 Y58.942 E18.22267
G1 X24.446 Y58.442 E18.23030
G1 X23.947 Y57.236 E18.24816
G1 X23.654 Y56.142 E18.26366
G1 X23.483 Y54.847 E18.28152
G1 X23.446 Y54.281 E18.28929
G1 X23.446 Y17.281 E18.79560
G1 X23.483 Y16.715 E18.80336
G1 X23.654 Y15.421 E18.82123
G1 X23.947 Y14.327 E18.83672
G1 X24.418 Y13.190 E18.85356
G1 X24.859 Y13.292 F7800.000
G4 P29
G1 X25.367 Y12.411 E18.86747 F1800.000
G1 X26.162 Y11.376 E18.88533
G1 X26.880 Y10.657 E18.89923
G1 X27.916 Y9.863 E18.91709
G1 X28.279 Y9.615 E18.92311
G1 X37.985 Y3.777 E19.07810
G1 X38.516 Y3.510 E19.08624
G1 X38.756 Y3.412 E19.08979
G1 X39.728 Y3.155 E19.10354
G1 X39.985 Y3.121 E19.10709
G1 X40.487 Y3.089 E19.11397
G1 X123.513 Y3.089 E20.25011
G1 X124.016 Y3.121 E20.25700
G1 X124.272 Y3.155 E20.26054 F1800.000
G1 X125.117 Y3.362 E20.27244
G1 X139.856 Y8.799 E20.48742
G1 X141.204 Y9.355 E20.50737
G1 X142.084 Y9.863 E20.52128
G1 X143.120 Y10.657 E20.53914
G1 X143.839 Y11.376 E20.55305
G1 X144.633 Y12.412 E20.57091
G1 X145.141 Y13.292 E20.58481
G1 X145.641 Y14.497 E20.60267
G1 X145.904 Y15.479 E20.61658
G1 X146.074 Y16.773 E20.63444
G1 X146.107 Y17.281 E20.64141
G1 X146.107 Y54.281 E21.14772
G1 X146.074 Y54.789 E21.15469
G1 X145.904 Y56.084 E21.17255
G1 X145.641 Y57.065 E21.18645
G1 X145.008 Y58.558 E21.20864
G1 X117.435 Y112.296 E22.03514
G1 X117.060 Y112.889 E22.04474
G1 X116.266 Y113.924 E22.06260
G1 X115.547 Y114.643 E22.07651
G1 X114.512 Y115.437 E22.09437
G1 X113.631 Y115.945 E22.10827
G1 X112.426 Y116.445 E22.12613
G1 X111.444 Y116.708 E22.14004
G1 X110.150 Y116.878 E22.15790
G1 X109.642 Y116.911 E22.16487
G1 X63.642 Y116.911 E22.79434
G1 X63.134 Y116.878 E22.80130
G1 X61.840 Y116.708 E22.81917
G1 X60.858 Y116.445 E22.83307
G1 X59.652 Y115.945 E22.85093
G1 X58.772 Y115.437 E22.86484
G1 X57.737 Y114.643 E22.88270
G1 X57.018 Y113.924 E22.89660
G1 X56.223 Y112.889 E22.91446
G1 X55.936 Y112.457 E22.92156
G1 X25.079 Y58.720 E23.76951
G1 X24.859 Y58.271 E23.77635
G1 X24.359 Y57.065 E23.79421
G1 X24.096 Y56.083 E23.80812
G1 X23.926 Y54.789 E23.82598
G1 X23.893 Y54.281 E23.83295
G1 X23.893 Y17.281 E24.33926
G1 X23.926 Y16.773 E24.34623
G1 X24.096 Y15.479 E24.36409
G1 X24.359 Y14.498 E24.37799
G1 X24.830 Y13.361 E24.39483
G1 X25.271 Y13.462 F7800.000
G4 P29
G1 X25.721 Y12.683 E24.40714 F1800.000
G1 X26.516 Y11.648 E24.42500
G1 X27.152 Y11.012 E24.43731
G1 X28.187 Y10.217 E24.45517
G1 X28.509 Y9.998 E24.46050
G1 X38.215 Y4.159 E24.61549
G1 X38.685 Y3.923 E24.62270
G1 X38.925 Y3.825 E24.62624
G1 X39.785 Y3.597 E24.63842
G1 X40.043 Y3.564 E24.64197
G1 X40.487 Y3.535 E24.64806
G1 X123.513 Y3.535 E25.78420
G1 X123.958 Y3.564 E25.79030
G1 X124.215 Y3.597 E25.79384 F1800.000
G1 X124.962 Y3.781 E25.80437
G1 X139.702 Y9.218 E26.01935
G1 X141.034 Y9.767 E26.03907
G1 X141.813 Y10.217 E26.05138
G1 X142.848 Y11.012 E26.06924
G1 X143.484 Y11.648 E26.08155
G1 X144.279 Y12.683 E26.09941
G1 X144.729 Y13.462 E26.11172
G1 X145.228 Y14.668 E26.12958
G1 X145.461 Y15.537 E26.14189
G1 X145.632 Y16.831 E26.15976
G1 X145.661 Y17.281 E26.16592
G1 X145.661 Y54.281 E26.67223
G1 X145.632 Y54.731 E26.67840
G1 X145.461 Y56.025 E26.69627
G1 X145.228 Y56.894 E26.70857
G1 X144.611 Y58.355 E26.73027
G1 X117.038 Y112.092 E27.55677
G1 X116.706 Y112.617 E27.56526
G1 X115.911 Y113.652 E27.58313
G1 X115.275 Y114.288 E27.59544
G1 X114.240 Y115.083 E27.61330
G1 X113.461 Y115.533 E27.62561
G1 X112.255 Y116.032 E27.64347
G1 X111.386 Y116.265 E27.65578
G1 X110.092 Y116.436 E27.67364
G1 X109.642 Y116.465 E27.67981
G1 X63.642 Y116.465 E28.30928
G1 X63.192 Y116.436 E28.31545
G1 X61.898 Y116.265 E28.33331
G1 X61.029 Y116.032 E28.34562
G1 X59.823 Y115.533 E28.36348
G1 X59.044 Y115.083 E28.37579
G1 X58.008 Y114.288 E28.39365
G1 X57.372 Y113.652 E28.40596
G1 X56.577 Y112.617 E28.42382
G1 X56.323 Y112.235 E28.43010
G1 X25.466 Y58.497 E29.27806
G1 X25.271 Y58.100 E29.28411
G1 X24.772 Y56.894 E29.30198
G1 X24.539 Y56.025 E29.31429
G1 X24.368 Y54.731 E29.33215
G1 X24.339 Y54.281 E29.33832
G1 X24.339 Y17.281 E29.84463
G1 X24.368 Y16.831 E29.85080
G1 X24.539 Y15.537 E29.86866
G1 X24.772 Y14.668 E29.88097
G1 X25.242 Y13.532 E29.89780
G1 E27.89780 F1920.00000
G92 E0
G1 X107.458 Y24.524 F7800.000
G1 E2.00000 F1920.00000
G1 X94.140 Y24.524 E2.18225 F1800.000
G1 X93.502 Y24.440 E2.19105
G1 X92.838 Y24.165 E2.20088
G1 X92.265 Y23.725 E2.21076
G1 X91.826 Y23.144 E2.22074
G1 X91.556 Y22.494 E2.23038
G1 X91.462 Y21.781 E2.24021
G1 X91.556 Y21.069 E2.25004
G1 X91.831 Y20.405 E2.25987
G1 X92.271 Y19.832 E2.26976
G1 X92.851 Y19.392 E2.27973
G1 X93.502 Y19.122 E2.28937
G1 X94.140 Y19.039 E2.29817
G1 X134.290 Y19.039 E2.84758
G1 X134.927 Y19.122 E2.85638
G1 X135.591 Y19.397 E2.86621
G1 X136.164 Y19.837 E2.87609
G1 X136.604 Y20.418 E2.88606
G1 X136.873 Y21.069 E2.89570
G1 X136.967 Y21.781 E2.90554
G1 X136.873 Y22.494 E2.91537
G1 X136.598 Y23.157 E2.92520
G1 X136.161 Y23.728 E2.93504
G1 X135.591 Y24.165 E2.94487
G1 X134.927 Y24.440 E2.95470
G1 X134.290 Y24.524 E2.96350
G1 X120.971 Y24.524 E3.14575
G1 X120.953 Y24.772 E3.14915
G1 X121.681 Y24.880 E3.15923
G1 X122.885 Y25.182 E3.17621
G1 X124.053 Y25.600 E3.19319
G1 X125.175 Y26.130 E3.21017
G1 X126.239 Y26.768 E3.22715
G1 X127.236 Y27.507 E3.24413
G1 X128.155 Y28.340 E3.26111
G1 X128.989 Y29.260 E3.27809
G1 X129.728 Y30.257 E3.29507
G1 X130.366 Y31.321 E3.31205
G1 X130.896 Y32.443 E3.32903
G1 X131.314 Y33.610 E3.34600
G1 X131.614 Y34.799 E3.36278
G1 X131.798 Y36.042 E3.37997
G1 X131.859 Y37.281 E3.39695
G1 X131.798 Y38.521 E3.41393
G1 X131.616 Y39.748 E3.43091
G1 X131.314 Y40.952 E3.44789
G1 X130.896 Y42.120 E3.46487
G1 X130.366 Y43.242 E3.48185
G1 X129.728 Y44.306 E3.49882
G1 X128.989 Y45.303 E3.51580
G1 X128.155 Y46.222 E3.53278
G1 X127.236 Y47.055 E3.54976
G1 X126.239 Y47.794 E3.56674
G1 X125.175 Y48.432 E3.58372
G1 X124.053 Y48.963 E3.60070
G1 X122.886 Y49.381 E3.61767
G1 X121.697 Y49.680 E3.63445
G1 X120.953 Y49.790 E3.64474
G1 X120.971 Y50.039 E3.64815
G1 X134.290 Y50.039 E3.83039
G1 X134.927 Y50.122 E3.83919
G1 X135.591 Y50.397 E3.84903
G1 X136.161 Y50.835 E3.85886
G1 X136.598 Y51.405 E3.86869
G1 X136.873 Y52.069 E3.87853
G1 X136.967 Y52.781 E3.88836
G1 X136.873 Y53.494 E3.89819
G1 X136.598 Y54.157 E3.90802
G1 X136.161 Y54.728 E3.91786
G1 X135.591 Y55.165 E3.92769
G1 X134.927 Y55.440 E3.93752
G1 X134.290 Y55.524 E3.94632
G1 X94.140 Y55.524 E4.49573
G1 X93.502 Y55.440 E4.50453
G1 X92.838 Y55.165 E4.51436
G1 X92.268 Y54.728 E4.52420
G1 X91.831 Y54.157 E4.53403
G1 X91.556 Y53.494 E4.54386
G1 X91.462 Y52.781 E4.55370
G1 X91.556 Y52.069 E4.56353
G1 X91.831 Y51.405 E4.57336
G1 X92.268 Y50.835 E4.58319
G1 X92.838 Y50.397 E4.59303
G1 X93.502 Y50.122 E4.60286
G1 X94.140 Y50.039 E4.61166
G1 X107.458 Y50.039 E4.79391
G1 X107.477 Y49.790 E4.79731
G1 X106.733 Y49.680 E4.80761
G1 X105.544 Y49.381 E4.82438
G1 X104.376 Y48.963 E4.84135
G1 X103.254 Y48.432 E4.85833
G1 X102.190 Y47.794 E4.87531
G1 X101.193 Y47.055 E4.89229
G1 X100.274 Y46.222 E4.90927
G1 X99.441 Y45.303 E4.92625
G1 X98.702 Y44.306 E4.94323
G1 X98.064 Y43.242 E4.96021
G1 X97.533 Y42.119 E4.97721
G1 X97.108 Y40.923 E4.99457
G1 X96.814 Y39.748 E5.01115
G1 X96.632 Y38.521 E5.02813
G1 X96.571 Y37.281 E5.04511
G1 X96.632 Y36.042 E5.06209
G1 X96.814 Y34.813 E5.07908
G1 X97.125 Y33.583 E5.09645
G1 X97.533 Y32.443 E5.11302
G1 X98.064 Y31.321 E5.13000
G1 X98.702 Y30.257 E5.14698
G1 X99.441 Y29.260 E5.16396
G1 X100.274 Y28.340 E5.18094
G1 X101.193 Y27.507 E5.19792
G1 X102.190 Y26.768 E5.21490
G1 X103.254 Y26.130 E5.23188
G1 X104.377 Y25.599 E5.24888
G1 X105.573 Y25.174 E5.26624
G1 X106.748 Y24.880 E5.28282
G1 X107.477 Y24.772 E5.29289
G1 X107.464 Y24.599 E5.29527
G1 E3.29527 F1920.00000
G92 E0
G1 X107.458 Y50.485 F7800.000
G1 E2.00000 F1920.00000
G1 X134.260 Y50.485 E2.36676 F1800.000
G1 X134.811 Y50.557 E2.37436
G1 X135.366 Y50.787 E2.38258
G1 X135.843 Y51.153 E2.39081
G1 X136.209 Y51.630 E2.39903
G1 X136.439 Y52.185 E2.40725
G1 X136.517 Y52.781 E2.41548
G1 X136.439 Y53.377 E2.42370
G1 X136.209 Y53.932 E2.43193
G1 X135.843 Y54.409 E2.44015
G1 X135.366 Y54.775 E2.44838
G1 X134.811 Y55.005 E2.45660
G1 X134.260 Y55.078 E2.46420
G1 X94.169 Y55.078 E3.01281
G1 X93.619 Y55.005 E3.02040
G1 X93.064 Y54.775 E3.02863
G1 X92.587 Y54.409 E3.03685
G1 X92.221 Y53.932 E3.04508
G1 X91.991 Y53.377 E3.05330
G1 X91.912 Y52.781 E3.06152
G1 X91.991 Y52.185 E3.06975
G1 X92.221 Y51.630 E3.07797
G1 X92.587 Y51.153 E3.08620
G1 X93.064 Y50.787 E3.09442
G1 X93.619 Y50.557 E3.10265
G1 X94.169 Y50.485 E3.11024
G1 X107.383 Y50.485 E3.29107 F1800.000
G1 X107.458 Y50.931 F7800.000
G1 X134.231 Y50.931 E3.65743 F1800.000
G1 X134.694 Y50.992 E3.66382
G1 X135.141 Y51.177 E3.67043
G1 X135.524 Y51.472 E3.67705
G1 X135.819 Y51.855 E3.68367
G1 X136.004 Y52.302 E3.69028
G1 X136.067 Y52.781 E3.69690
G1 X136.004 Y53.261 E3.70352
G1 X135.819 Y53.707 E3.71013
G1 X135.524 Y54.091 E3.71675
G1 X135.141 Y54.385 E3.72336
G1 X134.694 Y54.570 E3.72998
G1 X134.231 Y54.631 E3.73637
G1 X94.198 Y54.631 E4.28418
G1 X93.735 Y54.570 E4.29057
G1 X93.289 Y54.385 E4.29719
G1 X92.905 Y54.091 E4.30380
G1 X92.611 Y53.707 E4.31042
G1 X92.426 Y53.261 E4.31704
G1 X92.363 Y52.781 E4.32365
G1 X92.426 Y52.302 E4.33027
G1 X92.611 Y51.855 E4.33689
G1 X92.905 Y51.472 E4.34350
G1 X93.289 Y51.177 E4.35012
G1 X93.735 Y50.992 E4.35673
G1 X94.198 Y50.931 E4.36312
G1 X107.383 Y50.931 E4.54355 F1800.000
G1 X107.708 Y50.498 F7800.000
G1 X107.690 Y49.371 F7800.000
G1 X106.820 Y49.242 E4.55558 F1800.000
G1 X105.674 Y48.953 E4.57176
G1 X104.547 Y48.550 E4.58813
G1 X103.465 Y48.038 E4.60451
G1 X102.438 Y47.423 E4.62089
G1 X101.477 Y46.710 E4.63727
G1 X100.590 Y45.906 E4.65365
G1 X99.786 Y45.019 E4.67003
G1 X99.073 Y44.058 E4.68641
G1 X98.458 Y43.031 E4.70278
G1 X97.946 Y41.948 E4.71918
G1 X97.536 Y40.794 E4.73594
G1 X97.252 Y39.661 E4.75192
G1 X97.076 Y38.477 E4.76830
G1 X97.018 Y37.281 E4.78468
G1 X97.076 Y36.086 E4.80106
G1 X97.252 Y34.901 E4.81745
G1 X97.553 Y33.713 E4.83421
G1 X97.946 Y32.614 E4.85020
G1 X98.458 Y31.531 E4.86658
G1 X99.073 Y30.505 E4.88296
G1 X99.786 Y29.543 E4.89933
G1 X100.590 Y28.656 E4.91571
G1 X101.477 Y27.853 E4.93209
G1 X102.438 Y27.140 E4.94847
G1 X103.465 Y26.524 E4.96485
G1 X104.548 Y26.012 E4.98124
G1 X105.702 Y25.602 E4.99801
