; generated by Slic3r 1.2.9 on 2016-02-17 at 20:53:43

; external perimeters extrusion width = 0.50mm
; perimeters extrusion width = 0.50mm
; infill extrusion width = 0.50mm
; solid infill extrusion width = 0.50mm
; top infill extrusion width = 0.50mm

M107
M190 S70 ; set bed temperature
M104 S220 ; set temperature
G28 ; home all axes
M109 S220 ; wait for temperature to be reached
G21 ; set units to millimeters
G90 ; use absolute coordinates
M82 ; use absolute distances for extrusion
G92 E0
G1 Z0.350 F7800.000
G1 E-2.00000 F1920.00000
G92 E0
G1 X53.519 Y38.465 F7800.000
G1 E2.00000 F1920.00000
M204 S3000
G1 X54.314 Y37.430 E2.01786 F1800.000
G1 X55.280 Y36.464 E2.03655
G1 X56.315 Y35.669 E2.05441
G1 X57.316 Y35.066 E2.07040
G1 X70.022 Y29.227 E2.26175
G1 X70.464 Y29.041 E2.26831
G1 X71.769 Y28.695 E2.28679
G1 X72.701 Y28.618 E2.29959
G1 X97.299 Y28.618 E2.63618
G1 X97.974 Y28.662 E2.64544
G1 X98.231 Y28.695 E2.64898 F1800.000
G1 X99.537 Y29.042 E2.66748
G1 X99.978 Y29.227 E2.67403
G1 X112.684 Y35.066 E2.86538
G1 X113.685 Y35.669 E2.88136
G1 X114.720 Y36.464 E2.89922
G1 X115.686 Y37.430 E2.91791
G1 X116.481 Y38.465 E2.93578
G1 X117.164 Y39.648 E2.95446
G1 X117.663 Y40.854 E2.97233
G1 X118.017 Y42.173 E2.99101
G1 X118.187 Y43.467 E3.00888
G1 X118.232 Y44.150 E3.01824
G1 X118.232 Y81.150 E3.52455
G1 X118.187 Y81.833 E3.53391
G1 X118.017 Y83.127 E3.55178
G1 X117.663 Y84.446 E3.57046
G1 X117.164 Y85.652 E3.58833
G1 X116.481 Y86.835 E3.60702
G1 X115.686 Y87.870 E3.62488
G1 X114.720 Y88.836 E3.64357
G1 X113.685 Y89.631 E3.66143
G1 X112.502 Y90.314 E3.68012
G1 X111.296 Y90.813 E3.69798
G1 X109.977 Y91.167 E3.71667
G1 X108.683 Y91.337 E3.73453
G1 X108.000 Y91.382 E3.74389
G1 X62.000 Y91.382 E4.37336
G1 X61.317 Y91.337 E4.38272
G1 X60.023 Y91.167 E4.40059
G1 X58.704 Y90.813 E4.41927
G1 X57.498 Y90.314 E4.43714
G1 X56.315 Y89.631 E4.45582
G1 X55.280 Y88.836 E4.47368
G1 X54.314 Y87.870 E4.49237
G1 X53.519 Y86.835 E4.51023
G1 X52.836 Y85.652 E4.52892
G1 X52.337 Y84.446 E4.54679
G1 X51.983 Y83.127 E4.56547
G1 X51.813 Y81.833 E4.58334
G1 X51.768 Y81.150 E4.59270
G1 X51.768 Y44.150 E5.09901
G1 X51.813 Y43.467 E5.10837
G1 X51.983 Y42.173 E5.12624
G1 X52.337 Y40.854 E5.14492
G1 X52.836 Y39.648 E5.16279
G1 X53.482 Y38.530 E5.18045
G1 X53.873 Y38.737 F7800.000
G4 P29
G1 X54.668 Y37.701 E5.19831 F1800.000
G1 X55.551 Y36.818 E5.21540
G1 X56.587 Y36.023 E5.23327
G1 X57.502 Y35.472 E5.24789
G1 X70.208 Y29.633 E5.43924
G1 X70.633 Y29.455 E5.44554
G1 X71.827 Y29.138 E5.46245
G1 X72.701 Y29.065 E5.47445
G1 X97.299 Y29.065 E5.81104
G1 X97.916 Y29.105 E5.81951
G1 X98.173 Y29.138 E5.82306 F1800.000
G1 X99.368 Y29.455 E5.83998
G1 X99.792 Y29.633 E5.84627
G1 X112.498 Y35.472 E6.03762
G1 X113.413 Y36.023 E6.05224
G1 X114.449 Y36.818 E6.07010
G1 X115.332 Y37.701 E6.08719
G1 X116.127 Y38.737 E6.10506
G1 X116.764 Y39.849 E6.12259
G1 X117.251 Y41.025 E6.14001
G1 X117.574 Y42.231 E6.15710
G1 X117.744 Y43.525 E6.17496
G1 X117.785 Y44.150 E6.18353
G1 X117.785 Y81.150 E6.68984
G1 X117.744 Y81.775 E6.69840
G1 X117.574 Y83.069 E6.71627
G1 X117.251 Y84.275 E6.73336
G1 X116.751 Y85.481 E6.75122
G1 X116.127 Y86.563 E6.76832
G1 X115.332 Y87.599 E6.78618
G1 X114.449 Y88.482 E6.80327
G1 X113.413 Y89.277 E6.82113
G1 X112.331 Y89.901 E6.83823
G1 X111.125 Y90.401 E6.85609
G1 X109.919 Y90.724 E6.87318
G1 X108.625 Y90.894 E6.89104
G1 X108.000 Y90.935 E6.89961
G1 X62.000 Y90.935 E7.52908
G1 X61.375 Y90.894 E7.53764
G1 X60.081 Y90.724 E7.55550
G1 X58.875 Y90.401 E7.57260
G1 X57.669 Y89.901 E7.59046
G1 X56.587 Y89.277 E7.60755
G1 X55.551 Y88.482 E7.62542
G1 X54.668 Y87.599 E7.64251
G1 X53.873 Y86.563 E7.66037
G1 X53.249 Y85.481 E7.67746
G1 X52.749 Y84.275 E7.69533
G1 X52.426 Y83.069 E7.71242
G1 X52.256 Y81.774 E7.73029
G1 X52.215 Y81.150 E7.73885
G1 X52.215 Y44.150 E8.24516
G1 X52.256 Y43.525 E8.25372
G1 X52.426 Y42.231 E8.27159
G1 X52.749 Y41.025 E8.28868
G1 X53.249 Y39.819 E8.30654
G1 X53.836 Y38.802 E8.32261
G1 X54.227 Y39.009 F7800.000
G4 P29
G1 X55.022 Y37.973 E8.34047 F1800.000
G1 X55.823 Y37.172 E8.35597
G1 X56.859 Y36.377 E8.37383
G1 X57.688 Y35.877 E8.38709
G1 X70.394 Y30.039 E8.57844
G1 X70.802 Y29.868 E8.58448
G1 X71.885 Y29.581 E8.59981
G1 X72.701 Y29.511 E8.61103
G1 X97.299 Y29.511 E8.94762
G1 X97.859 Y29.547 E8.95530
G1 X98.115 Y29.581 E8.95884 F1800.000
G1 X99.199 Y29.868 E8.97418
G1 X99.606 Y30.039 E8.98022
G1 X112.312 Y35.877 E9.17157
G1 X113.141 Y36.377 E9.18482
G1 X114.177 Y37.172 E9.20269
G1 X114.978 Y37.973 E9.21819
G1 X115.773 Y39.009 E9.23605
G1 X116.339 Y39.990 E9.25155
G1 X116.838 Y41.195 E9.26941
G1 X117.132 Y42.289 E9.28491
G1 X117.302 Y43.584 E9.30277
G1 X117.339 Y44.150 E9.31054
G1 X117.339 Y81.150 E9.81685
G1 X117.302 Y81.716 E9.82461
G1 X117.132 Y83.011 E9.84248
G1 X116.838 Y84.105 E9.85797
G1 X116.339 Y85.310 E9.87584
G1 X115.773 Y86.291 E9.89134
G1 X114.978 Y87.327 E9.90920
G1 X114.177 Y88.128 E9.92470
G1 X113.141 Y88.923 E9.94256
G1 X112.160 Y89.489 E9.95806
G1 X110.955 Y89.988 E9.97592
G1 X109.860 Y90.282 E9.99142
G1 X108.566 Y90.452 E10.00928
G1 X108.000 Y90.489 E10.01705
G1 X62.000 Y90.489 E10.64651
G1 X61.434 Y90.452 E10.65428
G1 X60.139 Y90.282 E10.67214
G1 X59.045 Y89.988 E10.68764
G1 X57.839 Y89.489 E10.70551
G1 X56.859 Y88.923 E10.72100
G1 X55.823 Y88.128 E10.73886
G1 X55.022 Y87.327 E10.75436
G1 X54.227 Y86.291 E10.77223
G1 X53.661 Y85.311 E10.78773
G1 X53.162 Y84.105 E10.80559
G1 X52.868 Y83.010 E10.82109
G1 X52.698 Y81.716 E10.83895
G1 X52.661 Y81.150 E10.84672
G1 X52.661 Y44.150 E11.35302
G1 X52.698 Y43.584 E11.36079
G1 X52.868 Y42.289 E11.37865
G1 X53.162 Y41.196 E11.39415
G1 X53.661 Y39.990 E11.41201
G1 X54.190 Y39.074 E11.42649
G1 X54.582 Y39.280 F7800.000
G4 P29
G1 X55.376 Y38.245 E11.44435 F1800.000
G1 X56.095 Y37.526 E11.45825
G1 X57.130 Y36.732 E11.47612
G1 X57.875 Y36.283 E11.48801
G1 X70.581 Y30.444 E11.67936
G1 X70.971 Y30.281 E11.68515
G1 X71.942 Y30.023 E11.69890
G1 X72.701 Y29.957 E11.70933
G1 X97.299 Y29.957 E12.04592
G1 X97.801 Y29.990 E12.05280
G1 X98.058 Y30.023 E12.05635 F1800.000
G1 X99.030 Y30.281 E12.07011
G1 X99.419 Y30.444 E12.07589
G1 X112.125 Y36.283 E12.26724
G1 X112.870 Y36.732 E12.27913
G1 X113.905 Y37.526 E12.29699
G1 X114.624 Y38.245 E12.31090
G1 X115.418 Y39.280 E12.32876
G1 X115.927 Y40.160 E12.34266
G1 X116.426 Y41.366 E12.36053
G1 X116.689 Y42.348 E12.37443
G1 X116.859 Y43.642 E12.39229
G1 X116.893 Y44.150 E12.39926
G1 X116.893 Y81.150 E12.90557
G1 X116.859 Y81.658 E12.91254
G1 X116.689 Y82.952 E12.93040
G1 X116.426 Y83.934 E12.94430
G1 X115.927 Y85.140 E12.96217
G1 X115.418 Y86.020 E12.97607
G1 X114.624 Y87.055 E12.99393
G1 X113.905 Y87.774 E13.00784
G1 X112.870 Y88.568 E13.02570
G1 X111.990 Y89.077 E13.03960
G1 X110.784 Y89.576 E13.05747
G1 X109.802 Y89.839 E13.07137
G1 X108.508 Y90.009 E13.08923
G1 X108.000 Y90.043 E13.09620
G1 X62.000 Y90.043 E13.72567
G1 X61.492 Y90.009 E13.73263
G1 X60.198 Y89.839 E13.75050
G1 X59.216 Y89.576 E13.76440
G1 X58.010 Y89.076 E13.78226
G1 X57.130 Y88.568 E13.79617
G1 X56.095 Y87.774 E13.81403
G1 X55.376 Y87.055 E13.82794
G1 X54.582 Y86.020 E13.84580
G1 X54.073 Y85.140 E13.85970
G1 X53.574 Y83.934 E13.87756
G1 X53.311 Y82.952 E13.89147
G1 X53.141 Y81.658 E13.90933
G1 X53.107 Y81.150 E13.91630
G1 X53.107 Y44.150 E14.42261
G1 X53.141 Y43.642 E14.42958
G1 X53.311 Y42.348 E14.44744
G1 X53.574 Y41.366 E14.46134
G1 X54.073 Y40.160 E14.47920
G1 X54.544 Y39.345 E14.49208
G1 X54.936 Y39.552 F7800.000
G4 P29
G1 X55.730 Y38.516 E14.50995 F1800.000
G1 X56.366 Y37.880 E14.52226
G1 X57.402 Y37.086 E14.54012
G1 X58.061 Y36.688 E14.55065
G1 X70.767 Y30.850 E14.74200
G1 X71.140 Y30.694 E14.74752
G1 X72.000 Y30.466 E14.75970
G1 X72.701 Y30.404 E14.76934
G1 X97.299 Y30.404 E15.10593
G1 X97.743 Y30.432 E15.11202
G1 X98.000 Y30.466 E15.11557 F1800.000
G1 X98.861 Y30.694 E15.12775
G1 X99.233 Y30.850 E15.13327
G1 X111.939 Y36.688 E15.32462
G1 X112.598 Y37.086 E15.33515
G1 X113.634 Y37.880 E15.35301
G1 X114.270 Y38.516 E15.36532
G1 X115.064 Y39.552 E15.38319
G1 X115.527 Y40.361 E15.39594
G1 X116.014 Y41.537 E15.41335
G1 X116.246 Y42.406 E15.42566
G1 X116.417 Y43.700 E15.44353
G1 X116.446 Y44.150 E15.44970
G1 X116.446 Y81.150 E15.95600
G1 X116.417 Y81.600 E15.96217
G1 X116.246 Y82.894 E15.98004
G1 X116.014 Y83.763 E15.99235
G1 X115.514 Y84.969 E16.01021
G1 X115.064 Y85.748 E16.02252
G1 X114.270 Y86.784 E16.04038
G1 X113.634 Y87.420 E16.05269
G1 X112.598 Y88.214 E16.07055
G1 X111.819 Y88.664 E16.08286
G1 X110.613 Y89.164 E16.10072
G1 X109.744 Y89.396 E16.11304
G1 X108.450 Y89.567 E16.13090
G1 X108.000 Y89.596 E16.13707
G1 X62.000 Y89.596 E16.76653
G1 X61.550 Y89.567 E16.77270
G1 X60.256 Y89.396 E16.79056
G1 X59.387 Y89.164 E16.80287
G1 X58.181 Y88.664 E16.82074
G1 X57.402 Y88.214 E16.83305
G1 X56.366 Y87.420 E16.85091
G1 X55.730 Y86.784 E16.86322
G1 X54.936 Y85.748 E16.88108
G1 X54.486 Y84.969 E16.89339
G1 X53.986 Y83.763 E16.91125
G1 X53.754 Y82.894 E16.92356
G1 X53.583 Y81.600 E16.94143
G1 X53.554 Y81.150 E16.94759
G1 X53.554 Y44.150 E17.45390
G1 X53.583 Y43.700 E17.46007
G1 X53.754 Y42.406 E17.47793
G1 X53.986 Y41.537 E17.49024
G1 X54.486 Y40.331 E17.50810
G1 X54.898 Y39.617 E17.51939
G1 E15.51939 F1920.00000
G92 E0
G1 X91.756 Y76.907 F7800.000
G1 E2.00000 F1920.00000
G1 X105.075 Y76.907 E2.18225 F1800.000
G1 X105.712 Y76.991 E2.19105
G1 X106.376 Y77.266 E2.20088
G1 X106.946 Y77.704 E2.21071
G1 X107.384 Y78.274 E2.22055
G1 X107.659 Y78.938 E2.23038
G1 X107.753 Y79.650 E2.24021
G1 X107.659 Y80.362 E2.25005
G1 X107.384 Y81.026 E2.25988
G1 X106.946 Y81.596 E2.26971
G1 X106.376 Y82.034 E2.27954
G1 X105.712 Y82.309 E2.28938
G1 X105.075 Y82.393 E2.29818
G1 X64.925 Y82.393 E2.84759
G1 X64.288 Y82.309 E2.85639
G1 X63.637 Y82.039 E2.86603
G1 X63.053 Y81.597 E2.87605
G1 X62.611 Y81.013 E2.88607
G1 X62.341 Y80.362 E2.89571
G1 X62.247 Y79.650 E2.90554
G1 X62.341 Y78.938 E2.91537
G1 X62.616 Y78.274 E2.92521
G1 X63.054 Y77.704 E2.93504
G1 X63.624 Y77.266 E2.94487
G1 X64.288 Y76.991 E2.95471
G1 X64.925 Y76.907 E2.96350
G1 X78.244 Y76.907 E3.14575
G1 X78.262 Y76.659 E3.14916
G1 X77.518 Y76.549 E3.15945
G1 X76.329 Y76.249 E3.17623
G1 X75.161 Y75.832 E3.19320
G1 X74.040 Y75.301 E3.21018
G1 X72.975 Y74.663 E3.22716
G1 X71.979 Y73.924 E3.24414
G1 X71.059 Y73.091 E3.26112
G1 X70.226 Y72.171 E3.27810
G1 X69.487 Y71.175 E3.29508
G1 X68.849 Y70.110 E3.31205
G1 X68.318 Y68.987 E3.32905
G1 X67.893 Y67.792 E3.34642
G1 X67.599 Y66.617 E3.36299
G1 X67.417 Y65.389 E3.37997
G1 X67.356 Y64.150 E3.39695
G1 X67.417 Y62.911 E3.41393
G1 X67.599 Y61.682 E3.43093
G1 X67.910 Y60.452 E3.44829
G1 X68.318 Y59.311 E3.46487
G1 X68.849 Y58.190 E3.48185
G1 X69.487 Y57.125 E3.49883
G1 X70.226 Y56.129 E3.51581
G1 X71.059 Y55.209 E3.53279
G1 X71.979 Y54.376 E3.54977
G1 X72.975 Y53.637 E3.56674
G1 X74.040 Y52.999 E3.58372
G1 X75.163 Y52.468 E3.60072
G1 X76.358 Y52.043 E3.61809
G1 X77.533 Y51.749 E3.63466
G1 X78.262 Y51.641 E3.64474
G1 X78.244 Y51.393 E3.64814
G1 X64.925 Y51.393 E3.83039
G1 X64.288 Y51.309 E3.83919
G1 X63.624 Y51.034 E3.84903
G1 X63.051 Y50.594 E3.85891
G1 X62.611 Y50.013 E3.86888
G1 X62.341 Y49.362 E3.87852
G1 X62.247 Y48.650 E3.88835
G1 X62.341 Y47.938 E3.89819
G1 X62.616 Y47.274 E3.90802
G1 X63.056 Y46.701 E3.91790
G1 X63.637 Y46.261 E3.92787
G1 X64.288 Y45.991 E3.93751
G1 X64.925 Y45.907 E3.94631
G1 X105.075 Y45.907 E4.49572
G1 X105.712 Y45.991 E4.50452
G1 X106.376 Y46.266 E4.51435
G1 X106.949 Y46.706 E4.52424
G1 X107.389 Y47.287 E4.53421
G1 X107.659 Y47.938 E4.54385
G1 X107.753 Y48.650 E4.55368
G1 X107.659 Y49.362 E4.56351
G1 X107.384 Y50.026 E4.57335
G1 X106.944 Y50.599 E4.58323
G1 X106.363 Y51.039 E4.59320
G1 X105.712 Y51.309 E4.60284
G1 X105.075 Y51.393 E4.61164
G1 X91.756 Y51.393 E4.79389
G1 X91.738 Y51.641 E4.79729
G1 X92.467 Y51.749 E4.80737
G1 X93.670 Y52.050 E4.82435
G1 X94.839 Y52.468 E4.84133
G1 X95.960 Y52.999 E4.85831
G1 X97.025 Y53.637 E4.87529
G1 X98.021 Y54.376 E4.89227
G1 X98.941 Y55.209 E4.90925
G1 X99.774 Y56.129 E4.92623
G1 X100.513 Y57.125 E4.94321
G1 X101.151 Y58.190 E4.96019
G1 X101.682 Y59.311 E4.97717
G1 X102.099 Y60.479 E4.99414
G1 X102.399 Y61.668 E5.01091
G1 X102.583 Y62.911 E5.02811
G1 X102.644 Y64.150 E5.04509
G1 X102.583 Y65.389 E5.06207
G1 X102.401 Y66.617 E5.07905
G1 X102.100 Y67.820 E5.09603
G1 X101.682 Y68.989 E5.11301
G1 X101.151 Y70.110 E5.12998
G1 X100.513 Y71.175 E5.14696
G1 X99.774 Y72.171 E5.16394
G1 X98.941 Y73.091 E5.18092
G1 X98.021 Y73.924 E5.19790
G1 X97.025 Y74.663 E5.21488
G1 X95.960 Y75.301 E5.23186
G1 X94.839 Y75.832 E5.24884
G1 X93.671 Y76.249 E5.26581
G1 X92.482 Y76.549 E5.28259
G1 X91.738 Y76.659 E5.29288
G1 X91.751 Y76.833 E5.29526
G1 X91.756 Y77.354 F7800.000
G1 X105.046 Y77.354 E5.47711 F1800.000
G1 X105.596 Y77.426 E5.48470
G1 X106.151 Y77.656 E5.49293
G1 X106.628 Y78.022 E5.50115
G1 X106.994 Y78.499 E5.50938
G1 X107.224 Y79.054 E5.51760
G1 X107.302 Y79.650 E5.52583
G1 X107.224 Y80.246 E5.53405
G1 X106.994 Y80.801 E5.54228
G1 X106.628 Y81.278 E5.55050
G1 X106.151 Y81.644 E5.55872
G1 X105.596 Y81.874 E5.56695
G1 X105.046 Y81.946 E5.57454
G1 X64.954 Y81.946 E6.12315
G1 X64.404 Y81.874 E6.13075
G1 X63.861 Y81.649 E6.13880
G1 X63.372 Y81.278 E6.14719
G1 X63.001 Y80.789 E6.15559
G1 X62.776 Y80.246 E6.16364
G1 X62.698 Y79.650 E6.17186
G1 X62.776 Y79.054 E6.18009
G1 X63.006 Y78.499 E6.18831
G1 X63.372 Y78.022 E6.19654
G1 X63.849 Y77.656 E6.20476
G1 X64.404 Y77.426 E6.21299
G1 X64.954 Y77.354 E6.22058
G1 X91.681 Y77.354 E6.58631 F1800.000
G1 X91.756 Y77.800 F7800.000
G1 X105.016 Y77.800 E6.76776 F1800.000
G1 X105.479 Y77.861 E6.77415
G1 X105.926 Y78.046 E6.78077
G1 X106.310 Y78.340 E6.78739
G1 X106.604 Y78.724 E6.79400
G1 X106.789 Y79.171 E6.80062
G1 X106.852 Y79.650 E6.80724
G1 X106.789 Y80.129 E6.81385
G1 X106.604 Y80.576 E6.82047
G1 X106.310 Y80.960 E6.82709
G1 X105.926 Y81.254 E6.83370
G1 X105.479 Y81.439 E6.84032
G1 X105.016 Y81.500 E6.84671
G1 X64.984 Y81.500 E7.39452
G1 X64.521 Y81.439 E7.40091
G1 X64.084 Y81.258 E7.40737
G1 X63.690 Y80.960 E7.41414
G1 X63.392 Y80.566 E7.42090
G1 X63.211 Y80.129 E7.42736
G1 X63.148 Y79.650 E7.43398
G1 X63.211 Y79.171 E7.44060
G1 X63.396 Y78.724 E7.44721
G1 X63.690 Y78.340 E7.45383
G1 X64.074 Y78.046 E7.46045
G1 X64.521 Y77.861 E7.46706
G1 X64.984 Y77.800 E7.47345
G1 X91.681 Y77.800 E7.83879 F1800.000
G1 X92.006 Y77.367 F7800.000
G1 X91.525 Y76.240 F7800.000
G1 X91.196 Y76.288 E7.84334 F1800.000
G1 X90.017 Y76.346 E7.85949
G1 X79.983 Y76.346 E7.99680
G1 X78.804 Y76.288 E8.01294
G1 X77.605 Y76.111 E8.02953
G1 X76.459 Y75.822 E8.04571
G1 X75.332 Y75.419 E8.06208
G1 X74.250 Y74.907 E8.07846
G1 X73.224 Y74.292 E8.09484
G1 X72.262 Y73.579 E8.11122
G1 X71.375 Y72.775 E8.12760
G1 X70.571 Y71.888 E8.14398
G1 X69.858 Y70.926 E8.16036
G1 X69.243 Y69.900 E8.17674
G1 X68.731 Y68.817 E8.19313
G1 X68.321 Y67.662 E8.20989
G1 X68.037 Y66.530 E8.22588
G1 X67.862 Y65.346 E8.24226
G1 X67.803 Y64.150 E8.25863
G1 X67.862 Y62.954 E8.27501
G1 X68.037 Y61.770 E8.29140
G1 X68.338 Y60.582 E8.30817
G1 X68.731 Y59.482 E8.32415
G1 X69.243 Y58.400 E8.34053
G1 X69.858 Y57.374 E8.35691
G1 X70.571 Y56.412 E8.37329
G1 X71.375 Y55.525 E8.38967
G1 X72.262 Y54.721 E8.40605
G1 X73.224 Y54.008 E8.42243
G1 X74.250 Y53.393 E8.43881
G1 X75.333 Y52.881 E8.45520
G1 X76.488 Y52.471 E8.47196
G1 X77.620 Y52.187 E8.48794
G1 X78.804 Y52.012 E8.50432
G1 X79.983 Y51.954 E8.52047
G1 X90.017 Y51.954 E8.65778 F1800.000
G1 X91.196 Y52.012 E8.67392
G1 X92.380 Y52.187 E8.69030
G1 X93.541 Y52.478 E8.70668
G1 X94.668 Y52.881 E8.72306
G1 X95.750 Y53.393 E8.73944
G1 X96.776 Y54.008 E8.75582
G1 X97.738 Y54.721 E8.77220
G1 X98.625 Y55.525 E8.78858
G1 X99.429 Y56.412 E8.80496
G1 X100.142 Y57.374 E8.82134
G1 X100.757 Y58.400 E8.83772
G1 X101.269 Y59.482 E8.85410
G1 X101.672 Y60.609 E8.87047
G1 X101.961 Y61.755 E8.88665
G1 X102.138 Y62.954 E8.90323
G1 X102.197 Y64.150 E8.91961
G1 X102.138 Y65.346 E8.93599
G1 X101.963 Y66.530 E8.95237
G1 X101.672 Y67.691 E8.96875
G1 X101.269 Y68.818 E8.98513
G1 X100.757 Y69.900 E9.00151
G1 X100.142 Y70.926 E9.01789
G1 X99.429 Y71.888 E9.03427
G1 X98.625 Y72.775 E9.05065
G1 X97.738 Y73.579 E9.06703
G1 X96.776 Y74.292 E9.08341
