; generated by Slic3r 1.2.9 on 2016-02-23 at 23:01:45

; external perimeters extrusion width = 0.50mm
; perimeters extrusion width = 0.50mm
; infill extrusion width = 0.50mm
; solid infill extrusion width = 0.50mm
; top infill extrusion width = 0.50mm

M107
M190 S70 ; set bed temperature
M104 S220 ; set temperature
G28 ; home all axes
M109 S220 ; wait for temperature to be reached
G21 ; set units to millimeters
G90 ; use absolute coordinates
M82 ; use absolute distances for extrusion
G92 E0
G1 Z0.350 F7800.000
G1 E-2.00000 F1920.00000
G92 E0
G1 X45.109 Y53.340 F7800.000
G1 E2.00000 F1920.00000
M204 S3000
G1 X66.184 Y36.524 E2.36895 F1800.000
G1 X67.297 Y35.669 E2.38815
G1 X67.785 Y35.337 E2.39624
G1 X77.491 Y29.498 E2.55123
G1 X78.205 Y29.140 E2.56217
G1 X78.445 Y29.041 E2.56572
G1 X79.751 Y28.695 E2.58420
G1 X80.683 Y28.618 E2.59700
G1 X105.280 Y28.618 E2.93359
G1 X105.955 Y28.662 E2.94285
G1 X106.212 Y28.695 E2.94639 F1800.000
G1 X107.347 Y28.975 E2.96239
G1 X122.086 Y34.412 E3.17736
G1 X123.484 Y34.986 E3.19804
G1 X124.667 Y35.669 E3.21673
G1 X125.702 Y36.464 E3.23459
G1 X126.668 Y37.430 E3.25328
G1 X127.463 Y38.465 E3.27114
G1 X128.145 Y39.648 E3.28983
G1 X128.645 Y40.854 E3.30769
G1 X128.998 Y42.173 E3.32638
G1 X129.169 Y43.467 E3.34424
G1 X129.213 Y44.150 E3.35360
G1 X129.213 Y81.150 E3.85991
G1 X129.169 Y81.833 E3.86928
G1 X128.998 Y83.127 E3.88714
G1 X128.645 Y84.446 E3.90583
G1 X128.145 Y85.652 E3.92369
G1 X127.462 Y86.835 E3.94238
G1 X126.668 Y87.870 E3.96024
G1 X125.702 Y88.836 E3.97893
G1 X124.667 Y89.631 E3.99679
G1 X123.484 Y90.314 E4.01548
G1 X122.278 Y90.813 E4.03334
G1 X120.959 Y91.167 E4.05203
G1 X119.665 Y91.337 E4.06989
G1 X118.982 Y91.382 E4.07925
G1 X72.982 Y91.382 E4.70872
G1 X72.299 Y91.337 E4.71808
G1 X71.005 Y91.167 E4.73595
G1 X69.686 Y90.813 E4.75464
G1 X68.480 Y90.314 E4.77250
G1 X67.297 Y89.631 E4.79119
G1 X66.261 Y88.836 E4.80905
G1 X45.109 Y72.174 E5.17751
G1 X44.696 Y71.802 E5.18513
G1 X44.169 Y71.275 E5.19532
G1 X43.829 Y70.900 E5.20225
G1 X43.328 Y70.282 E5.21313
G1 X43.025 Y69.869 E5.22014
G1 X42.595 Y69.207 E5.23094
G1 X42.335 Y68.758 E5.23804
G1 X41.979 Y68.061 E5.24875
G1 X41.754 Y67.553 E5.25636
G1 X41.486 Y66.858 E5.26655
G1 X41.321 Y66.351 E5.27384
G1 X41.122 Y65.609 E5.28436
G1 X41.010 Y65.083 E5.29172
G1 X40.890 Y64.329 E5.30217
G1 X40.833 Y63.787 E5.30962
G1 X40.794 Y63.031 E5.31998
G1 X40.794 Y62.484 E5.32747
G1 X40.833 Y61.740 E5.33767
G1 X40.890 Y61.186 E5.34528
G1 X41.010 Y60.432 E5.35573
G1 X41.122 Y59.906 E5.36309
G1 X41.321 Y59.163 E5.37362
G1 X41.486 Y58.657 E5.38089
G1 X41.765 Y57.933 E5.39151
G1 X41.979 Y57.453 E5.39870
G1 X42.334 Y56.757 E5.40940
G1 X42.595 Y56.308 E5.41651
G1 X43.001 Y55.683 E5.42671
G1 X43.328 Y55.232 E5.43432
G1 X43.828 Y54.615 E5.44520
G1 X44.169 Y54.240 E5.45213
G1 X44.736 Y53.673 E5.46310
G1 X45.053 Y53.390 E5.46891
G1 X45.390 Y53.687 F7800.000
G4 P29
G1 X66.462 Y36.873 E5.83781 F1800.000
G1 X67.569 Y36.023 E5.85690
G1 X68.015 Y35.719 E5.86430
G1 X77.721 Y29.881 E6.01929
G1 X78.374 Y29.553 E6.02930
G1 X78.614 Y29.455 E6.03284
G1 X79.809 Y29.138 E6.04975
G1 X80.683 Y29.065 E6.06176
G1 X105.280 Y29.065 E6.39835
G1 X105.898 Y29.105 E6.40682
G1 X106.155 Y29.138 E6.41036 F1800.000
G1 X107.193 Y29.394 E6.42499
G1 X121.932 Y34.831 E6.63997
G1 X123.313 Y35.399 E6.66040
G1 X124.395 Y36.023 E6.67749
G1 X125.430 Y36.818 E6.69536
G1 X126.314 Y37.701 E6.71245
G1 X127.108 Y38.737 E6.73031
G1 X127.733 Y39.819 E6.74741
G1 X128.232 Y41.025 E6.76527
G1 X128.556 Y42.231 E6.78236
G1 X128.726 Y43.525 E6.80022
G1 X128.767 Y44.150 E6.80879
G1 X128.767 Y81.150 E7.31510
G1 X128.726 Y81.775 E7.32366
G1 X128.556 Y83.069 E7.34153
G1 X128.233 Y84.275 E7.35862
G1 X127.733 Y85.481 E7.37648
G1 X127.108 Y86.563 E7.39358
G1 X126.314 Y87.599 E7.41144
G1 X125.430 Y88.482 E7.42853
G1 X124.395 Y89.277 E7.44639
G1 X123.313 Y89.901 E7.46349
G1 X122.107 Y90.401 E7.48135
G1 X120.900 Y90.724 E7.49844
G1 X119.606 Y90.894 E7.51631
G1 X118.982 Y90.935 E7.52487
G1 X72.982 Y90.935 E8.15434
G1 X72.357 Y90.894 E8.16290
G1 X71.063 Y90.724 E8.18077
G1 X69.856 Y90.401 E8.19786
G1 X68.650 Y89.901 E8.21572
G1 X67.569 Y89.277 E8.23281
G1 X66.533 Y88.482 E8.25068
G1 X45.390 Y71.828 E8.61898
G1 X45.011 Y71.486 E8.62595
G1 X44.484 Y70.959 E8.63615
G1 X44.173 Y70.617 E8.64248
G1 X43.675 Y70.001 E8.65332
G1 X43.398 Y69.623 E8.65973
G1 X42.970 Y68.964 E8.67049
G1 X42.731 Y68.553 E8.67699
G1 X42.377 Y67.859 E8.68766
G1 X42.170 Y67.393 E8.69463
G1 X41.903 Y66.698 E8.70483
G1 X41.752 Y66.235 E8.71149
G1 X41.553 Y65.493 E8.72199
G1 X41.451 Y65.012 E8.72872
G1 X41.331 Y64.259 E8.73916
G1 X41.279 Y63.764 E8.74597
G1 X41.239 Y63.008 E8.75633
G1 X41.239 Y62.507 E8.76319
G1 X41.278 Y61.763 E8.77338
G1 X41.331 Y61.256 E8.78035
G1 X41.451 Y60.502 E8.79080
G1 X41.553 Y60.022 E8.79752
G1 X41.752 Y59.280 E8.80803
G1 X41.903 Y58.817 E8.81469
G1 X42.181 Y58.095 E8.82528
G1 X42.377 Y57.656 E8.83186
G1 X42.731 Y56.962 E8.84253
G1 X42.970 Y56.551 E8.84903
G1 X43.376 Y55.926 E8.85922
G1 X43.675 Y55.513 E8.86620
G1 X44.173 Y54.898 E8.87703
G1 X44.484 Y54.555 E8.88337
G1 X45.049 Y53.991 E8.89428
G1 X45.334 Y53.737 E8.89951
G1 X45.670 Y54.034 F7800.000
G4 P29
G1 X66.741 Y37.222 E9.26837 F1800.000
G1 X67.840 Y36.377 E9.28734
G1 X68.245 Y36.102 E9.29405
G1 X77.951 Y30.263 E9.44904
G1 X78.544 Y29.966 E9.45811
G1 X78.783 Y29.868 E9.46166
G1 X79.866 Y29.581 E9.47699
G1 X80.683 Y29.511 E9.48821
G1 X105.280 Y29.511 E9.82480
G1 X105.840 Y29.547 E9.83247
G1 X106.097 Y29.581 E9.83602 F1800.000
G1 X107.038 Y29.812 E9.84928
G1 X121.778 Y35.249 E10.06426
G1 X123.142 Y35.811 E10.08445
G1 X124.123 Y36.377 E10.09995
G1 X125.159 Y37.172 E10.11782
G1 X125.960 Y37.973 E10.13331
G1 X126.734 Y38.983 E10.15073
G1 X127.321 Y39.989 E10.16667
G1 X127.820 Y41.195 E10.18453
G1 X128.113 Y42.290 E10.20003
G1 X128.284 Y43.584 E10.21790
G1 X128.321 Y44.150 E10.22566
G1 X128.321 Y81.150 E10.73197
G1 X128.284 Y81.716 E10.73974
G1 X128.113 Y83.010 E10.75760
G1 X127.820 Y84.105 E10.77310
G1 X127.321 Y85.311 E10.79096
G1 X126.754 Y86.291 E10.80646
G1 X125.960 Y87.327 E10.82432
G1 X125.159 Y88.128 E10.83982
G1 X124.149 Y88.903 E10.85724
G1 X123.142 Y89.489 E10.87318
G1 X121.936 Y89.988 E10.89104
G1 X120.842 Y90.282 E10.90654
G1 X119.548 Y90.452 E10.92440
G1 X118.982 Y90.489 E10.93217
G1 X72.982 Y90.489 E11.56164
G1 X72.415 Y90.452 E11.56940
G1 X71.121 Y90.282 E11.58726
G1 X70.027 Y89.988 E11.60276
G1 X68.821 Y89.489 E11.62062
G1 X67.840 Y88.923 E11.63613
G1 X66.805 Y88.128 E11.65399
G1 X46.249 Y71.950 E12.01194
G1 X45.670 Y71.481 E12.02213
G1 X45.361 Y71.204 E12.02781
G1 X44.800 Y70.644 E12.03866
G1 X44.491 Y70.300 E12.04500
G1 X44.022 Y69.721 E12.05519
G1 X43.766 Y69.370 E12.06113
G1 X43.344 Y68.721 E12.07172
G1 X43.128 Y68.349 E12.07762
G1 X42.775 Y67.656 E12.08825
G1 X42.597 Y67.258 E12.09422
G1 X42.320 Y66.538 E12.10478
G1 X42.183 Y66.118 E12.11082
G1 X41.984 Y65.378 E12.12131
G1 X41.891 Y64.942 E12.12741
G1 X41.772 Y64.189 E12.13784
G1 X41.724 Y63.729 E12.14417
G1 X41.685 Y62.984 E12.15437
G1 X41.685 Y62.530 E12.16058
G1 X41.725 Y61.775 E12.17094
G1 X41.772 Y61.326 E12.17711
G1 X41.891 Y60.573 E12.18754
G1 X41.984 Y60.137 E12.19364
G1 X42.183 Y59.397 E12.20413
G1 X42.320 Y58.977 E12.21017
G1 X42.597 Y58.256 E12.22074
G1 X42.775 Y57.859 E12.22670
G1 X43.128 Y57.166 E12.23733
G1 X43.344 Y56.794 E12.24323
G1 X43.750 Y56.169 E12.25343
G1 X44.022 Y55.794 E12.25976
G1 X44.518 Y55.182 E12.27054
G1 X44.800 Y54.871 E12.27629
G1 X45.361 Y54.310 E12.28715
G1 X45.614 Y54.084 E12.29179
G1 X45.951 Y54.381 F7800.000
G4 P29
G1 X67.019 Y37.571 E12.66061 F1800.000
G1 X68.112 Y36.732 E12.67947
G1 X68.475 Y36.484 E12.68548
G1 X78.181 Y30.646 E12.84048
G1 X78.713 Y30.379 E12.84861
G1 X78.952 Y30.281 E12.85216
G1 X79.924 Y30.023 E12.86591
G1 X80.683 Y29.957 E12.87634
G1 X105.280 Y29.957 E13.21293
G1 X105.783 Y29.990 E13.21982
G1 X106.039 Y30.023 E13.22336 F1800.000
G1 X106.884 Y30.231 E13.23526
G1 X121.623 Y35.668 E13.45024
G1 X122.971 Y36.223 E13.47019
G1 X123.851 Y36.732 E13.48410
G1 X124.887 Y37.526 E13.50196
G1 X125.606 Y38.245 E13.51586
G1 X126.400 Y39.280 E13.53373
G1 X126.908 Y40.160 E13.54763
G1 X127.408 Y41.366 E13.56549
G1 X127.671 Y42.348 E13.57940
G1 X127.841 Y43.642 E13.59726
G1 X127.874 Y44.150 E13.60423
G1 X127.874 Y81.150 E14.11054
G1 X127.841 Y81.658 E14.11750
G1 X127.671 Y82.952 E14.13536
G1 X127.408 Y83.934 E14.14927
G1 X126.908 Y85.140 E14.16713
G1 X126.400 Y86.020 E14.18104
G1 X125.606 Y87.055 E14.19890
G1 X124.887 Y87.774 E14.21280
G1 X123.877 Y88.549 E14.23022
G1 X122.971 Y89.077 E14.24457
G1 X121.766 Y89.576 E14.26243
G1 X120.784 Y89.839 E14.27633
G1 X119.490 Y90.009 E14.29420
G1 X118.982 Y90.043 E14.30116
G1 X72.982 Y90.043 E14.93063
G1 X72.474 Y90.009 E14.93760
G1 X71.179 Y89.839 E14.95546
G1 X70.198 Y89.576 E14.96936
G1 X68.992 Y89.077 E14.98723
G1 X68.112 Y88.568 E15.00113
G1 X67.039 Y87.744 E15.01965
G1 X46.530 Y71.603 E15.37678
G1 X45.674 Y70.886 E15.39207
G1 X45.116 Y70.328 E15.40287
G1 X44.837 Y70.019 E15.40856
G1 X44.143 Y69.132 E15.42397
G1 X43.718 Y68.478 E15.43464
G1 X43.524 Y68.144 E15.43993
G1 X43.172 Y67.454 E15.45053
G1 X43.013 Y67.096 E15.45589
G1 X42.737 Y66.378 E15.46642
G1 X42.614 Y66.001 E15.47184
G1 X42.416 Y65.262 E15.48231
G1 X42.332 Y64.871 E15.48778
G1 X42.213 Y64.119 E15.49820
G1 X42.170 Y63.705 E15.50390
G1 X42.131 Y62.961 E15.51409
G1 X42.131 Y62.554 E15.51967
G1 X42.170 Y61.798 E15.53002
G1 X42.213 Y61.396 E15.53556
G1 X42.332 Y60.644 E15.54598
G1 X42.416 Y60.253 E15.55145
G1 X42.614 Y59.513 E15.56192
G1 X42.737 Y59.137 E15.56734
G1 X43.013 Y58.418 E15.57788
G1 X43.172 Y58.061 E15.58323
G1 X43.524 Y57.371 E15.59383
G1 X43.718 Y57.037 E15.59912
G1 X44.124 Y56.412 E15.60931
G1 X44.368 Y56.075 E15.61501
G1 X44.862 Y55.466 E15.62574
G1 X45.116 Y55.187 E15.63090
G1 X45.895 Y54.431 E15.64576
G1 X46.232 Y54.728 F7800.000
G4 P29
G1 X67.297 Y37.920 E16.01453 F1800.000
G1 X68.384 Y37.086 E16.03327
G1 X68.705 Y36.867 E16.03860
G1 X78.411 Y31.028 E16.19359
G1 X78.882 Y30.792 E16.20080
G1 X79.122 Y30.694 E16.20434
G1 X79.982 Y30.466 E16.21652
G1 X80.683 Y30.404 E16.22615
G1 X105.280 Y30.404 E16.56274
G1 X105.725 Y30.432 E16.56884
G1 X105.982 Y30.466 E16.57238 F1800.000
G1 X106.729 Y30.650 E16.58292
G1 X121.469 Y36.087 E16.79789
G1 X122.801 Y36.636 E16.81761
G1 X123.580 Y37.086 E16.82992
G1 X124.615 Y37.880 E16.84778
G1 X125.251 Y38.516 E16.86009
G1 X126.046 Y39.552 E16.87796
G1 X126.496 Y40.331 E16.89026
G1 X126.995 Y41.537 E16.90813
G1 X127.228 Y42.406 E16.92044
G1 X127.399 Y43.700 E16.93830
G1 X127.428 Y44.150 E16.94447
G1 X127.428 Y81.150 E17.45078
G1 X127.399 Y81.600 E17.45695
G1 X127.228 Y82.894 E17.47481
G1 X126.995 Y83.763 E17.48712
G1 X126.496 Y84.969 E17.50498
G1 X126.046 Y85.748 E17.51729
G1 X125.251 Y86.784 E17.53515
G1 X124.615 Y87.420 E17.54746
G1 X123.606 Y88.194 E17.56488
G1 X122.801 Y88.664 E17.57763
G1 X121.595 Y89.164 E17.59549
G1 X120.726 Y89.396 E17.60780
G1 X119.432 Y89.567 E17.62567
G1 X118.982 Y89.596 E17.63184
G1 X72.982 Y89.596 E18.26130
G1 X72.532 Y89.567 E18.26747
G1 X71.238 Y89.396 E18.28533
G1 X70.369 Y89.164 E18.29764
G1 X69.163 Y88.664 E18.31550
G1 X68.384 Y88.214 E18.32781
G1 X67.315 Y87.394 E18.34626
G1 X46.811 Y71.256 E18.70331
G1 X45.986 Y70.567 E18.71801
G1 X45.431 Y70.013 E18.72875
G1 X45.184 Y69.738 E18.73381
G1 X44.516 Y68.886 E18.74862
G1 X43.921 Y67.939 E18.76393
G1 X43.429 Y66.935 E18.77923
G1 X43.044 Y65.884 E18.79454
G1 X42.847 Y65.147 E18.80499
G1 X42.773 Y64.800 E18.80983
G1 X42.654 Y64.049 E18.82024
G1 X42.616 Y63.682 E18.82529
G1 X42.577 Y62.938 E18.83549
G1 X42.577 Y62.577 E18.84043
G1 X42.616 Y61.822 E18.85077
G1 X42.654 Y61.466 E18.85568
G1 X42.773 Y60.715 E18.86608
G1 X43.045 Y59.630 E18.88138
G1 X43.429 Y58.580 E18.89668
G1 X43.921 Y57.576 E18.91198
G1 X44.499 Y56.655 E18.92686
G1 X44.715 Y56.356 E18.93191
G1 X45.207 Y55.749 E18.94260
G1 X45.431 Y55.502 E18.94716
G1 X46.176 Y54.778 E18.96138
G1 E16.96138 F1920.00000
G92 E0
G1 X102.738 Y76.907 F7800.000
G1 E2.00000 F1920.00000
G1 X116.057 Y76.907 E2.18225 F1800.000
G1 X116.694 Y76.991 E2.19105
G1 X117.358 Y77.266 E2.20088
G1 X117.928 Y77.704 E2.21071
G1 X118.366 Y78.274 E2.22055
G1 X118.635 Y78.925 E2.23019
G1 X118.735 Y79.646 E2.24016
G1 X118.641 Y80.362 E2.25004
G1 X118.366 Y81.026 E2.25987
G1 X117.928 Y81.596 E2.26971
G1 X117.358 Y82.034 E2.27954
G1 X116.694 Y82.309 E2.28937
G1 X116.057 Y82.393 E2.29817
G1 X75.907 Y82.393 E2.84758
G1 X75.269 Y82.309 E2.85638
G1 X74.605 Y82.034 E2.86621
G1 X74.032 Y81.594 E2.87610
G1 X73.593 Y81.013 E2.88607
G1 X73.323 Y80.362 E2.89571
G1 X73.229 Y79.646 E2.90559
G1 X73.328 Y78.925 E2.91556
G1 X73.598 Y78.274 E2.92520
G1 X74.035 Y77.704 E2.93504
G1 X74.605 Y77.266 E2.94487
G1 X75.269 Y76.991 E2.95470
G1 X75.907 Y76.907 E2.96350
G1 X89.225 Y76.907 E3.14575
G1 X89.244 Y76.659 E3.14915
G1 X88.500 Y76.549 E3.15945
G1 X87.311 Y76.249 E3.17622
G1 X86.143 Y75.832 E3.19319
G1 X85.021 Y75.301 E3.21017
G1 X83.957 Y74.663 E3.22715
G1 X82.960 Y73.924 E3.24413
G1 X82.041 Y73.091 E3.26111
G1 X81.208 Y72.171 E3.27809
G1 X80.469 Y71.175 E3.29507
G1 X79.831 Y70.110 E3.31205
G1 X79.300 Y68.987 E3.32905
G1 X78.875 Y67.792 E3.34641
G1 X78.581 Y66.617 E3.36299
G1 X78.399 Y65.389 E3.37997
G1 X78.338 Y64.150 E3.39695
G1 X78.399 Y62.911 E3.41393
G1 X78.581 Y61.683 E3.43091
G1 X78.882 Y60.480 E3.44788
G1 X79.300 Y59.311 E3.46486
G1 X79.831 Y58.190 E3.48184
G1 X80.469 Y57.125 E3.49882
G1 X81.208 Y56.129 E3.51580
G1 X82.041 Y55.209 E3.53278
G1 X82.960 Y54.376 E3.54976
G1 X83.957 Y53.637 E3.56674
G1 X85.021 Y52.999 E3.58372
G1 X86.144 Y52.468 E3.60072
G1 X87.340 Y52.043 E3.61808
G1 X88.515 Y51.749 E3.63466
G1 X89.244 Y51.641 E3.64474
G1 X89.225 Y51.393 E3.64814
G1 X75.903 Y51.393 E3.83044
G1 X75.256 Y51.303 E3.83938
G1 X74.605 Y51.034 E3.84902
G1 X74.032 Y50.594 E3.85890
G1 X73.593 Y50.013 E3.86887
G1 X73.323 Y49.362 E3.87851
G1 X73.229 Y48.650 E3.88834
G1 X73.323 Y47.938 E3.89818
G1 X73.598 Y47.274 E3.90801
G1 X74.038 Y46.701 E3.91789
G1 X74.618 Y46.261 E3.92786
G1 X75.269 Y45.991 E3.93750
G1 X75.907 Y45.907 E3.94630
G1 X116.057 Y45.907 E4.49571
G1 X116.694 Y45.991 E4.50451
G1 X117.358 Y46.266 E4.51435
G1 X117.931 Y46.706 E4.52423
G1 X118.371 Y47.287 E4.53420
G1 X118.641 Y47.938 E4.54384
G1 X118.734 Y48.650 E4.55367
G1 X118.641 Y49.362 E4.56350
G1 X118.366 Y50.026 E4.57334
G1 X117.928 Y50.596 E4.58317
G1 X117.358 Y51.034 E4.59300
G1 X116.694 Y51.309 E4.60284
G1 X116.057 Y51.393 E4.61164
G1 X102.738 Y51.393 E4.79388
G1 X102.720 Y51.641 E4.79729
G1 X103.450 Y51.749 E4.80739
G1 X104.680 Y52.060 E4.82475
G1 X105.820 Y52.468 E4.84133
G1 X106.942 Y52.999 E4.85830
G1 X108.006 Y53.637 E4.87528
G1 X109.003 Y54.376 E4.89226
G1 X109.922 Y55.209 E4.90924
G1 X110.756 Y56.129 E4.92622
G1 X111.495 Y57.125 E4.94320
G1 X112.133 Y58.190 E4.96018
G1 X112.663 Y59.311 E4.97716
G1 X113.081 Y60.479 E4.99413
G1 X113.381 Y61.668 E5.01091
G1 X113.565 Y62.911 E5.02810
G1 X113.626 Y64.150 E5.04508
G1 X113.565 Y65.389 E5.06206
G1 X113.383 Y66.617 E5.07904
G1 X113.081 Y67.820 E5.09602
G1 X112.663 Y68.989 E5.11300
G1 X112.133 Y70.110 E5.12998
G1 X111.495 Y71.175 E5.14696
G1 X110.756 Y72.171 E5.16394
G1 X109.922 Y73.091 E5.18092
G1 X109.003 Y73.924 E5.19790
G1 X108.006 Y74.663 E5.21488
G1 X106.942 Y75.301 E5.23186
G1 X105.820 Y75.832 E5.24884
G1 X104.653 Y76.249 E5.26581
G1 X103.464 Y76.549 E5.28258
G1 X102.720 Y76.659 E5.29288
G1 X102.733 Y76.833 E5.29525
G1 X102.738 Y77.354 F7800.000
G1 X116.027 Y77.354 E5.47710 F1800.000
G1 X116.578 Y77.426 E5.48470
G1 X117.133 Y77.656 E5.49292
G1 X117.610 Y78.022 E5.50115
G1 X117.976 Y78.499 E5.50937
G1 X118.201 Y79.042 E5.51742
G1 X118.284 Y79.648 E5.52578
G1 X118.206 Y80.246 E5.53404
G1 X117.976 Y80.801 E5.54226
G1 X117.610 Y81.278 E5.55049
G1 X117.133 Y81.644 E5.55871
G1 X116.578 Y81.874 E5.56694
G1 X116.027 Y81.946 E5.57453
G1 X75.936 Y81.946 E6.12314
G1 X75.386 Y81.874 E6.13074
G1 X74.831 Y81.644 E6.13896
G1 X74.352 Y81.277 E6.14722
G1 X73.983 Y80.789 E6.15558
G1 X73.758 Y80.246 E6.16363
G1 X73.679 Y79.648 E6.17189
G1 X73.763 Y79.042 E6.18025
G1 X73.988 Y78.499 E6.18830
