; generated by Slic3r 1.2.9 on 2016-02-17 at 22:37:13

; external perimeters extrusion width = 0.50mm
; perimeters extrusion width = 0.50mm
; infill extrusion width = 0.50mm
; solid infill extrusion width = 0.50mm
; top infill extrusion width = 0.50mm

M107
M190 S70 ; set bed temperature
M104 S220 ; set temperature
G28 ; home all axes
M109 S220 ; wait for temperature to be reached
G21 ; set units to millimeters
G90 ; use absolute coordinates
M82 ; use absolute distances for extrusion
G92 E0
G1 Z0.350 F7800.000
G1 E-2.00000 F1920.00000
G92 E0
G1 X53.519 Y38.465 F7800.000
G1 E2.00000 F1920.00000
M204 S3000
G1 X54.314 Y37.430 E2.01786 F1800.000
G1 X55.280 Y36.464 E2.03655
G1 X56.315 Y35.669 E2.05441
G1 X56.803 Y35.337 E2.06249
G1 X66.509 Y29.498 E2.21749
G1 X67.224 Y29.140 E2.22843
G1 X67.464 Y29.041 E2.23197
G1 X68.769 Y28.695 E2.25046
G1 X69.701 Y28.618 E2.26326
G1 X94.299 Y28.618 E2.59985
G1 X94.974 Y28.662 E2.60910
G1 X95.231 Y28.695 E2.61265 F1800.000
G1 X96.365 Y28.975 E2.62864
G1 X111.105 Y34.412 E2.84362
G1 X112.502 Y34.986 E2.86429
G1 X113.685 Y35.669 E2.88298
G1 X114.720 Y36.464 E2.90085
G1 X115.686 Y37.430 E2.91953
G1 X116.481 Y38.465 E2.93740
G1 X117.164 Y39.648 E2.95608
G1 X117.663 Y40.854 E2.97395
G1 X118.017 Y42.173 E2.99263
G1 X118.187 Y43.467 E3.01050
G1 X118.232 Y44.150 E3.01986
G1 X118.232 Y81.150 E3.52617
G1 X118.187 Y81.833 E3.53554
G1 X118.017 Y83.127 E3.55340
G1 X117.663 Y84.446 E3.57208
G1 X117.164 Y85.652 E3.58995
G1 X116.481 Y86.835 E3.60864
G1 X115.686 Y87.870 E3.62650
G1 X114.720 Y88.836 E3.64519
G1 X113.685 Y89.631 E3.66305
G1 X112.502 Y90.314 E3.68174
G1 X111.296 Y90.813 E3.69960
G1 X109.977 Y91.167 E3.71829
G1 X108.683 Y91.337 E3.73615
G1 X108.000 Y91.382 E3.74551
G1 X62.000 Y91.382 E4.37498
G1 X61.317 Y91.337 E4.38434
G1 X60.023 Y91.167 E4.40221
G1 X58.704 Y90.813 E4.42089
G1 X57.498 Y90.314 E4.43876
G1 X56.315 Y89.631 E4.45744
G1 X55.280 Y88.836 E4.47531
G1 X54.314 Y87.870 E4.49399
G1 X53.519 Y86.835 E4.51186
G1 X52.836 Y85.652 E4.53054
G1 X52.337 Y84.446 E4.54841
G1 X51.983 Y83.127 E4.56709
G1 X51.813 Y81.833 E4.58496
G1 X51.768 Y81.150 E4.59432
G1 X51.768 Y44.150 E5.10063
G1 X51.813 Y43.467 E5.10999
G1 X51.983 Y42.173 E5.12786
G1 X52.337 Y40.854 E5.14654
G1 X52.836 Y39.648 E5.16441
G1 X53.482 Y38.530 E5.18207
G1 X53.873 Y38.737 F7800.000
G4 P29
G1 X54.668 Y37.701 E5.19993 F1800.000
G1 X55.551 Y36.818 E5.21702
G1 X56.587 Y36.023 E5.23489
G1 X57.033 Y35.719 E5.24228
G1 X66.739 Y29.881 E5.39727
G1 X67.393 Y29.553 E5.40728
G1 X67.633 Y29.455 E5.41083
G1 X68.827 Y29.138 E5.42773
G1 X69.701 Y29.065 E5.43974
G1 X94.299 Y29.065 E5.77633
G1 X94.916 Y29.105 E5.78480
G1 X95.173 Y29.138 E5.78834 F1800.000
G1 X96.211 Y29.394 E5.80297
G1 X110.950 Y34.831 E6.01795
G1 X112.331 Y35.399 E6.03838
G1 X113.413 Y36.023 E6.05548
G1 X114.449 Y36.818 E6.07334
G1 X115.332 Y37.701 E6.09043
G1 X116.127 Y38.737 E6.10830
G1 X116.764 Y39.849 E6.12583
G1 X117.251 Y41.025 E6.14325
G1 X117.574 Y42.231 E6.16034
G1 X117.744 Y43.525 E6.17820
G1 X117.785 Y44.150 E6.18677
G1 X117.785 Y81.150 E6.69308
G1 X117.744 Y81.775 E6.70164
G1 X117.574 Y83.069 E6.71951
G1 X117.251 Y84.275 E6.73660
G1 X116.751 Y85.481 E6.75446
G1 X116.127 Y86.563 E6.77156
G1 X115.332 Y87.599 E6.78942
G1 X114.449 Y88.482 E6.80651
G1 X113.413 Y89.277 E6.82437
G1 X112.331 Y89.901 E6.84147
G1 X111.125 Y90.401 E6.85933
G1 X109.919 Y90.724 E6.87642
G1 X108.625 Y90.894 E6.89428
G1 X108.000 Y90.935 E6.90285
G1 X62.000 Y90.935 E7.53232
G1 X61.375 Y90.894 E7.54088
G1 X60.081 Y90.724 E7.55874
G1 X58.875 Y90.401 E7.57584
G1 X57.669 Y89.901 E7.59370
G1 X56.587 Y89.277 E7.61079
G1 X55.551 Y88.482 E7.62865
G1 X54.668 Y87.599 E7.64575
G1 X53.873 Y86.563 E7.66361
G1 X53.249 Y85.481 E7.68070
G1 X52.749 Y84.275 E7.69857
G1 X52.426 Y83.069 E7.71566
G1 X52.256 Y81.774 E7.73352
G1 X52.215 Y81.150 E7.74209
G1 X52.215 Y44.150 E8.24840
G1 X52.256 Y43.525 E8.25696
G1 X52.426 Y42.231 E8.27483
G1 X52.749 Y41.025 E8.29192
G1 X53.249 Y39.819 E8.30978
G1 X53.836 Y38.802 E8.32585
G1 X54.227 Y39.009 F7800.000
G4 P29
G1 X55.022 Y37.973 E8.34371 F1800.000
G1 X55.823 Y37.172 E8.35921
G1 X56.859 Y36.377 E8.37707
G1 X57.263 Y36.102 E8.38377
G1 X66.969 Y30.263 E8.53877
G1 X67.562 Y29.966 E8.54784
G1 X67.802 Y29.868 E8.55139
G1 X68.885 Y29.581 E8.56672
G1 X69.701 Y29.511 E8.57793
G1 X94.299 Y29.511 E8.91452
G1 X94.859 Y29.547 E8.92220
G1 X95.115 Y29.581 E8.92575 F1800.000
G1 X96.057 Y29.812 E8.93901
G1 X110.796 Y35.249 E9.15399
G1 X112.160 Y35.811 E9.17418
G1 X113.141 Y36.377 E9.18968
G1 X114.177 Y37.172 E9.20754
G1 X114.978 Y37.973 E9.22304
G1 X115.773 Y39.009 E9.24091
G1 X116.339 Y39.990 E9.25640
G1 X116.838 Y41.195 E9.27427
G1 X117.132 Y42.289 E9.28976
G1 X117.302 Y43.584 E9.30763
G1 X117.339 Y44.150 E9.31539
G1 X117.339 Y81.150 E9.82170
G1 X117.302 Y81.716 E9.82947
G1 X117.132 Y83.011 E9.84733
G1 X116.838 Y84.105 E9.86283
G1 X116.339 Y85.310 E9.88069
G1 X115.773 Y86.291 E9.89619
G1 X114.978 Y87.327 E9.91405
G1 X114.177 Y88.128 E9.92955
G1 X113.141 Y88.923 E9.94742
G1 X112.160 Y89.489 E9.96292
G1 X110.955 Y89.988 E9.98078
G1 X109.860 Y90.282 E9.99628
G1 X108.566 Y90.452 E10.01414
G1 X108.000 Y90.489 E10.02191
G1 X62.000 Y90.489 E10.65137
G1 X61.434 Y90.452 E10.65914
G1 X60.139 Y90.282 E10.67700
G1 X59.045 Y89.988 E10.69250
G1 X57.839 Y89.489 E10.71036
G1 X56.859 Y88.923 E10.72586
G1 X55.823 Y88.128 E10.74372
G1 X55.022 Y87.327 E10.75922
G1 X54.227 Y86.291 E10.77708
G1 X53.661 Y85.311 E10.79258
G1 X53.162 Y84.105 E10.81044
G1 X52.868 Y83.010 E10.82594
G1 X52.698 Y81.716 E10.84381
G1 X52.661 Y81.150 E10.85157
G1 X52.661 Y44.150 E11.35788
G1 X52.698 Y43.584 E11.36565
G1 X52.868 Y42.289 E11.38351
G1 X53.162 Y41.196 E11.39901
G1 X53.661 Y39.990 E11.41687
G1 X54.190 Y39.074 E11.43135
G1 X54.582 Y39.280 F7800.000
G4 P29
G1 X55.376 Y38.245 E11.44921 F1800.000
G1 X56.095 Y37.526 E11.46311
G1 X57.130 Y36.732 E11.48097
G1 X57.493 Y36.484 E11.48699
G1 X67.199 Y30.646 E11.64198
G1 X67.731 Y30.379 E11.65012
G1 X67.971 Y30.281 E11.65367
G1 X68.942 Y30.023 E11.66742
G1 X69.701 Y29.957 E11.67785
G1 X94.299 Y29.957 E12.01444
G1 X94.801 Y29.990 E12.02132
G1 X95.058 Y30.023 E12.02487 F1800.000
G1 X95.902 Y30.231 E12.03677
G1 X110.641 Y35.668 E12.25174
G1 X111.990 Y36.223 E12.27170
G1 X112.870 Y36.732 E12.28560
G1 X113.905 Y37.526 E12.30346
G1 X114.624 Y38.245 E12.31737
G1 X115.418 Y39.280 E12.33523
G1 X115.927 Y40.160 E12.34914
G1 X116.426 Y41.366 E12.36700
G1 X116.689 Y42.348 E12.38090
G1 X116.859 Y43.642 E12.39877
G1 X116.893 Y44.150 E12.40573
G1 X116.893 Y81.150 E12.91204
G1 X116.859 Y81.658 E12.91901
G1 X116.689 Y82.952 E12.93687
G1 X116.426 Y83.934 E12.95078
G1 X115.927 Y85.140 E12.96864
G1 X115.418 Y86.020 E12.98254
G1 X114.624 Y87.055 E13.00041
G1 X113.905 Y87.774 E13.01431
G1 X112.870 Y88.568 E13.03217
G1 X111.990 Y89.077 E13.04608
G1 X110.784 Y89.576 E13.06394
G1 X109.802 Y89.839 E13.07785
G1 X108.508 Y90.009 E13.09571
G1 X108.000 Y90.043 E13.10267
G1 X62.000 Y90.043 E13.73214
G1 X61.492 Y90.009 E13.73911
G1 X60.198 Y89.839 E13.75697
G1 X59.216 Y89.576 E13.77087
G1 X58.010 Y89.076 E13.78874
G1 X57.130 Y88.568 E13.80264
G1 X56.095 Y87.774 E13.82050
G1 X55.376 Y87.055 E13.83441
G1 X54.582 Y86.020 E13.85227
G1 X54.073 Y85.140 E13.86617
G1 X53.574 Y83.934 E13.88404
G1 X53.311 Y82.952 E13.89794
G1 X53.141 Y81.658 E13.91581
G1 X53.107 Y81.150 E13.92277
G1 X53.107 Y44.150 E14.42908
G1 X53.141 Y43.642 E14.43605
G1 X53.311 Y42.348 E14.45391
G1 X53.574 Y41.366 E14.46781
G1 X54.073 Y40.160 E14.48568
G1 X54.544 Y39.345 E14.49856
G1 X54.936 Y39.552 F7800.000
G4 P29
G1 X55.730 Y38.516 E14.51642 F1800.000
G1 X56.366 Y37.880 E14.52873
G1 X57.402 Y37.086 E14.54659
G1 X57.724 Y36.867 E14.55191
G1 X67.430 Y31.028 E14.70691
G1 X67.900 Y30.792 E14.71411
G1 X68.140 Y30.694 E14.71766
G1 X69.000 Y30.466 E14.72983
G1 X69.701 Y30.404 E14.73947
G1 X94.299 Y30.404 E15.07606
G1 X94.743 Y30.432 E15.08216
G1 X95.000 Y30.466 E15.08570 F1800.000
G1 X95.748 Y30.650 E15.09624
G1 X110.487 Y36.087 E15.31121
G1 X111.819 Y36.636 E15.33093
G1 X112.598 Y37.086 E15.34324
G1 X113.634 Y37.880 E15.36110
G1 X114.270 Y38.516 E15.37341
G1 X115.064 Y39.552 E15.39127
G1 X115.514 Y40.331 E15.40358
G1 X116.014 Y41.537 E15.42145
G1 X116.246 Y42.406 E15.43376
G1 X116.417 Y43.700 E15.45162
G1 X116.446 Y44.150 E15.45779
G1 X116.446 Y81.150 E15.96410
G1 X116.417 Y81.600 E15.97026
G1 X116.246 Y82.894 E15.98813
G1 X116.014 Y83.763 E16.00044
G1 X115.514 Y84.969 E16.01830
G1 X115.064 Y85.748 E16.03061
G1 X114.270 Y86.784 E16.04847
G1 X113.634 Y87.420 E16.06078
G1 X112.598 Y88.214 E16.07864
G1 X111.819 Y88.664 E16.09095
G1 X110.613 Y89.164 E16.10882
G1 X109.744 Y89.396 E16.12113
G1 X108.450 Y89.567 E16.13899
G1 X108.000 Y89.596 E16.14516
G1 X62.000 Y89.596 E16.77462
G1 X61.550 Y89.567 E16.78079
G1 X60.256 Y89.396 E16.79865
G1 X59.387 Y89.164 E16.81096
G1 X58.181 Y88.664 E16.82883
G1 X57.402 Y88.214 E16.84114
G1 X56.366 Y87.420 E16.85900
G1 X55.730 Y86.784 E16.87131
G1 X54.936 Y85.748 E16.88917
G1 X54.486 Y84.969 E16.90148
G1 X53.986 Y83.763 E16.91934
G1 X53.754 Y82.894 E16.93165
G1 X53.583 Y81.600 E16.94952
G1 X53.554 Y81.150 E16.95568
G1 X53.554 Y44.150 E17.46199
G1 X53.583 Y43.700 E17.46816
G1 X53.754 Y42.406 E17.48602
G1 X53.986 Y41.537 E17.49833
G1 X54.486 Y40.331 E17.51620
G1 X54.898 Y39.617 E17.52748
G1 E15.52748 F1920.00000
G92 E0
G1 X91.738 Y76.659 F7800.000
G1 E2.00000 F1920.00000
G1 X91.756 Y76.907 E2.00340 F1800.000
G1 X105.075 Y76.907 E2.18566
G1 X105.712 Y76.991 E2.19445
G1 X106.376 Y77.266 E2.20429
G1 X106.946 Y77.704 E2.21412
G1 X107.384 Y78.274 E2.22395
G1 X107.659 Y78.938 E2.23379
G1 X107.753 Y79.650 E2.24362
G1 X107.659 Y80.362 E2.25345
G1 X107.384 Y81.026 E2.26328
G1 X106.946 Y81.596 E2.27312
G1 X106.376 Y82.034 E2.28295
G1 X105.712 Y82.309 E2.29278
G1 X105.075 Y82.393 E2.30158
G1 X64.925 Y82.393 E2.85099
G1 X64.288 Y82.309 E2.85979
G1 X63.624 Y82.034 E2.86963
G1 X63.054 Y81.596 E2.87946
G1 X62.616 Y81.026 E2.88929
G1 X62.341 Y80.362 E2.89912
G1 X62.247 Y79.650 E2.90896
G1 X62.341 Y78.938 E2.91879
G1 X62.616 Y78.274 E2.92862
G1 X63.054 Y77.704 E2.93845
G1 X63.624 Y77.266 E2.94829
G1 X64.288 Y76.991 E2.95812
G1 X64.925 Y76.907 E2.96692
G1 X78.244 Y76.907 E3.14917
G1 X78.262 Y76.659 E3.15258
G1 X77.518 Y76.549 E3.16287
G1 X76.329 Y76.249 E3.17965
G1 X75.161 Y75.832 E3.19662
G1 X74.040 Y75.301 E3.21360
G1 X72.975 Y74.663 E3.23058
G1 X71.979 Y73.924 E3.24755
G1 X71.059 Y73.091 E3.26453
G1 X70.226 Y72.171 E3.28151
G1 X69.487 Y71.175 E3.29849
G1 X68.849 Y70.110 E3.31547
G1 X68.318 Y68.987 E3.33247
G1 X67.893 Y67.792 E3.34984
G1 X67.599 Y66.617 E3.36641
G1 X67.417 Y65.389 E3.38339
G1 X67.356 Y64.150 E3.40037
G1 X67.417 Y62.911 E3.41735
G1 X67.599 Y61.683 E3.43433
G1 X67.900 Y60.480 E3.45131
G1 X68.318 Y59.311 E3.46829
G1 X68.849 Y58.190 E3.48527
G1 X69.487 Y57.125 E3.50225
G1 X70.226 Y56.129 E3.51923
G1 X71.059 Y55.209 E3.53621
G1 X71.979 Y54.376 E3.55319
G1 X72.975 Y53.637 E3.57016
G1 X74.040 Y52.999 E3.58714
G1 X75.163 Y52.468 E3.60414
G1 X76.358 Y52.043 E3.62151
G1 X77.533 Y51.749 E3.63808
G1 X78.262 Y51.641 E3.64816
G1 X78.244 Y51.393 E3.65157
G1 X64.925 Y51.393 E3.83382
G1 X64.288 Y51.309 E3.84262
G1 X63.624 Y51.034 E3.85245
G1 X63.051 Y50.594 E3.86233
G1 X62.611 Y50.013 E3.87230
G1 X62.341 Y49.362 E3.88194
G1 X62.247 Y48.650 E3.89178
G1 X62.341 Y47.938 E3.90161
G1 X62.616 Y47.274 E3.91144
G1 X63.056 Y46.701 E3.92132
G1 X63.637 Y46.261 E3.93129
G1 X64.288 Y45.991 E3.94093
G1 X64.925 Y45.907 E3.94973
G1 X105.075 Y45.907 E4.49914
G1 X105.712 Y45.991 E4.50794
G1 X106.376 Y46.266 E4.51778
G1 X106.946 Y46.704 E4.52761
G1 X107.384 Y47.274 E4.53744
G1 X107.659 Y47.938 E4.54728
G1 X107.753 Y48.650 E4.55711
G1 X107.659 Y49.362 E4.56694
G1 X107.384 Y50.026 E4.57677
G1 X106.946 Y50.596 E4.58661
G1 X106.376 Y51.034 E4.59644
G1 X105.712 Y51.309 E4.60627
G1 X105.075 Y51.393 E4.61507
G1 X91.756 Y51.393 E4.79732
G1 X91.738 Y51.641 E4.80073
G1 X92.467 Y51.749 E4.81081
G1 X93.670 Y52.050 E4.82779
G1 X94.839 Y52.468 E4.84477
G1 X95.960 Y52.999 E4.86175
G1 X97.025 Y53.637 E4.87873
G1 X98.021 Y54.376 E4.89570
G1 X98.941 Y55.209 E4.91268
G1 X99.774 Y56.129 E4.92966
G1 X100.513 Y57.125 E4.94664
G1 X101.151 Y58.190 E4.96362
G1 X101.682 Y59.311 E4.98060
G1 X102.099 Y60.479 E4.99757
G1 X102.399 Y61.668 E5.01435
G1 X102.583 Y62.911 E5.03154
G1 X102.644 Y64.150 E5.04852
G1 X102.583 Y65.389 E5.06550
G1 X102.401 Y66.617 E5.08248
G1 X102.100 Y67.820 E5.09946
G1 X101.682 Y68.989 E5.11644
G1 X101.151 Y70.110 E5.13342
G1 X100.513 Y71.175 E5.15040
G1 X99.774 Y72.171 E5.16738
G1 X98.941 Y73.091 E5.18436
G1 X98.021 Y73.924 E5.20134
G1 X97.025 Y74.663 E5.21832
G1 X95.960 Y75.301 E5.23530
G1 X94.839 Y75.832 E5.25228
G1 X93.671 Y76.249 E5.26925
G1 X92.482 Y76.549 E5.28602
G1 X91.812 Y76.648 E5.29529
G1 X91.738 Y77.354 F7800.000
G1 X105.046 Y77.354 E5.47739 F1800.000
G1 X105.596 Y77.426 E5.48499
G1 X106.151 Y77.656 E5.49321
G1 X106.628 Y78.022 E5.50144
G1 X106.994 Y78.499 E5.50966
G1 X107.224 Y79.054 E5.51789
G1 X107.302 Y79.650 E5.52611
G1 X107.224 Y80.246 E5.53433
G1 X106.994 Y80.801 E5.54256
G1 X106.628 Y81.278 E5.55078
G1 X106.151 Y81.644 E5.55901
G1 X105.596 Y81.874 E5.56723
G1 X105.046 Y81.946 E5.57483
G1 X64.954 Y81.946 E6.12344
G1 X64.404 Y81.874 E6.13103
G1 X63.849 Y81.644 E6.13926
G1 X63.372 Y81.278 E6.14748
G1 X63.006 Y80.801 E6.15571
G1 X62.776 Y80.246 E6.16393
G1 X62.698 Y79.650 E6.17216
G1 X62.776 Y79.054 E6.18038
G1 X63.006 Y78.499 E6.18860
G1 X63.372 Y78.022 E6.19683
G1 X63.849 Y77.656 E6.20505
G1 X64.404 Y77.426 E6.21328
G1 X64.954 Y77.354 E6.22087
G1 X91.663 Y77.354 E6.58636 F1800.000
G1 X91.738 Y77.800 F7800.000
G1 X105.016 Y77.800 E6.76806 F1800.000
G1 X105.479 Y77.861 E6.77445
G1 X105.926 Y78.046 E6.78106
G1 X106.310 Y78.340 E6.78768
G1 X106.604 Y78.724 E6.79430
G1 X106.789 Y79.171 E6.80091
G1 X106.852 Y79.650 E6.80753
G1 X106.789 Y80.129 E6.81415
G1 X106.604 Y80.576 E6.82076
G1 X106.310 Y80.960 E6.82738
G1 X105.926 Y81.254 E6.83399
G1 X105.479 Y81.439 E6.84061
G1 X105.016 Y81.500 E6.84700
G1 X64.984 Y81.500 E7.39481
G1 X64.521 Y81.439 E7.40120
G1 X64.074 Y81.254 E7.40782
G1 X63.690 Y80.960 E7.41443
G1 X63.396 Y80.576 E7.42105
G1 X63.211 Y80.129 E7.42767
G1 X63.148 Y79.650 E7.43428
G1 X63.211 Y79.171 E7.44090
G1 X63.396 Y78.724 E7.44752
G1 X63.690 Y78.340 E7.45413
G1 X64.074 Y78.046 E7.46075
G1 X64.521 Y77.861 E7.46736
G1 X64.984 Y77.800 E7.47375
G1 X91.663 Y77.800 E7.83884 F1800.000
G1 X91.988 Y77.367 F7800.000
G1 X91.507 Y76.242 F7800.000
G1 X91.196 Y76.288 E7.84314 F1800.000
G1 X90.017 Y76.346 E7.85929
G1 X79.983 Y76.346 E7.99660
G1 X78.804 Y76.288 E8.01274
G1 X77.605 Y76.111 E8.02933
G1 X76.459 Y75.822 E8.04551
G1 X75.332 Y75.419 E8.06188
G1 X74.250 Y74.907 E8.07826
G1 X73.224 Y74.292 E8.09464
G1 X72.262 Y73.579 E8.11102
G1 X71.375 Y72.775 E8.12740
G1 X70.571 Y71.888 E8.14378
G1 X69.858 Y70.926 E8.16016
G1 X69.243 Y69.900 E8.17654
G1 X68.731 Y68.817 E8.19293
G1 X68.321 Y67.662 E8.20969
G1 X68.037 Y66.530 E8.22568
G1 X67.862 Y65.346 E8.24205
G1 X67.803 Y64.150 E8.25843
G1 X67.862 Y62.954 E8.27481
G1 X68.037 Y61.770 E8.29119
G1 X68.328 Y60.609 E8.30757
G1 X68.731 Y59.482 E8.32395
G1 X69.243 Y58.400 E8.34033
G1 X69.858 Y57.374 E8.35671
G1 X70.571 Y56.412 E8.37309
G1 X71.375 Y55.525 E8.38947
G1 X72.262 Y54.721 E8.40585
G1 X73.224 Y54.008 E8.42223
G1 X74.250 Y53.393 E8.43861
G1 X75.333 Y52.881 E8.45500
G1 X76.488 Y52.471 E8.47176
G1 X77.620 Y52.187 E8.48774
G1 X78.804 Y52.012 E8.50412
G1 X79.983 Y51.954 E8.52027
G1 X90.017 Y51.954 E8.65758 F1800.000
G1 X91.196 Y52.012 E8.67372
G1 X92.380 Y52.187 E8.69010
G1 X93.541 Y52.478 E8.70648
G1 X94.668 Y52.881 E8.72286
G1 X95.750 Y53.393 E8.73924
G1 X96.776 Y54.008 E8.75562
G1 X97.738 Y54.721 E8.77200
G1 X98.625 Y55.525 E8.78838
G1 X99.429 Y56.412 E8.80476
G1 X100.142 Y57.374 E8.82114
G1 X100.757 Y58.400 E8.83752
G1 X101.269 Y59.482 E8.85390
G1 X101.672 Y60.609 E8.87027
G1 X101.961 Y61.755 E8.88645
G1 X102.138 Y62.954 E8.90304
G1 X102.197 Y64.150 E8.91942
G1 X102.138 Y65.346 E8.93580
G1 X101.963 Y66.530 E8.95217
G1 X101.672 Y67.691 E8.96855
G1 X101.269 Y68.818 E8.98493
G1 X100.757 Y69.900 E9.00131
