; generated by Slic3r 1.2.9 on 2016-02-23 at 20:24:03

; external perimeters extrusion width = 0.50mm
; perimeters extrusion width = 0.50mm
; infill extrusion width = 0.50mm
; solid infill extrusion width = 0.50mm
; top infill extrusion width = 0.50mm

M107
M190 S70 ; set bed temperature
M104 S220 ; set temperature
G28 ; home all axes
M109 S220 ; wait for temperature to be reached
G21 ; set units to millimeters
G90 ; use absolute coordinates
M82 ; use absolute distances for extrusion
G92 E0
G1 Z0.350 F7800.000
G1 E-2.00000 F1920.00000
G92 E0
G1 X51.983 Y13.023 F7800.000
G1 E2.00000 F1920.00000
M204 S3000
G1 X52.337 Y11.704 E2.01869 F1800.000
G1 X52.824 Y10.528 E2.03610
G1 X53.519 Y9.315 E2.05523
G1 X54.314 Y8.280 E2.07309
G1 X55.280 Y7.314 E2.09178
G1 X56.315 Y6.519 E2.10965
G1 X57.498 Y5.836 E2.12833
G1 X58.895 Y5.262 E2.14901
G1 X73.635 Y-0.175 E2.36398
G1 X74.769 Y-0.455 E2.37998
G1 X75.701 Y-0.532 E2.39277
G1 X100.299 Y-0.532 E2.72936
G1 X100.974 Y-0.488 E2.73862
G1 X101.231 Y-0.455 E2.74217 F1800.000
G1 X102.536 Y-0.109 E2.76065
G1 X102.776 Y-0.010 E2.76420
G1 X103.491 Y0.348 E2.77514
G1 X113.197 Y6.187 E2.93013
G1 X113.685 Y6.519 E2.93822
G1 X114.720 Y7.314 E2.95608
G1 X115.686 Y8.280 E2.97477
G1 X116.481 Y9.315 E2.99263
G1 X117.164 Y10.498 E3.01132
G1 X117.663 Y11.704 E3.02918
G1 X118.017 Y13.023 E3.04787
G1 X118.187 Y14.317 E3.06573
G1 X118.232 Y15.000 E3.07509
G1 X118.232 Y110.300 E4.37918
G1 X118.187 Y110.983 E4.38855
G1 X118.017 Y112.277 E4.40641
G1 X117.663 Y113.596 E4.42510
G1 X117.164 Y114.802 E4.44296
G1 X116.481 Y115.985 E4.46165
G1 X115.686 Y117.020 E4.47951
G1 X114.720 Y117.986 E4.49820
G1 X113.685 Y118.781 E4.51606
G1 X112.502 Y119.464 E4.53475
G1 X111.296 Y119.963 E4.55261
G1 X109.977 Y120.317 E4.57129
G1 X108.683 Y120.487 E4.58916
G1 X108.000 Y120.532 E4.59852
G1 X62.000 Y120.532 E5.22799
G1 X61.317 Y120.487 E5.23735
G1 X60.023 Y120.317 E5.25522
G1 X58.704 Y119.963 E5.27390
G1 X57.498 Y119.464 E5.29177
G1 X56.315 Y118.781 E5.31045
G1 X55.280 Y117.986 E5.32832
G1 X54.314 Y117.020 E5.34700
G1 X53.519 Y115.985 E5.36487
G1 X52.836 Y114.802 E5.38356
G1 X52.337 Y113.596 E5.40142
G1 X51.983 Y112.277 E5.42010
G1 X51.813 Y110.983 E5.43797
G1 X51.768 Y110.300 E5.44733
G1 X51.768 Y15.000 E6.75142
G1 X51.813 Y14.317 E6.76079
G1 X51.974 Y13.097 E6.77762
G1 X52.426 Y13.081 F7800.000
G1 X52.749 Y11.875 E6.79472 F1800.000
G1 X53.236 Y10.699 E6.81213
G1 X53.873 Y9.587 E6.82967
G1 X54.668 Y8.551 E6.84753
G1 X55.551 Y7.668 E6.86462
G1 X56.587 Y6.873 E6.88249
G1 X57.669 Y6.249 E6.89958
G1 X59.050 Y5.681 E6.92001
G1 X73.789 Y0.244 E7.13499
G1 X74.827 Y-0.012 E7.14962
G1 X75.701 Y-0.085 E7.16163
G1 X100.299 Y-0.085 E7.49822
G1 X100.916 Y-0.045 E7.50668
G1 X101.173 Y-0.012 E7.51023 F1800.000
G1 X102.367 Y0.305 E7.52714
G1 X102.607 Y0.403 E7.53068
G1 X103.261 Y0.731 E7.54069
G1 X112.967 Y6.569 E7.69568
G1 X113.413 Y6.873 E7.70308
G1 X114.449 Y7.668 E7.72094
G1 X115.332 Y8.551 E7.73803
G1 X116.127 Y9.587 E7.75589
G1 X116.751 Y10.669 E7.77299
G1 X117.251 Y11.875 E7.79085
G1 X117.574 Y13.081 E7.80794
G1 X117.744 Y14.375 E7.82580
G1 X117.785 Y15.000 E7.83437
G1 X117.785 Y110.300 E9.13846
G1 X117.744 Y110.925 E9.14703
G1 X117.574 Y112.219 E9.16489
G1 X117.251 Y113.425 E9.18198
G1 X116.751 Y114.631 E9.19984
G1 X116.127 Y115.713 E9.21694
G1 X115.332 Y116.749 E9.23480
G1 X114.449 Y117.632 E9.25189
G1 X113.413 Y118.427 E9.26975
G1 X112.331 Y119.051 E9.28685
G1 X111.125 Y119.551 E9.30471
G1 X109.919 Y119.874 E9.32180
G1 X108.625 Y120.044 E9.33967
G1 X108.000 Y120.085 E9.34823
G1 X62.000 Y120.085 E9.97770
G1 X61.375 Y120.044 E9.98626
G1 X60.081 Y119.874 E10.00412
G1 X58.875 Y119.551 E10.02122
G1 X57.669 Y119.051 E10.03908
G1 X56.587 Y118.427 E10.05617
G1 X55.551 Y117.632 E10.07404
G1 X54.668 Y116.749 E10.09113
G1 X53.873 Y115.713 E10.10899
G1 X53.249 Y114.631 E10.12609
G1 X52.749 Y113.425 E10.14395
G1 X52.426 Y112.219 E10.16104
G1 X52.256 Y110.925 E10.17890
G1 X52.215 Y110.300 E10.18747
G1 X52.215 Y15.000 E11.49156
G1 X52.256 Y14.375 E11.50012
G1 X52.416 Y13.155 E11.51696
G1 X52.868 Y13.139 F7800.000
G1 X53.162 Y12.045 E11.53246 F1800.000
G1 X53.649 Y10.870 E11.54988
G1 X54.227 Y9.859 E11.56581
G1 X55.022 Y8.823 E11.58368
G1 X55.823 Y8.022 E11.59918
G1 X56.859 Y7.227 E11.61704
G1 X57.839 Y6.661 E11.63254
G1 X59.204 Y6.099 E11.65273
G1 X73.943 Y0.662 E11.86771
G1 X74.885 Y0.431 E11.88097
G1 X75.701 Y0.361 E11.89219
G1 X100.299 Y0.361 E12.22878
G1 X100.859 Y0.397 E12.23646
G1 X101.115 Y0.431 E12.24000 F1800.000
G1 X102.198 Y0.718 E12.25533
G1 X102.438 Y0.816 E12.25888
G1 X103.031 Y1.113 E12.26795
G1 X112.737 Y6.952 E12.42295
G1 X113.141 Y7.227 E12.42965
G1 X114.177 Y8.022 E12.44751
G1 X114.978 Y8.823 E12.46301
G1 X115.773 Y9.859 E12.48087
G1 X116.339 Y10.840 E12.49637
G1 X116.838 Y12.045 E12.51423
G1 X117.132 Y13.140 E12.52973
G1 X117.302 Y14.434 E12.54760
G1 X117.339 Y15.000 E12.55536
G1 X117.339 Y110.300 E13.85945
G1 X117.302 Y110.866 E13.86722
G1 X117.132 Y112.160 E13.88508
G1 X116.838 Y113.255 E13.90058
G1 X116.339 Y114.460 E13.91844
G1 X115.773 Y115.441 E13.93394
G1 X114.978 Y116.477 E13.95180
G1 X114.177 Y117.278 E13.96730
G1 X113.141 Y118.073 E13.98516
G1 X112.161 Y118.639 E14.00066
G1 X110.955 Y119.138 E14.01852
G1 X109.861 Y119.432 E14.03402
G1 X108.566 Y119.602 E14.05189
G1 X108.000 Y119.639 E14.05965
G1 X62.000 Y119.639 E14.68912
G1 X61.434 Y119.602 E14.69689
G1 X60.140 Y119.432 E14.71475
G1 X59.045 Y119.138 E14.73025
G1 X57.840 Y118.639 E14.74811
G1 X56.859 Y118.073 E14.76361
G1 X55.823 Y117.278 E14.78147
G1 X55.022 Y116.477 E14.79697
G1 X54.227 Y115.441 E14.81483
G1 X53.661 Y114.461 E14.83033
G1 X53.162 Y113.255 E14.84819
G1 X52.868 Y112.161 E14.86369
G1 X52.698 Y110.866 E14.88155
G1 X52.661 Y110.300 E14.88932
G1 X52.661 Y15.000 E16.19341
G1 X52.698 Y14.434 E16.20118
G1 X52.859 Y13.214 E16.21801
G1 X53.311 Y13.198 F7800.000
G1 X53.574 Y12.216 E16.23192 F1800.000
G1 X54.061 Y11.040 E16.24933
G1 X54.582 Y10.130 E16.26368
G1 X55.376 Y9.095 E16.28154
G1 X56.095 Y8.376 E16.29545
G1 X57.130 Y7.582 E16.31331
G1 X58.010 Y7.074 E16.32721
G1 X59.359 Y6.518 E16.34717
G1 X74.098 Y1.081 E16.56215
G1 X74.942 Y0.873 E16.57404
G1 X75.701 Y0.807 E16.58447
G1 X100.299 Y0.807 E16.92106
G1 X100.801 Y0.840 E16.92795
G1 X101.058 Y0.873 E16.93149 F1800.000
G1 X102.029 Y1.131 E16.94525
G1 X102.269 Y1.229 E16.94879
G1 X102.801 Y1.496 E16.95693
G1 X112.507 Y7.334 E17.11193
G1 X112.870 Y7.582 E17.11794
G1 X113.905 Y8.376 E17.13580
G1 X114.624 Y9.095 E17.14971
G1 X115.418 Y10.130 E17.16757
G1 X115.927 Y11.010 E17.18147
G1 X116.426 Y12.216 E17.19933
G1 X116.689 Y13.198 E17.21324
G1 X116.859 Y14.492 E17.23110
G1 X116.893 Y15.000 E17.23807
G1 X116.893 Y110.300 E18.54216
G1 X116.859 Y110.808 E18.54912
G1 X116.689 Y112.102 E18.56699
G1 X116.426 Y113.084 E18.58089
G1 X115.927 Y114.290 E18.59875
G1 X115.418 Y115.170 E18.61266
G1 X114.624 Y116.205 E18.63052
G1 X113.905 Y116.924 E18.64443
G1 X112.870 Y117.718 E18.66229
G1 X111.990 Y118.226 E18.67619
G1 X110.784 Y118.726 E18.69405
G1 X109.802 Y118.989 E18.70796
G1 X108.508 Y119.159 E18.72582
G1 X108.000 Y119.193 E18.73279
G1 X62.000 Y119.193 E19.36225
G1 X61.492 Y119.159 E19.36922
G1 X60.198 Y118.989 E19.38708
G1 X59.216 Y118.726 E19.40099
G1 X58.010 Y118.227 E19.41885
G1 X57.130 Y117.718 E19.43275
G1 X56.095 Y116.924 E19.45062
G1 X55.376 Y116.205 E19.46452
G1 X54.582 Y115.170 E19.48238
G1 X54.073 Y114.290 E19.49629
G1 X53.574 Y113.084 E19.51415
G1 X53.311 Y112.102 E19.52805
G1 X53.141 Y110.808 E19.54592
G1 X53.107 Y110.300 E19.55289
G1 X53.107 Y15.000 E20.85697
G1 X53.141 Y14.492 E20.86394
G1 X53.301 Y13.272 E20.88078
G1 X53.754 Y13.256 F7800.000
G1 X53.986 Y12.387 E20.89309 F1800.000
G1 X54.486 Y11.181 E20.91095
G1 X54.936 Y10.402 E20.92326
G1 X55.730 Y9.366 E20.94112
G1 X56.366 Y8.730 E20.95343
G1 X57.402 Y7.936 E20.97130
G1 X58.181 Y7.486 E20.98361
G1 X59.513 Y6.937 E21.00332
G1 X74.252 Y1.500 E21.21830
G1 X75.000 Y1.316 E21.22883
G1 X75.701 Y1.254 E21.23847
G1 X100.299 Y1.254 E21.57506
G1 X100.743 Y1.282 E21.58116
G1 X101.000 Y1.316 E21.58470 F1800.000
G1 X101.860 Y1.544 E21.59688
G1 X102.100 Y1.642 E21.60042
G1 X102.570 Y1.878 E21.60762
G1 X112.276 Y7.717 E21.76262
G1 X112.598 Y7.936 E21.76794
G1 X113.634 Y8.730 E21.78581
G1 X114.270 Y9.366 E21.79812
G1 X115.064 Y10.402 E21.81598
G1 X115.514 Y11.181 E21.82829
G1 X116.014 Y12.387 E21.84615
G1 X116.246 Y13.256 E21.85846
G1 X116.417 Y14.550 E21.87632
G1 X116.446 Y15.000 E21.88249
G1 X116.446 Y110.300 E23.18658
G1 X116.417 Y110.750 E23.19275
G1 X116.246 Y112.044 E23.21061
G1 X116.014 Y112.913 E23.22292
G1 X115.514 Y114.119 E23.24078
G1 X115.064 Y114.898 E23.25309
G1 X114.270 Y115.934 E23.27096
G1 X113.634 Y116.570 E23.28327
G1 X112.598 Y117.364 E23.30113
G1 X111.819 Y117.814 E23.31344
G1 X110.613 Y118.314 E23.33130
G1 X109.744 Y118.546 E23.34361
G1 X108.450 Y118.717 E23.36147
G1 X108.000 Y118.746 E23.36764
G1 X62.000 Y118.746 E23.99711
G1 X61.550 Y118.717 E24.00328
G1 X60.256 Y118.546 E24.02114
G1 X59.387 Y118.314 E24.03345
G1 X58.181 Y117.814 E24.05131
G1 X57.402 Y117.364 E24.06362
G1 X56.366 Y116.570 E24.08148
G1 X55.730 Y115.934 E24.09379
G1 X54.936 Y114.898 E24.11166
G1 X54.486 Y114.119 E24.12397
G1 X53.986 Y112.913 E24.14183
G1 X53.754 Y112.044 E24.15414
G1 X53.583 Y110.750 E24.17200
G1 X53.554 Y110.300 E24.17817
G1 X53.554 Y15.000 E25.48226
G1 X53.583 Y14.550 E25.48843
G1 X53.744 Y13.330 E25.50526
G1 E23.50526 F1920.00000
G92 E0
G1 X91.756 Y22.243 F7800.000
G1 E2.00000 F1920.00000
G1 X91.738 Y22.491 E2.00340 F1800.000
G4 P25
G1 X92.467 Y22.599 E2.01348
G1 X93.670 Y22.900 E2.03046
G1 X94.839 Y23.318 E2.04744
G1 X95.960 Y23.849 E2.06442
G1 X97.025 Y24.487 E2.08140
G1 X98.021 Y25.226 E2.09838
G1 X98.941 Y26.059 E2.11536
G1 X99.774 Y26.979 E2.13234
G1 X100.513 Y27.975 E2.14932
G1 X101.151 Y29.040 E2.16630
G1 X101.682 Y30.161 E2.18328
G1 X102.099 Y31.329 E2.20025
G1 X102.399 Y32.518 E2.21703
G1 X102.583 Y33.761 E2.23422
G1 X102.644 Y35.000 E2.25120
G1 X102.583 Y36.239 E2.26818
G1 X102.399 Y37.482 E2.28537
G1 X102.099 Y38.671 E2.30215
G1 X101.682 Y39.839 E2.31912
G1 X101.151 Y40.960 E2.33610
G1 X100.513 Y42.025 E2.35308
G1 X99.774 Y43.021 E2.37006
G1 X98.941 Y43.941 E2.38704
G1 X98.021 Y44.774 E2.40402
G1 X97.025 Y45.513 E2.42099
G1 X95.960 Y46.151 E2.43797
G1 X94.839 Y46.682 E2.45495
G1 X93.671 Y47.099 E2.47192
G1 X92.482 Y47.399 E2.48870
G1 X91.738 Y47.509 E2.49899
G1 X91.756 Y47.757 E2.50240
G1 X105.075 Y47.757 E2.68465
G1 X105.712 Y47.841 E2.69345
G1 X106.376 Y48.116 E2.70328
G1 X106.946 Y48.554 E2.71311
G1 X107.384 Y49.124 E2.72294
G1 X107.659 Y49.788 E2.73278
G1 X107.753 Y50.500 E2.74261
G1 X107.659 Y51.212 E2.75244
G1 X107.384 Y51.876 E2.76228
G1 X106.946 Y52.446 E2.77211
G1 X106.376 Y52.884 E2.78194
G1 X105.712 Y53.159 E2.79177
G1 X105.075 Y53.243 E2.80057
G1 X64.921 Y53.243 E3.35003
G1 X64.275 Y53.153 E3.35897
G1 X63.624 Y52.884 E3.36861
G1 X63.054 Y52.446 E3.37844
G1 X62.616 Y51.876 E3.38828
G1 X62.341 Y51.212 E3.39811
G1 X62.247 Y50.496 E3.40799
G1 X62.347 Y49.775 E3.41796
G1 X62.616 Y49.124 E3.42760
G1 X63.054 Y48.554 E3.43744
G1 X63.624 Y48.116 E3.44727
G1 X64.288 Y47.841 E3.45710
G1 X64.925 Y47.757 E3.46590
G1 X78.244 Y47.757 E3.64815
G1 X78.262 Y47.509 E3.65155
G1 X77.518 Y47.399 E3.66185
G1 X76.329 Y47.099 E3.67862
G1 X75.161 Y46.682 E3.69559
G1 X74.040 Y46.151 E3.71257
G1 X72.975 Y45.513 E3.72955
G1 X71.979 Y44.774 E3.74653
G1 X71.059 Y43.941 E3.76351
G1 X70.226 Y43.021 E3.78049
G1 X69.487 Y42.025 E3.79747
G1 X68.849 Y40.960 E3.81445
G1 X68.318 Y39.839 E3.83143
G1 X67.900 Y38.670 E3.84841
G1 X67.606 Y37.495 E3.86498
G1 X67.417 Y36.241 E3.88235
G1 X67.356 Y35.000 E3.89935
G1 X67.417 Y33.761 E3.91633
G1 X67.599 Y32.533 E3.93331
G1 X67.900 Y31.330 E3.95029
G1 X68.318 Y30.161 E3.96727
G1 X68.849 Y29.040 E3.98424
G1 X69.487 Y27.975 E4.00122
G1 X70.226 Y26.979 E4.01820
G1 X71.059 Y26.059 E4.03518
G1 X71.979 Y25.226 E4.05216
G1 X72.952 Y24.504 E4.06874
G1 X74.038 Y23.850 E4.08610
G1 X75.163 Y23.318 E4.10312
G1 X76.358 Y22.893 E4.12048
G1 X77.533 Y22.599 E4.13706
G1 X78.262 Y22.491 E4.14714
G1 X78.244 Y22.243 E4.15054
G1 X64.925 Y22.243 E4.33279
G1 X64.242 Y22.153 E4.34222
G1 X63.613 Y21.876 E4.35162
G1 X63.054 Y21.446 E4.36127
G1 X62.616 Y20.876 E4.37111
G1 X62.341 Y20.212 E4.38094
G1 X62.247 Y19.500 E4.39077
G1 X62.341 Y18.788 E4.40060
G1 X62.616 Y18.124 E4.41044
G1 X63.054 Y17.554 E4.42027
G1 X63.624 Y17.116 E4.43010
G1 X64.275 Y16.847 E4.43974
G1 X64.921 Y16.757 E4.44868
G1 X105.075 Y16.757 E4.99814
G1 X105.712 Y16.841 E5.00694
G1 X106.376 Y17.116 E5.01677
G1 X106.946 Y17.554 E5.02660
G1 X107.384 Y18.124 E5.03644
G1 X107.659 Y18.788 E5.04627
G1 X107.753 Y19.500 E5.05610
G1 X107.659 Y20.212 E5.06594
G1 X107.384 Y20.876 E5.07577
G1 X106.946 Y21.446 E5.08560
G1 X106.376 Y21.884 E5.09543
G1 X105.725 Y22.153 E5.10507
G1 X105.079 Y22.243 E5.11401
G1 X91.831 Y22.243 E5.29528
G1 E3.29528 F1920.00000
G92 E0
G1 X91.756 Y48.204 F7800.000
G1 E2.00000 F1920.00000
G1 X105.046 Y48.204 E2.18185 F1800.000
G1 X105.596 Y48.276 E2.18944
G1 X106.151 Y48.506 E2.19767
G1 X106.628 Y48.872 E2.20589
G1 X106.994 Y49.349 E2.21412
G1 X107.224 Y49.904 E2.22234
G1 X107.302 Y50.500 E2.23057
G1 X107.224 Y51.096 E2.23879
G1 X106.994 Y51.651 E2.24702
G1 X106.628 Y52.128 E2.25524
G1 X106.151 Y52.494 E2.26347
G1 X105.596 Y52.724 E2.27169
G1 X105.046 Y52.796 E2.27928
G1 X64.952 Y52.796 E2.82793
G1 X64.392 Y52.719 E2.83566
G1 X63.849 Y52.494 E2.84371
G1 X63.372 Y52.128 E2.85193
G1 X63.006 Y51.651 E2.86016
G1 X62.776 Y51.096 E2.86838
G1 X62.697 Y50.498 E2.87664
G1 X62.781 Y49.892 E2.88500
G1 X63.006 Y49.349 E2.89305
G1 X63.372 Y48.872 E2.90128
G1 X63.849 Y48.506 E2.90950
G1 X64.404 Y48.276 E2.91773
G1 X64.954 Y48.204 E2.92532
G1 X91.681 Y48.204 E3.29106 F1800.000
G1 X91.756 Y48.650 F7800.000
G1 X105.016 Y48.650 E3.47250 F1800.000
G1 X105.479 Y48.711 E3.47889
G1 X105.926 Y48.896 E3.48551
G1 X106.310 Y49.190 E3.49213
G1 X106.604 Y49.574 E3.49874
G1 X106.789 Y50.021 E3.50536
G1 X106.852 Y50.500 E3.51198
G1 X106.789 Y50.979 E3.51859
G1 X106.604 Y51.426 E3.52521
G1 X106.310 Y51.810 E3.53183
G1 X105.926 Y52.104 E3.53844
G1 X105.479 Y52.289 E3.54506
G1 X105.016 Y52.350 E3.55145
G1 X64.983 Y52.350 E4.09927
G1 X64.510 Y52.285 E4.10580
G1 X64.074 Y52.104 E4.11226
G1 X63.690 Y51.810 E4.11888
G1 X63.396 Y51.426 E4.12549
G1 X63.211 Y50.979 E4.13211
G1 X63.148 Y50.499 E4.13874
G1 X63.215 Y50.010 E4.14549
G1 X63.396 Y49.574 E4.15195
G1 X63.690 Y49.190 E4.15857
G1 X64.074 Y48.896 E4.16519
G1 X64.521 Y48.711 E4.17180
G1 X64.984 Y48.650 E4.17819
G1 X91.681 Y48.650 E4.54353 F1800.000
G1 X92.006 Y48.217 F7800.000
G1 X91.525 Y47.090 F7800.000
G1 X91.196 Y47.138 E4.54809 F1800.000
G1 X90.017 Y47.196 E4.56423
G1 X79.983 Y47.196 E4.70154
G1 X78.804 Y47.138 E4.71768
G1 X77.605 Y46.961 E4.73427
G1 X76.459 Y46.672 E4.75045
G1 X75.332 Y46.269 E4.76682
G1 X74.250 Y45.757 E4.78320
G1 X73.224 Y45.142 E4.79958
G1 X72.262 Y44.429 E4.81596
G1 X71.375 Y43.625 E4.83234
G1 X70.571 Y42.738 E4.84872
G1 X69.858 Y41.776 E4.86510
G1 X69.243 Y40.750 E4.88148
G1 X68.731 Y39.668 E4.89786
G1 X68.328 Y38.541 E4.91424
G1 X68.044 Y37.408 E4.93022
G1 X67.862 Y36.196 E4.94698
G1 X67.803 Y35.000 E4.96338
G1 X67.862 Y33.804 E4.97975
G1 X68.037 Y32.620 E4.99613
G1 X68.328 Y31.459 E5.01251
G1 X68.731 Y30.332 E5.02889
G1 X69.243 Y29.250 E5.04527
G1 X69.858 Y28.224 E5.06165
G1 X70.571 Y27.262 E5.07803
G1 X71.375 Y26.375 E5.09441
G1 X72.262 Y25.571 E5.11079
G1 X73.200 Y24.876 E5.12677
G1 X74.250 Y24.243 E5.14354
G1 X75.333 Y23.731 E5.15994
G1 X76.488 Y23.321 E5.17670
G1 X77.620 Y23.037 E5.19268
G1 X78.804 Y22.862 E5.20906
G1 X79.983 Y22.804 E5.22521
G1 X90.017 Y22.804 E5.36252 F1800.000
G1 X91.196 Y22.862 E5.37866
G1 X92.380 Y23.037 E5.39504
G1 X93.541 Y23.328 E5.41142
G1 X94.668 Y23.731 E5.42780
G1 X95.750 Y24.243 E5.44418
G1 X96.776 Y24.858 E5.46056
G1 X97.738 Y25.571 E5.47694
G1 X98.625 Y26.375 E5.49332
G1 X99.429 Y27.262 E5.50970
G1 X100.142 Y28.224 E5.52608
G1 X100.757 Y29.250 E5.54246
G1 X101.269 Y30.332 E5.55884
G1 X101.672 Y31.459 E5.57521
G1 X101.961 Y32.605 E5.59139
G1 X102.138 Y33.804 E5.60798
