; generated by Slic3r 1.2.9 on 2016-02-18 at 00:53:17

; external perimeters extrusion width = 0.50mm
; perimeters extrusion width = 0.50mm
; infill extrusion width = 0.50mm
; solid infill extrusion width = 0.50mm
; top infill extrusion width = 0.50mm

M107
M190 S60 ; set bed temperature
M104 S210 ; set temperature
G28 ; home all axes
M109 S210 ; wait for temperature to be reached
G21 ; set units to millimeters
G90 ; use absolute coordinates
M82 ; use absolute distances for extrusion
G92 E0
G1 Z0.350 F7800.000
G1 E-2.00000 F1920.00000
G92 E0
G1 X74.783 Y54.125 F7800.000
G1 E2.00000 F1920.00000
M204 S3000
G1 X75.445 Y53.285 E2.00813 F1500.000
G1 X76.191 Y52.518 E2.01625
G1 X77.014 Y51.835 E2.02438
G1 X77.868 Y51.265 E2.03218
G1 X78.146 Y51.104 E2.03462
G1 X79.103 Y50.635 E2.04271
G1 X80.104 Y50.268 E2.05081
G1 X81.137 Y50.008 E2.05891
G1 X82.074 Y49.867 E2.06611
G1 X83.100 Y49.815 E2.07391
G1 X92.755 Y49.815 E2.14726
G1 X94.236 Y50.208 E2.15891
G1 X95.327 Y51.284 E2.17055 F1500.000
G1 X95.740 Y52.800 E2.18248
G1 X95.740 Y67.200 E2.29189
G1 X95.347 Y68.681 E2.30353
G1 X94.271 Y69.772 E2.31517
G1 X92.755 Y70.185 E2.32711
G1 X83.100 Y70.185 E2.40046
G1 X82.203 Y70.142 E2.40728
G1 X81.873 Y70.108 E2.40980
G1 X80.875 Y69.938 E2.41749
G1 X80.104 Y69.732 E2.42356
G1 X79.798 Y69.632 E2.42600
G1 X78.851 Y69.255 E2.43374
G1 X77.868 Y68.735 E2.44220
G1 X77.014 Y68.165 E2.45000
G1 X76.404 Y67.671 E2.45595
G1 X75.639 Y66.929 E2.46405
G1 X75.424 Y66.690 E2.46649
G1 X74.783 Y65.875 E2.47437
G1 X74.212 Y64.970 E2.48250
G1 X73.740 Y64.010 E2.49063
G1 X73.371 Y63.006 E2.49876
G1 X73.110 Y61.970 E2.50688
G1 X72.991 Y61.220 E2.51265
G1 X72.919 Y60.156 E2.52074
G1 X72.958 Y59.100 E2.52878
G1 X72.991 Y58.780 E2.53122
G1 X73.174 Y57.730 E2.53931
G1 X73.371 Y56.993 E2.54511
G1 X73.740 Y55.989 E2.55323
G1 X74.212 Y55.030 E2.56136
G1 X74.742 Y54.188 E2.56892
G1 X74.988 Y54.260 F7800.000
G4 P31
G1 X75.635 Y53.441 E2.57685 F1500.000
G1 X76.364 Y52.694 E2.58478
G1 X77.167 Y52.028 E2.59270
G1 X78.002 Y51.472 E2.60032
G1 X78.257 Y51.324 E2.60257
G1 X79.191 Y50.865 E2.61047
G1 X80.167 Y50.506 E2.61837
G1 X81.176 Y50.252 E2.62628
G1 X82.096 Y50.112 E2.63334
G1 X83.100 Y50.061 E2.64098
G1 X92.755 Y50.061 E2.71433
G1 X94.168 Y50.454 E2.72548
G1 X95.176 Y51.519 E2.73662 F1500.000
G1 X95.494 Y52.800 E2.74665
G1 X95.494 Y67.200 E2.85605
G1 X95.101 Y68.613 E2.86719
G1 X94.036 Y69.621 E2.87833
G1 X92.755 Y69.939 E2.88836
G1 X83.100 Y69.939 E2.96171
G1 X82.216 Y69.896 E2.96844
G1 X81.912 Y69.865 E2.97076
G1 X80.935 Y69.699 E2.97828
G1 X80.167 Y69.494 E2.98432
G1 X79.886 Y69.402 E2.98657
G1 X78.960 Y69.034 E2.99414
G1 X78.002 Y68.528 E3.00237
G1 X77.167 Y67.972 E3.01000
G1 X76.559 Y67.480 E3.01593
G1 X75.813 Y66.755 E3.02384
G1 X75.616 Y66.535 E3.02608
G1 X74.988 Y65.740 E3.03378
G1 X74.431 Y64.857 E3.04171
G1 X73.970 Y63.921 E3.04964
G1 X73.609 Y62.942 E3.05757
G1 X73.353 Y61.931 E3.06549
G1 X73.234 Y61.181 E3.07125
G1 X73.165 Y60.143 E3.07916
G1 X73.204 Y59.113 E3.08699
G1 X73.234 Y58.819 E3.08924
G1 X73.412 Y57.794 E3.09714
G1 X73.609 Y57.058 E3.10293
G1 X73.970 Y56.079 E3.11086
G1 X74.431 Y55.143 E3.11878
G1 X74.947 Y54.323 E3.12614
G1 X75.194 Y54.396 F7800.000
G4 P31
G1 X75.825 Y53.598 E3.13387 F1500.000
G1 X76.537 Y52.870 E3.14161
G1 X77.320 Y52.221 E3.14933
G1 X78.136 Y51.678 E3.15678
G1 X78.369 Y51.543 E3.15883
G1 X79.279 Y51.095 E3.16653
G1 X80.231 Y50.744 E3.17424
G1 X81.214 Y50.495 E3.18195
G1 X82.118 Y50.358 E3.18889
G1 X83.100 Y50.307 E3.19636
G1 X92.755 Y50.307 E3.26971
G1 X94.097 Y50.699 E3.28033
G1 X95.017 Y51.752 E3.29095 F1500.000
G1 X95.248 Y52.800 E3.29911
G1 X95.248 Y67.200 E3.40851
G1 X94.856 Y68.542 E3.41913
G1 X93.803 Y69.462 E3.42975
G1 X92.755 Y69.693 E3.43790
G1 X83.100 Y69.693 E3.51125
G1 X81.950 Y69.621 E3.52000
G1 X80.996 Y69.460 E3.52736
G1 X80.231 Y69.256 E3.53337
G1 X79.975 Y69.172 E3.53542
G1 X79.069 Y68.813 E3.54282
G1 X78.136 Y68.322 E3.55083
G1 X77.320 Y67.779 E3.55828
G1 X76.714 Y67.288 E3.56420
G1 X75.987 Y66.581 E3.57191
G1 X75.807 Y66.380 E3.57396
G1 X75.194 Y65.604 E3.58147
G1 X74.650 Y64.744 E3.58920
G1 X74.199 Y63.832 E3.59693
G1 X73.847 Y62.877 E3.60466
G1 X73.596 Y61.892 E3.61239
G1 X73.477 Y61.143 E3.61815
G1 X73.411 Y60.130 E3.62586
G1 X73.450 Y59.125 E3.63350
G1 X73.477 Y58.857 E3.63555
G1 X73.650 Y57.858 E3.64325
G1 X73.847 Y57.122 E3.64904
G1 X74.199 Y56.168 E3.65677
G1 X74.650 Y55.256 E3.66449
G1 X75.153 Y54.459 E3.67166
G1 X75.400 Y54.531 F7800.000
G4 P31
G1 X76.015 Y53.754 E3.67919 F1500.000
G1 X76.709 Y53.046 E3.68672
G1 X77.473 Y52.414 E3.69425
G1 X78.270 Y51.885 E3.70152
G1 X78.481 Y51.763 E3.70337
G1 X79.367 Y51.325 E3.71088
G1 X80.295 Y50.982 E3.71840
G1 X81.253 Y50.738 E3.72591
G1 X82.140 Y50.603 E3.73272
G1 X83.100 Y50.554 E3.74003
G1 X92.755 Y50.554 E3.81338
G1 X94.021 Y50.945 E3.82345
G1 X94.847 Y51.982 E3.83352 F1500.000
G1 X95.001 Y52.800 E3.83984
G1 X95.001 Y67.200 E3.94924
G1 X94.610 Y68.467 E3.95932
G1 X93.573 Y69.292 E3.96939
G1 X92.755 Y69.446 E3.97571
G1 X83.100 Y69.446 E4.04906
G1 X82.140 Y69.397 E4.05636
G1 X81.015 Y69.211 E4.06503
G1 X80.101 Y68.956 E4.07224
G1 X79.367 Y68.675 E4.07820
G1 X78.299 Y68.134 E4.08730
G1 X77.448 Y67.566 E4.09508
G1 X76.709 Y66.954 E4.10237
G1 X76.015 Y66.246 E4.10990
G1 X75.400 Y65.469 E4.11743
G1 X74.981 Y64.824 E4.12327
G1 X74.521 Y63.949 E4.13078
G1 X74.422 Y63.726 E4.13263
G1 X74.084 Y62.813 E4.14003
G1 X73.839 Y61.853 E4.14756
G1 X73.696 Y60.872 E4.15509
G1 X73.657 Y60.118 E4.16083
G1 X73.696 Y59.128 E4.16835
G1 X73.839 Y58.147 E4.17588
G1 X74.084 Y57.187 E4.18341
G1 X74.429 Y56.257 E4.19094
G1 X74.869 Y55.369 E4.19847
G1 X75.359 Y54.594 E4.20544
G1 E2.20544 F1920.00000
G92 E0
G1 X92.112 Y66.557 F7800.000
G1 E2.00000 F1920.00000
G1 X83.117 Y66.557 E2.06834 F1500.000
G1 X82.408 Y66.519 E2.07373
G1 X81.738 Y66.413 E2.07889
G1 X81.075 Y66.236 E2.08410
G1 X80.434 Y65.990 E2.08931
G1 X79.816 Y65.674 E2.09459
G1 X79.247 Y65.305 E2.09974
G1 X78.713 Y64.873 E2.10496
G1 X78.228 Y64.388 E2.11017
G1 X77.791 Y63.847 E2.11545
G1 X77.422 Y63.279 E2.12060
G1 X77.111 Y62.667 E2.12582
G1 X76.865 Y62.027 E2.13103
G1 X76.686 Y61.355 E2.13631
G1 X76.579 Y60.685 E2.14146
G1 X76.544 Y60.000 E2.14667
G1 X76.579 Y59.315 E2.15189
G1 X76.687 Y58.637 E2.15710
G1 X76.865 Y57.974 E2.16232
G1 X77.111 Y57.333 E2.16753
G1 X77.422 Y56.721 E2.17275
G1 X77.796 Y56.146 E2.17796
G1 X78.228 Y55.612 E2.18318
G1 X78.708 Y55.133 E2.18833
G1 X79.247 Y54.695 E2.19361
G1 X79.823 Y54.322 E2.19882
G1 X80.434 Y54.010 E2.20403
G1 X81.075 Y53.764 E2.20925
G1 X81.738 Y53.587 E2.21446
G1 X82.408 Y53.481 E2.21961
G1 X83.117 Y53.443 E2.22501
G1 X92.112 Y53.443 E2.29335
G1 X92.112 Y58.857 E2.33448
G1 X87.902 Y58.857 E2.36647
G1 X87.874 Y58.715 E2.36758
G1 X87.640 Y58.043 E2.37298
G1 X87.312 Y57.412 E2.37839
G1 X86.890 Y56.825 E2.38388
G1 X86.385 Y56.305 E2.38938
G1 X85.811 Y55.866 E2.39488
G1 X85.190 Y55.519 E2.40028
G1 X84.525 Y55.266 E2.40568
G1 X83.819 Y55.108 E2.41118
G1 X83.078 Y55.054 E2.41682
G1 X81.817 Y55.221 E2.42649
G1 X80.635 Y55.711 E2.43621
G1 X79.600 Y56.502 E2.44610
G1 X78.814 Y57.527 E2.45592
G1 X78.325 Y58.708 E2.46563
G1 X78.152 Y60.000 E2.47554
G1 X78.325 Y61.292 E2.48544
G1 X78.814 Y62.473 E2.49515
G1 X79.600 Y63.498 E2.50497
G1 X80.635 Y64.289 E2.51486
G1 X81.817 Y64.779 E2.52458
G1 X83.078 Y64.946 E2.53425
G1 X83.819 Y64.892 E2.53989
G1 X84.525 Y64.734 E2.54539
G1 X85.190 Y64.481 E2.55079
G1 X85.811 Y64.134 E2.55619
G1 X86.385 Y63.695 E2.56169
G1 X86.890 Y63.175 E2.56719
G1 X87.312 Y62.588 E2.57269
G1 X87.640 Y61.957 E2.57809
G1 X87.874 Y61.285 E2.58349
G1 X87.902 Y61.143 E2.58460
G1 X92.112 Y61.143 E2.61659
G1 X92.112 Y66.482 E2.65715
G1 X92.359 Y66.804 F7800.000
G1 X83.111 Y66.804 E2.72741 F1500.000
G1 X82.382 Y66.765 E2.73296
G1 X81.687 Y66.655 E2.73830
G1 X80.999 Y66.470 E2.74371
G1 X80.334 Y66.215 E2.74912
G1 X79.692 Y65.888 E2.75460
G1 X79.102 Y65.504 E2.75994
G1 X78.548 Y65.056 E2.76536
G1 X78.045 Y64.553 E2.77076
G1 X77.592 Y63.992 E2.77624
G1 X77.209 Y63.402 E2.78159
G1 X76.885 Y62.767 E2.78700
G1 X76.630 Y62.103 E2.79241
G1 X76.444 Y61.406 E2.79788
G1 X76.334 Y60.711 E2.80323
G1 X76.297 Y60.000 E2.80864
G1 X76.334 Y59.289 E2.81405
G1 X76.446 Y58.585 E2.81946
G1 X76.630 Y57.897 E2.82487
G1 X76.885 Y57.233 E2.83028
G1 X77.209 Y56.598 E2.83569
G1 X77.596 Y56.001 E2.84110
G1 X78.045 Y55.447 E2.84651
G1 X78.542 Y54.950 E2.85186
G1 X79.102 Y54.496 E2.85734
G1 X79.699 Y54.108 E2.86275
G1 X80.334 Y53.785 E2.86816
G1 X80.999 Y53.530 E2.87357
G1 X81.687 Y53.345 E2.87898
G1 X82.382 Y53.235 E2.88433
G1 X83.111 Y53.196 E2.88987
G1 X92.359 Y53.196 E2.96013
G1 X92.359 Y59.104 E3.00501
G1 X87.698 Y59.104 E3.04041
G1 X87.636 Y58.779 E3.04293
G1 X87.414 Y58.140 E3.04806
G1 X87.102 Y57.541 E3.05319
G1 X86.701 Y56.983 E3.05841
G1 X86.221 Y56.490 E3.06364
G1 X85.675 Y56.072 E3.06886
G1 X85.085 Y55.743 E3.07400
G1 X84.454 Y55.503 E3.07913
G1 X83.783 Y55.353 E3.08435
G1 X83.086 Y55.302 E3.08967
G1 X81.881 Y55.461 E3.09889
G1 X80.759 Y55.926 E3.10812
G1 X79.776 Y56.677 E3.11752
G1 X79.029 Y57.651 E3.12684
G1 X78.565 Y58.773 E3.13607
G1 X78.400 Y60.000 E3.14548
G1 X78.565 Y61.227 E3.15488
G1 X79.029 Y62.349 E3.16411
G1 X79.776 Y63.323 E3.17343
G1 X80.759 Y64.074 E3.18283
G1 X81.881 Y64.539 E3.19206
G1 X83.086 Y64.698 E3.20129
G1 X83.783 Y64.647 E3.20660
G1 X84.454 Y64.497 E3.21182
G1 X85.085 Y64.257 E3.21695
G1 X85.675 Y63.928 E3.22209
G1 X86.221 Y63.510 E3.22731
G1 X86.701 Y63.017 E3.23254
G1 X87.102 Y62.459 E3.23776
G1 X87.414 Y61.860 E3.24289
G1 X87.636 Y61.221 E3.24802
G1 X87.698 Y60.896 E3.25054
G1 X92.359 Y60.896 E3.28594
G1 X92.359 Y66.729 E3.33025
G1 X92.605 Y67.050 F7800.000
G1 X83.104 Y67.050 E3.40243 F1500.000
G1 X82.356 Y67.010 E3.40813
G1 X81.636 Y66.896 E3.41367
G1 X80.923 Y66.705 E3.41927
G1 X80.234 Y66.441 E3.42488
G1 X79.569 Y66.101 E3.43055
G1 X78.957 Y65.704 E3.43609
G1 X78.383 Y65.240 E3.44170
G1 X77.861 Y64.718 E3.44731
G1 X77.392 Y64.137 E3.45298
G1 X76.995 Y63.525 E3.45852
G1 X76.660 Y62.868 E3.46413
G1 X76.395 Y62.179 E3.46974
G1 X76.203 Y61.457 E3.47541
G1 X76.089 Y60.737 E3.48095
G1 X76.050 Y60.000 E3.48656
G1 X76.089 Y59.263 E3.49216
G1 X76.204 Y58.534 E3.49777
G1 X76.395 Y57.821 E3.50338
G1 X76.660 Y57.132 E3.50898
G1 X76.995 Y56.475 E3.51459
G1 X77.397 Y55.856 E3.52020
G1 X77.861 Y55.282 E3.52580
G1 X78.377 Y54.766 E3.53135
G1 X78.957 Y54.296 E3.53702
G1 X79.576 Y53.894 E3.54262
G1 X80.234 Y53.559 E3.54823
G1 X80.923 Y53.295 E3.55384
G1 X81.636 Y53.104 E3.55945
G1 X82.356 Y52.990 E3.56499
G1 X83.104 Y52.950 E3.57068
G1 X92.605 Y52.950 E3.64286
G1 X92.605 Y59.350 E3.69148
G1 X87.495 Y59.350 E3.73030
G1 X87.397 Y58.843 E3.73423
G1 X87.187 Y58.238 E3.73909
G1 X86.891 Y57.671 E3.74395
G1 X86.511 Y57.142 E3.74890
G1 X86.057 Y56.674 E3.75385
G1 X85.540 Y56.278 E3.75880
G1 X84.981 Y55.967 E3.76366
G1 X84.383 Y55.739 E3.76852
G1 X83.747 Y55.597 E3.77347
G1 X83.093 Y55.549 E3.77846
G1 X81.946 Y55.701 E3.78725
G1 X80.883 Y56.141 E3.79598
G1 X79.952 Y56.853 E3.80489
G1 X79.245 Y57.775 E3.81372
G1 X78.805 Y58.837 E3.82246
G1 X78.649 Y60.000 E3.83137
G1 X78.805 Y61.163 E3.84028
G1 X79.245 Y62.225 E3.84901
G1 X79.952 Y63.147 E3.85784
G1 X80.883 Y63.859 E3.86675
G1 X81.946 Y64.299 E3.87549
G1 X83.093 Y64.451 E3.88428
G1 X83.747 Y64.403 E3.88926
G1 X84.383 Y64.261 E3.89421
G1 X84.981 Y64.033 E3.89907
G1 X85.540 Y63.722 E3.90393
G1 X86.057 Y63.326 E3.90888
G1 X86.511 Y62.858 E3.91383
G1 X86.891 Y62.329 E3.91878
G1 X87.187 Y61.762 E3.92364
G1 X87.397 Y61.157 E3.92850
G1 X87.495 Y60.650 E3.93243
G1 X92.605 Y60.650 E3.97125
G1 X92.605 Y66.975 E4.01931
G1 X92.172 Y66.800 F7800.000
G1 E2.01931 F1920.00000
G92 E0
G1 X91.975 Y61.413 F7800.000
G1 E2.00000 F1920.00000
G1 X91.842 Y61.280 E2.00143 F1500.000
G1 X91.492 Y61.280 E2.00410
G1 X91.975 Y61.762 E2.00930
G1 X91.975 Y62.112 E2.01196
G1 X91.143 Y61.280 E2.02093
G1 X90.794 Y61.280 E2.02359
G1 X91.975 Y62.461 E2.03633
G1 X91.975 Y62.811 E2.03899
G1 X90.444 Y61.280 E2.05549
G1 X90.095 Y61.280 E2.05816
G1 X91.975 Y63.160 E2.07842
G1 X91.975 Y63.510 E2.08109
G1 X89.745 Y61.280 E2.10512
G1 X89.396 Y61.280 E2.10779
G1 X91.975 Y63.859 E2.13559
G1 X91.975 Y64.209 E2.13825
G1 X89.046 Y61.280 E2.16982
G1 X88.697 Y61.280 E2.17248
G1 X91.975 Y64.558 E2.20782
G1 X91.975 Y64.908 E2.21048
G1 X88.347 Y61.280 E2.24958
G1 X88.004 Y61.286 E2.25220
G1 X91.975 Y65.257 E2.29500
G1 X91.975 Y65.607 E2.29766
G1 X87.914 Y61.545 E2.34143
G1 X87.824 Y61.805 E2.34352
G1 X91.975 Y65.956 E2.38827
G1 X91.975 Y66.306 E2.39093
G1 X87.724 Y62.054 E2.43675
G1 X87.604 Y62.284 E2.43873
G1 X91.740 Y66.420 E2.48330
G1 X91.391 Y66.420 E2.48596
G1 X87.485 Y62.514 E2.52806
G1 X87.352 Y62.731 E2.53000
G1 X91.041 Y66.420 E2.56976
G1 X90.692 Y66.420 E2.57242
G1 X87.206 Y62.935 E2.60999
G1 X87.060 Y63.138 E2.61190
G1 X90.342 Y66.420 E2.64727
G1 X89.993 Y66.420 E2.64993
G1 X86.902 Y63.329 E2.68325
G1 X86.729 Y63.506 E2.68513
G1 X89.643 Y66.420 E2.71654
G1 X89.294 Y66.420 E2.71920
G1 X86.557 Y63.684 E2.74869
G1 X86.374 Y63.850 E2.75058
G1 X88.944 Y66.420 E2.77828
G1 X88.595 Y66.420 E2.78094
G1 X86.176 Y64.001 E2.80701
G1 X85.978 Y64.153 E2.80891
G1 X88.245 Y66.420 E2.83335
G1 X87.896 Y66.420 E2.83601
G1 X85.769 Y64.293 E2.85894
G1 X85.545 Y64.418 E2.86089
G1 X87.546 Y66.420 E2.88247
G1 X87.197 Y66.420 E2.88513
G1 X85.320 Y64.544 E2.90536
G1 X85.080 Y64.653 E2.90737
G1 X86.847 Y66.420 E2.92641
G1 X86.498 Y66.420 E2.92908
G1 X84.827 Y64.749 E2.94708
G1 X84.574 Y64.846 E2.94915
G1 X86.148 Y66.420 E2.96611
G1 X85.799 Y66.420 E2.96878
G1 X84.294 Y64.916 E2.98499
G1 X84.009 Y64.980 E2.98722
G1 X85.449 Y66.420 E3.00275
G1 X85.100 Y66.420 E3.00541
G1 X83.713 Y65.033 E3.02036
G1 X83.387 Y65.057 E3.02285
G1 X84.750 Y66.420 E3.03754
G1 X84.401 Y66.420 E3.04021
G1 X83.062 Y65.081 E3.05464
G1 X82.669 Y65.037 E3.05766
G1 X84.052 Y66.420 E3.07256
G1 X83.702 Y66.420 E3.07523
G1 X82.266 Y64.984 E3.09071
G1 X81.863 Y64.931 E3.09380
G1 X83.353 Y66.420 E3.10986
G1 X82.993 Y66.411 E3.11259
G1 X81.338 Y64.755 E3.13044
G1 X80.741 Y64.508 F7800.000
G1 X82.624 Y66.391 E3.15074 F1500.000
G1 X82.227 Y66.343 E3.15379
G1 X76.757 Y60.873 E3.21274
G1 X76.826 Y61.292 E3.21598
G1 X81.809 Y66.275 E3.26968
G1 X81.332 Y66.147 E3.27344
G1 X76.954 Y61.769 E3.32063
G1 X77.143 Y62.308 F7800.000
G1 X80.792 Y65.957 E3.35996 F1500.000
G1 X80.137 Y65.651 F7800.000
G1 X77.448 Y62.962 E3.38895 F1500.000
G1 X78.593 Y62.359 F7800.000
G4 P23
G1 X76.709 Y60.475 E3.40926 F1500.000
G1 X76.689 Y60.106 E3.41207
G1 X78.345 Y61.763 E3.42992
G1 X78.172 Y61.240 E3.43412
G1 X76.691 Y59.758 E3.45008
G1 X76.708 Y59.426 E3.45262
G1 X78.118 Y60.836 E3.46781
G1 X78.064 Y60.432 E3.47091
G1 X76.743 Y59.112 E3.48515
G1 X76.791 Y58.810 E3.48748
G1 X78.015 Y60.034 E3.50067
G1 X78.056 Y59.726 E3.50304
G1 X76.848 Y58.518 E3.51606
G1 X76.922 Y58.243 E3.51824
G1 X78.098 Y59.418 E3.53091
G1 X78.139 Y59.110 E3.53328
G1 X76.997 Y57.968 E3.54558
G1 X77.094 Y57.715 E3.54765
G1 X78.180 Y58.802 E3.55935
G1 X78.265 Y58.537 E3.56147
G1 X77.191 Y57.463 E3.57305
G1 X77.300 Y57.223 E3.57506
G1 X78.367 Y58.289 E3.58655
G1 X78.470 Y58.042 E3.58859
G1 X77.418 Y56.991 E3.59992
G1 X77.537 Y56.760 E3.60190
G1 X78.572 Y57.795 E3.61306
G1 X78.674 Y57.548 E3.61510
G1 X77.674 Y56.548 E3.62588
G1 X77.812 Y56.336 E3.62780
G1 X78.813 Y57.337 E3.63859
G1 X78.965 Y57.140 E3.64049
G1 X77.957 Y56.132 E3.65136
G1 X78.113 Y55.938 E3.65325
G1 X79.116 Y56.942 E3.66406
G1 X79.268 Y56.744 E3.66596
G1 X78.278 Y55.754 E3.67663
G1 X78.453 Y55.579 E3.67852
G1 X79.420 Y56.546 E3.68894
G1 X79.588 Y56.365 E3.69082
G1 X78.628 Y55.404 E3.70118
G1 X78.802 Y55.230 E3.70306
G1 X79.786 Y56.214 E3.71366
G1 X79.984 Y56.062 E3.71556
G1 X78.982 Y55.060 E3.72637
G1 X79.175 Y54.903 E3.72826
G1 X80.182 Y55.911 E3.73912
G1 X80.380 Y55.759 E3.74102
G1 X79.374 Y54.753 E3.75187
G1 X79.585 Y54.615 E3.75380
G1 X80.578 Y55.608 E3.76450
G1 X80.822 Y55.502 E3.76652
G1 X79.797 Y54.477 E3.77756
G1 X80.023 Y54.353 E3.77952
G1 X81.069 Y55.400 E3.79080
G1 X81.316 Y55.297 E3.79284
G1 X80.254 Y54.235 E3.80429
G1 X80.488 Y54.120 E3.80628
G1 X81.563 Y55.195 E3.81787
G1 X81.811 Y55.093 E3.81990
