; generated by Slic3r 1.2.9 on 2016-02-18 at 00:53:55

; external perimeters extrusion width = 0.50mm
; perimeters extrusion width = 0.50mm
; infill extrusion width = 0.50mm
; solid infill extrusion width = 0.50mm
; top infill extrusion width = 0.50mm

M107
M190 S70 ; set bed temperature
M104 S220 ; set temperature
G28 ; home all axes
M109 S220 ; wait for temperature to be reached
G21 ; set units to millimeters
G90 ; use absolute coordinates
M82 ; use absolute distances for extrusion
G92 E0
G1 Z0.350 F7800.000
G1 E-2.00000 F1920.00000
G92 E0
G1 X60.116 Y33.599 F7800.000
G1 E2.00000 F1920.00000
M204 S3000
G1 X60.377 Y33.150 E2.00711 F1800.000
G1 X60.807 Y32.489 E2.01791
G1 X61.110 Y32.075 E2.02492
G1 X61.610 Y31.457 E2.03580
G1 X61.950 Y31.082 E2.04273
G1 X62.518 Y30.515 E2.05370
G1 X62.890 Y30.183 E2.06054
G1 X63.518 Y29.675 E2.07159
G1 X63.919 Y29.387 E2.07834
G1 X64.603 Y28.944 E2.08949
G1 X65.026 Y28.703 E2.09615
G1 X65.757 Y28.331 E2.10738
G1 X66.198 Y28.138 E2.11396
G1 X66.970 Y27.842 E2.12528
G1 X67.422 Y27.699 E2.13177
G1 X68.142 Y27.506 E2.14197
G1 X68.686 Y27.390 E2.14958
G1 X69.422 Y27.273 E2.15977
G1 X69.792 Y27.228 E2.16488
G1 X70.726 Y27.175 E2.17768
G1 X80.655 Y27.168 E2.31355
G1 X82.652 Y27.564 E2.34141
G1 X84.027 Y28.400 E2.36342 F1800.000
G1 X108.227 Y48.800 E2.79654
G1 X109.498 Y50.390 E2.82440
G1 X110.087 Y52.800 E2.85835
G1 X110.087 Y67.200 E3.05540
G1 X109.690 Y69.197 E3.08326
G1 X108.227 Y71.200 E3.11720
G1 X84.027 Y91.600 E3.55032
G1 X82.245 Y92.584 E3.57818
G1 X80.655 Y92.832 E3.60020
G1 X70.726 Y92.825 E3.73606
G1 X69.774 Y92.770 E3.74911
G1 X68.686 Y92.610 E3.76416
G1 X68.142 Y92.494 E3.77177
G1 X67.422 Y92.301 E3.78197
G1 X66.970 Y92.158 E3.78847
G1 X66.198 Y91.862 E3.79978
G1 X65.757 Y91.669 E3.80636
G1 X65.026 Y91.297 E3.81759
G1 X64.602 Y91.056 E3.82426
G1 X63.919 Y90.613 E3.83540
G1 X63.518 Y90.325 E3.84216
G1 X62.890 Y89.817 E3.85321
G1 X62.477 Y89.445 E3.86082
G1 X61.950 Y88.918 E3.87101
G1 X61.610 Y88.543 E3.87794
G1 X61.110 Y87.925 E3.88882
G1 X60.807 Y87.511 E3.89583
G1 X60.377 Y86.850 E3.90663
G1 X60.116 Y86.401 E3.91374
G1 X59.761 Y85.704 E3.92444
G1 X59.546 Y85.224 E3.93163
G1 X59.268 Y84.500 E3.94225
G1 X59.097 Y83.971 E3.94986
G1 X58.904 Y83.251 E3.96005
G1 X58.792 Y82.726 E3.96741
G1 X58.672 Y81.971 E3.97786
G1 X58.615 Y81.430 E3.98531
G1 X58.568 Y80.400 E3.99942
G1 X58.568 Y39.600 E4.55773
G1 X58.615 Y38.570 E4.57183
G1 X58.672 Y38.029 E4.57928
G1 X58.792 Y37.274 E4.58973
G1 X58.904 Y36.749 E4.59709
G1 X59.103 Y36.006 E4.60762
G1 X59.268 Y35.500 E4.61490
G1 X59.546 Y34.776 E4.62551
G1 X59.761 Y34.296 E4.63271
G1 X60.082 Y33.666 E4.64238
G1 X60.513 Y33.804 F7800.000
G4 P29
G1 X60.751 Y33.393 E4.64888 F1800.000
G1 X61.180 Y32.734 E4.65964
G1 X61.456 Y32.356 E4.66605
G1 X61.955 Y31.741 E4.67688
G1 X62.266 Y31.398 E4.68322
G1 X62.830 Y30.834 E4.69414
G1 X63.171 Y30.530 E4.70039
G1 X63.796 Y30.025 E4.71138
G1 X64.162 Y29.761 E4.71756
G1 X64.841 Y29.321 E4.72863
G1 X65.228 Y29.100 E4.73473
G1 X65.954 Y28.731 E4.74587
G1 X66.358 Y28.554 E4.75190
G1 X67.124 Y28.261 E4.76313
G1 X68.257 Y27.937 E4.77926
G1 X68.756 Y27.831 E4.78623
G1 X69.813 Y27.674 E4.80085
G1 X71.000 Y27.615 E4.81712
G1 X80.655 Y27.615 E4.94924
G1 X82.561 Y28.010 E4.97587
G1 X83.739 Y28.741 E4.99485 F1800.000
G1 X107.939 Y49.141 E5.42796
G1 X109.141 Y50.672 E5.45460
G1 X109.640 Y52.800 E5.48451
G1 X109.640 Y67.200 E5.68156
G1 X109.244 Y69.106 E5.70819
G1 X107.939 Y70.859 E5.73810
G1 X83.739 Y91.259 E6.17122
G1 X82.027 Y92.184 E6.19785
G1 X80.655 Y92.385 E6.21683
G1 X70.750 Y92.379 E6.35237
G1 X69.814 Y92.326 E6.36520
G1 X68.756 Y92.169 E6.37983
G1 X68.257 Y92.063 E6.38681
G1 X67.124 Y91.739 E6.40294
G1 X66.358 Y91.446 E6.41417
G1 X65.954 Y91.269 E6.42019
G1 X65.228 Y90.900 E6.43134
G1 X64.841 Y90.679 E6.43744
G1 X64.162 Y90.239 E6.44851
G1 X63.795 Y89.975 E6.45469
G1 X63.171 Y89.470 E6.46568
G1 X62.793 Y89.129 E6.47265
G1 X62.266 Y88.602 E6.48284
G1 X61.955 Y88.259 E6.48918
G1 X61.456 Y87.644 E6.50001
G1 X61.180 Y87.266 E6.50643
G1 X60.751 Y86.607 E6.51718
G1 X60.513 Y86.196 E6.52368
G1 X60.159 Y85.501 E6.53435
G1 X59.962 Y85.062 E6.54093
G1 X59.685 Y84.340 E6.55152
G1 X59.528 Y83.855 E6.55849
G1 X59.335 Y83.136 E6.56869
G1 X59.232 Y82.655 E6.57542
G1 X59.113 Y81.901 E6.58586
G1 X59.061 Y81.406 E6.59267
G1 X59.015 Y80.400 E6.60645
G1 X59.015 Y39.600 E7.16476
G1 X59.061 Y38.594 E7.17855
G1 X59.113 Y38.099 E7.18536
G1 X59.232 Y37.345 E7.19580
G1 X59.335 Y36.864 E7.20253
G1 X59.534 Y36.122 E7.21304
G1 X59.685 Y35.660 E7.21970
G1 X59.962 Y34.937 E7.23029
G1 X60.159 Y34.499 E7.23686
G1 X60.479 Y33.871 E7.24650
G1 X60.909 Y34.009 F7800.000
G4 P29
G1 X61.126 Y33.636 E7.25240 F1800.000
G1 X61.552 Y32.980 E7.26311
G1 X61.803 Y32.637 E7.26893
G1 X62.299 Y32.025 E7.27971
G1 X62.582 Y31.714 E7.28546
G1 X63.143 Y31.152 E7.29632
G1 X63.452 Y30.877 E7.30199
G1 X64.073 Y30.374 E7.31292
G1 X64.405 Y30.136 E7.31852
G1 X65.080 Y29.698 E7.32952
G1 X65.431 Y29.498 E7.33505
G1 X66.152 Y29.131 E7.34612
G1 X66.518 Y28.971 E7.35158
G1 X67.278 Y28.680 E7.36273
G1 X68.437 Y28.351 E7.37920
G1 X68.826 Y28.271 E7.38464
G1 X69.853 Y28.119 E7.39885
G1 X71.000 Y28.061 E7.41457
G1 X80.655 Y28.061 E7.54668
G1 X82.465 Y28.456 E7.57203
G1 X83.452 Y29.082 E7.58803 F1800.000
G1 X107.652 Y49.482 E8.02114
G1 X108.780 Y50.951 E8.04649
G1 X109.194 Y52.800 E8.07242
G1 X109.194 Y67.200 E8.26947
G1 X108.799 Y69.010 E8.29481
G1 X107.652 Y70.518 E8.32074
G1 X83.452 Y90.918 E8.75385
G1 X81.813 Y91.782 E8.77920
G1 X80.655 Y91.939 E8.79520
G1 X70.773 Y91.933 E8.93042
G1 X69.853 Y91.881 E8.94302
G1 X68.826 Y91.729 E8.95724
G1 X68.373 Y91.632 E8.96358
G1 X67.278 Y91.320 E8.97916
G1 X66.518 Y91.029 E8.99030
G1 X66.152 Y90.869 E8.99576
G1 X65.431 Y90.502 E9.00683
G1 X65.080 Y90.302 E9.01236
G1 X64.405 Y89.864 E9.02336
G1 X64.073 Y89.625 E9.02897
G1 X63.452 Y89.123 E9.03989
G1 X63.109 Y88.813 E9.04622
G1 X62.582 Y88.286 E9.05642
G1 X62.300 Y87.976 E9.06216
G1 X61.803 Y87.363 E9.07295
G1 X61.552 Y87.020 E9.07876
G1 X61.126 Y86.364 E9.08948
G1 X60.909 Y85.991 E9.09537
G1 X60.557 Y85.299 E9.10601
G1 X60.378 Y84.901 E9.11198
G1 X60.102 Y84.180 E9.12254
G1 X59.959 Y83.740 E9.12887
G1 X59.766 Y83.020 E9.13907
G1 X59.673 Y82.584 E9.14517
G1 X59.554 Y81.831 E9.15560
G1 X59.506 Y81.383 E9.16177
G1 X59.461 Y80.400 E9.17523
G1 X59.461 Y39.600 E9.73354
G1 X59.507 Y38.617 E9.74700
G1 X59.554 Y38.169 E9.75318
G1 X59.673 Y37.416 E9.76361
G1 X59.766 Y36.980 E9.76971
G1 X59.965 Y36.239 E9.78020
G1 X60.102 Y35.820 E9.78624
G1 X60.378 Y35.099 E9.79680
G1 X60.557 Y34.701 E9.80277
G1 X60.875 Y34.076 E9.81237
G1 X61.306 Y34.214 F7800.000
G4 P29
G1 X61.500 Y33.879 E9.81766 F1800.000
G1 X61.925 Y33.225 E9.82834
G1 X62.150 Y32.918 E9.83355
G1 X62.644 Y32.308 E9.84429
G1 X63.456 Y31.471 E9.86024
G1 X64.350 Y30.724 E9.87619
G1 X65.319 Y30.075 E9.89215
G1 X66.349 Y29.531 E9.90809
G1 X67.432 Y29.099 E9.92405
G1 X68.546 Y28.784 E9.93988
G1 X68.895 Y28.712 E9.94476
G1 X69.893 Y28.563 E9.95856
G1 X71.000 Y28.507 E9.97373
G1 X80.655 Y28.507 E10.10585
G1 X82.363 Y28.902 E10.12985
G1 X83.164 Y29.424 E10.14292 F1800.000
G1 X107.364 Y49.824 E10.57604
G1 X108.415 Y51.227 E10.60003
G1 X108.748 Y52.800 E10.62203
G1 X108.748 Y67.200 E10.81908
G1 X108.353 Y68.908 E10.84308
G1 X107.364 Y70.176 E10.86508
G1 X83.164 Y90.576 E11.29820
G1 X81.603 Y91.375 E11.32219
G1 X80.655 Y91.493 E11.33527
G1 X70.796 Y91.487 E11.47017
G1 X69.893 Y91.437 E11.48255
G1 X68.895 Y91.288 E11.49635
G1 X68.488 Y91.201 E11.50205
G1 X67.432 Y90.901 E11.51707
G1 X66.349 Y90.469 E11.53303
G1 X65.318 Y89.925 E11.54898
G1 X64.350 Y89.275 E11.56493
G1 X63.733 Y88.776 E11.57579
G1 X63.424 Y88.498 E11.58149
G1 X62.644 Y87.692 E11.59683
G1 X62.150 Y87.082 E11.60757
G1 X61.925 Y86.775 E11.61279
G1 X61.500 Y86.121 E11.62346
G1 X61.306 Y85.786 E11.62875
G1 X60.954 Y85.096 E11.63935
G1 X60.794 Y84.739 E11.64470
G1 X60.518 Y84.020 E11.65524
G1 X60.390 Y83.624 E11.66093
G1 X60.197 Y82.905 E11.67113
G1 X60.114 Y82.514 E11.67660
G1 X59.995 Y81.762 E11.68702
G1 X59.952 Y81.359 E11.69256
G1 X59.907 Y80.400 E11.70570
G1 X59.907 Y39.600 E12.26400
G1 X59.952 Y38.641 E12.27714
G1 X59.995 Y38.238 E12.28268
G1 X60.114 Y37.486 E12.29310
G1 X60.197 Y37.095 E12.29857
G1 X60.395 Y36.356 E12.30905
G1 X60.518 Y35.980 E12.31446
G1 X60.794 Y35.261 E12.32500
G1 X60.954 Y34.904 E12.33035
G1 X61.272 Y34.281 E12.33993
G1 X61.703 Y34.418 F7800.000
G4 P29
G1 X62.298 Y33.471 E12.35524 F1800.000
G1 X62.989 Y32.592 E12.37054
G1 X63.768 Y31.790 E12.38585
G1 X64.628 Y31.074 E12.40115
G1 X65.558 Y30.452 E12.41646
G1 X66.547 Y29.932 E12.43176
G1 X67.587 Y29.518 E12.44707
G1 X68.663 Y29.215 E12.46237
G1 X69.933 Y29.008 E12.47997
G1 X71.000 Y28.954 E12.49460
G1 X80.655 Y28.954 E12.62672
G1 X82.876 Y29.765 E12.65907
G1 X107.076 Y50.165 E13.09219 F1800.000
G1 X108.046 Y51.498 E13.11475
G1 X108.301 Y52.800 E13.13290
G1 X108.301 Y67.200 E13.32995
G1 X107.907 Y68.801 E13.35251
G1 X107.076 Y69.835 E13.37067
G1 X82.876 Y90.235 E13.80378
G1 X80.655 Y91.046 E13.83614
G1 X70.820 Y91.042 E13.97073
G1 X69.933 Y90.992 E13.98288
G1 X68.965 Y90.847 E13.99627
G1 X68.604 Y90.770 E14.00133
G1 X67.586 Y90.482 E14.01580
G1 X66.547 Y90.068 E14.03111
G1 X65.557 Y89.548 E14.04641
G1 X64.627 Y88.926 E14.06172
G1 X64.014 Y88.429 E14.07252
G1 X63.740 Y88.182 E14.07757
G1 X62.989 Y87.408 E14.09232
G1 X62.497 Y86.801 E14.10301
G1 X62.298 Y86.529 E14.10763
G1 X61.875 Y85.877 E14.11826
G1 X61.703 Y85.582 E14.12295
G1 X61.352 Y84.893 E14.13351
G1 X61.210 Y84.577 E14.13825
G1 X60.935 Y83.860 E14.14877
G1 X60.821 Y83.509 E14.15382
G1 X60.555 Y82.443 E14.16886
G1 X60.436 Y81.692 E14.17926
G1 X60.398 Y81.335 E14.18417
G1 X60.354 Y80.400 E14.19698
G1 X60.354 Y39.600 E14.75529
G1 X60.398 Y38.665 E14.76810
G1 X60.436 Y38.308 E14.77301
G1 X60.555 Y37.557 E14.78341
G1 X60.628 Y37.211 E14.78826
G1 X60.826 Y36.473 E14.79872
G1 X60.935 Y36.140 E14.80351
G1 X61.210 Y35.422 E14.81402
G1 X61.668 Y34.485 E14.82830
G1 E12.82830 F1920.00000
G92 E0
G1 X79.512 Y66.057 F7800.000
G1 E2.00000 F1920.00000
G1 X71.030 Y66.057 E2.11606 F1800.000
G1 X70.360 Y66.022 E2.12525
G1 X69.742 Y65.924 E2.13381
G1 X69.130 Y65.760 E2.14249
G1 X68.538 Y65.533 E2.15116
G1 X67.966 Y65.241 E2.15995
G1 X67.441 Y64.900 E2.16851
G1 X66.948 Y64.501 E2.17719
G1 X66.501 Y64.053 E2.18586
G1 X66.097 Y63.553 E2.19465
G1 X65.756 Y63.028 E2.20321
G1 X65.468 Y62.463 E2.21189
G1 X65.241 Y61.872 E2.22055
G1 X65.075 Y61.251 E2.22935
G1 X64.977 Y60.633 E2.23791
G1 X64.944 Y60.000 E2.24659
G1 X64.977 Y59.367 E2.25526
G1 X65.077 Y58.741 E2.26394
G1 X65.241 Y58.128 E2.27261
G1 X65.468 Y57.537 E2.28129
G1 X65.756 Y56.972 E2.28996
G1 X66.101 Y56.440 E2.29864
G1 X66.500 Y55.947 E2.30731
G1 X66.943 Y55.505 E2.31588
G1 X67.442 Y55.100 E2.32467
G1 X67.973 Y54.755 E2.33334
G1 X68.538 Y54.467 E2.34201
G1 X69.130 Y54.240 E2.35069
G1 X69.742 Y54.076 E2.35936
G1 X70.360 Y53.978 E2.36793
G1 X71.030 Y53.943 E2.37711
G1 X79.512 Y53.943 E2.49318
G1 X79.512 Y58.357 E2.55359
G1 X76.179 Y58.357 E2.59920
G1 X76.001 Y57.844 E2.60663
G1 X75.639 Y57.149 E2.61735
G1 X75.175 Y56.503 E2.62824
G1 X74.618 Y55.930 E2.63916
G1 X73.986 Y55.446 E2.65006
G1 X73.302 Y55.065 E2.66079
G1 X72.569 Y54.786 E2.67151
G1 X71.792 Y54.612 E2.68240
G1 X70.964 Y54.552 E2.69377
G1 X69.586 Y54.734 E2.71278
G1 X68.284 Y55.274 E2.73208
G1 X67.144 Y56.145 E2.75171
G1 X66.277 Y57.275 E2.77119
G1 X65.738 Y58.577 E2.79048
G1 X65.547 Y60.000 E2.81013
G1 X65.738 Y61.423 E2.82977
G1 X66.277 Y62.725 E2.84907
G1 X67.144 Y63.855 E2.86855
G1 X68.284 Y64.726 E2.88818
G1 X69.586 Y65.266 E2.90747
G1 X70.964 Y65.448 E2.92648
G1 X71.792 Y65.388 E2.93786
G1 X72.569 Y65.214 E2.94875
G1 X73.302 Y64.935 E2.95947
G1 X73.986 Y64.554 E2.97020
G1 X74.618 Y64.070 E2.98109
G1 X75.175 Y63.497 E2.99202
G1 X75.639 Y62.851 E3.00291
G1 X76.001 Y62.156 E3.01362
G1 X76.179 Y61.643 E3.02106
G1 X79.512 Y61.643 E3.06667
G1 X79.512 Y65.982 E3.12605
G1 X79.959 Y66.504 F7800.000
G1 X71.019 Y66.504 E3.24839 F1800.000
G1 X70.313 Y66.466 E3.25805
G1 X69.649 Y66.361 E3.26725
G1 X68.992 Y66.185 E3.27657
G1 X68.356 Y65.941 E3.28588
G1 X67.742 Y65.628 E3.29531
G1 X67.178 Y65.261 E3.30452
G1 X66.649 Y64.833 E3.31383
G1 X66.168 Y64.352 E3.32314
G1 X65.735 Y63.816 E3.33257
G1 X65.369 Y63.252 E3.34178
G1 X65.060 Y62.645 E3.35109
G1 X64.816 Y62.010 E3.36040
G1 X64.638 Y61.344 E3.36984
G1 X64.533 Y60.680 E3.37904
G1 X64.497 Y60.000 E3.38835
G1 X64.533 Y59.320 E3.39767
G1 X64.639 Y58.648 E3.40698
G1 X64.816 Y57.990 E3.41630
G1 X65.060 Y57.355 E3.42561
G1 X65.369 Y56.748 E3.43493
G1 X65.740 Y56.177 E3.44424
G1 X66.168 Y55.648 E3.45356
G1 X66.643 Y55.173 E3.46276
G1 X67.179 Y54.739 E3.47219
G1 X67.749 Y54.368 E3.48151
G1 X68.356 Y54.059 E3.49082
G1 X68.992 Y53.815 E3.50014
G1 X69.649 Y53.639 E3.50945
G1 X70.313 Y53.534 E3.51865
G1 X71.019 Y53.496 E3.52832
G1 X79.959 Y53.496 E3.65065
G1 X79.959 Y58.804 E3.72328
G1 X75.846 Y58.804 E3.77956
G1 X75.826 Y58.701 E3.78099
G1 X75.590 Y58.021 E3.79083
G1 X75.258 Y57.384 E3.80067
G1 X74.831 Y56.790 E3.81067
G1 X74.321 Y56.265 E3.82069
G1 X73.740 Y55.821 E3.83070
G1 X73.112 Y55.470 E3.84054
G1 X72.441 Y55.215 E3.85038
G1 X71.727 Y55.055 E3.86038
G1 X70.977 Y55.000 E3.87067
G1 X69.703 Y55.169 E3.88826
G1 X68.508 Y55.664 E3.90595
G1 X67.462 Y56.463 E3.92397
G1 X66.667 Y57.500 E3.94184
G1 X66.173 Y58.694 E3.95954
G1 X65.997 Y60.000 E3.97756
G1 X66.173 Y61.306 E3.99559
G1 X66.667 Y62.500 E4.01328
G1 X67.462 Y63.537 E4.03116
G1 X68.508 Y64.336 E4.04918
G1 X69.703 Y64.831 E4.06687
G1 X70.977 Y65.000 E4.08445
G1 X71.727 Y64.945 E4.09475
G1 X72.441 Y64.785 E4.10475
G1 X73.112 Y64.530 E4.11459
G1 X73.740 Y64.179 E4.12443
G1 X74.321 Y63.735 E4.13443
G1 X74.831 Y63.210 E4.14446
G1 X75.258 Y62.616 E4.15446
G1 X75.590 Y61.979 E4.16429
G1 X75.826 Y61.299 E4.17413
G1 X75.846 Y61.196 E4.17557
G1 X79.959 Y61.196 E4.23185
G1 X79.959 Y66.429 E4.30345
G1 X80.405 Y66.950 F7800.000
G1 X71.007 Y66.950 E4.43205 F1800.000
G1 X70.266 Y66.911 E4.44220
G1 X69.556 Y66.798 E4.45204
G1 X68.854 Y66.610 E4.46199
G1 X68.174 Y66.349 E4.47195
G1 X67.519 Y66.015 E4.48202
G1 X66.916 Y65.623 E4.49186
G1 X66.350 Y65.165 E4.50181
G1 X65.836 Y64.651 E4.51177
G1 X65.373 Y64.078 E4.52184
G1 X64.982 Y63.475 E4.53168
G1 X64.651 Y62.827 E4.54164
G1 X64.391 Y62.148 E4.55159
G1 X64.201 Y61.437 E4.56166
G1 X64.088 Y60.727 E4.57150
G1 X64.050 Y60.000 E4.58146
G1 X64.088 Y59.273 E4.59141
G1 X64.202 Y58.555 E4.60137
G1 X64.391 Y57.852 E4.61132
G1 X64.651 Y57.173 E4.62128
G1 X64.982 Y56.525 E4.63123
G1 X65.378 Y55.915 E4.64119
G1 X65.836 Y55.349 E4.65115
G1 X66.344 Y54.841 E4.66099
G1 X66.916 Y54.377 E4.67106
G1 X67.526 Y53.981 E4.68101
G1 X68.174 Y53.651 E4.69097
G1 X68.854 Y53.390 E4.70092
G1 X69.556 Y53.202 E4.71088
G1 X70.266 Y53.089 E4.72072
G1 X71.007 Y53.050 E4.73086
G1 X80.405 Y53.050 E4.85947
G1 X80.405 Y59.250 E4.94431
G1 X75.477 Y59.250 E5.01174
G1 X75.394 Y58.817 E5.01778
G1 X75.179 Y58.199 E5.02673
G1 X74.877 Y57.618 E5.03569
G1 X74.488 Y57.078 E5.04480
G1 X74.024 Y56.599 E5.05392
G1 X73.495 Y56.195 E5.06303
G1 X72.923 Y55.876 E5.07199
G1 X72.312 Y55.643 E5.08094
G1 X71.662 Y55.498 E5.09005
G1 X70.990 Y55.449 E5.09927
G1 X69.820 Y55.604 E5.11543
G1 X68.733 Y56.054 E5.13152
G1 X67.780 Y56.782 E5.14793
G1 X67.057 Y57.725 E5.16419
G1 X66.607 Y58.811 E5.18028
G1 X66.448 Y60.000 E5.19669
G1 X66.607 Y61.189 E5.21311
G1 X67.057 Y62.275 E5.22920
G1 X67.780 Y63.218 E5.24546
G1 X68.733 Y63.946 E5.26187
G1 X69.820 Y64.396 E5.27796
G1 X70.990 Y64.551 E5.29412
G1 X71.662 Y64.502 E5.30333
G1 X72.312 Y64.357 E5.31245
G1 X72.923 Y64.124 E5.32140
G1 X73.495 Y63.805 E5.33036
G1 X74.024 Y63.401 E5.33947
G1 X74.488 Y62.922 E5.34859
G1 X74.877 Y62.382 E5.35770
G1 X75.179 Y61.801 E5.36666
G1 X75.394 Y61.183 E5.37561
G1 X75.477 Y60.750 E5.38165
G1 X80.405 Y60.750 E5.44908
G1 X80.405 Y66.875 E5.53289
G1 X79.972 Y66.700 F7800.000
G1 X79.248 Y62.137 F7800.000
G1 X79.018 Y61.907 E5.53753 F1800.000
G1 X78.360 Y61.907 E5.54693
G1 X79.248 Y62.795 E5.56485
G1 X79.248 Y63.454 E5.57425
G1 X77.701 Y61.907 E5.60547
G1 X77.043 Y61.907 E5.61488
G1 X79.248 Y64.112 E5.65939
