; generated by Slic3r 1.2.9 on 2016-02-08 at 22:15:35

; external perimeters extrusion width = 0.50mm
; perimeters extrusion width = 0.50mm
; infill extrusion width = 0.50mm
; solid infill extrusion width = 0.50mm
; top infill extrusion width = 0.50mm

M107
M190 S60 ; set bed temperature
M104 S210 ; set temperature
G28 ; home all axes
M109 S210 ; wait for temperature to be reached
G21 ; set units to millimeters
G90 ; use absolute coordinates
M82 ; use absolute distances for extrusion
G92 E0
G1 Z0.350 F7800.000
G1 E-2.00000 F1920.00000
G92 E0
G1 X40.217 Y37.768 F7800.000
G1 E2.00000 F1920.00000
M204 S3000
G1 X40.768 Y37.217 E2.00592 F1500.000
G1 X41.183 Y36.899 E2.00989
G1 X41.857 Y36.510 E2.01581
G1 X42.340 Y36.310 E2.01977
G1 X43.093 Y36.108 E2.02570
G1 X43.611 Y36.040 E2.02967
G1 X44.000 Y36.015 E2.03263
G1 X126.000 Y36.015 E2.65560
G1 X126.389 Y36.040 E2.65857
G1 X126.907 Y36.108 E2.66254 F1500.000
G1 X127.660 Y36.310 E2.66846
G1 X128.142 Y36.510 E2.67243
G1 X128.817 Y36.899 E2.67835
G1 X129.232 Y37.217 E2.68231
G1 X129.783 Y37.768 E2.68823
G1 X130.101 Y38.183 E2.69220
G1 X130.490 Y38.857 E2.69812
G1 X130.690 Y39.340 E2.70209
G1 X130.892 Y40.093 E2.70801
G1 X130.960 Y40.610 E2.71198
G1 X130.985 Y41.000 E2.71494
G1 X130.985 Y79.000 E3.00364
G1 X130.960 Y79.390 E3.00660
G1 X130.892 Y79.907 E3.01057
G1 X130.690 Y80.659 E3.01649
G1 X130.490 Y81.143 E3.02046
G1 X130.101 Y81.817 E3.02638
G1 X129.782 Y82.232 E3.03035
G1 X129.232 Y82.783 E3.03627
G1 X128.817 Y83.101 E3.04023
G1 X128.143 Y83.490 E3.04615
G1 X127.660 Y83.690 E3.05012
G1 X126.907 Y83.892 E3.05604
G1 X126.390 Y83.960 E3.06001
G1 X126.000 Y83.985 E3.06298
G1 X90.000 Y83.985 E3.33648
G1 X89.610 Y83.960 E3.33944
G1 X89.092 Y83.892 E3.34341
G1 X88.502 Y83.752 E3.34803
G1 X42.502 Y67.752 E3.71804
G1 X41.858 Y67.490 E3.72332
G1 X41.183 Y67.101 E3.72924
G1 X40.768 Y66.783 E3.73320
G1 X40.217 Y66.232 E3.73912
G1 X39.899 Y65.817 E3.74309
G1 X39.510 Y65.142 E3.74901
G1 X39.310 Y64.660 E3.75298
G1 X39.108 Y63.907 E3.75890
G1 X39.040 Y63.389 E3.76287
G1 X39.015 Y63.000 E3.76583
G1 X39.015 Y41.000 E3.93297
G1 X39.040 Y40.610 E3.93594
G1 X39.108 Y40.092 E3.93991
G1 X39.310 Y39.340 E3.94583
G1 X39.510 Y38.857 E3.94980
G1 X39.899 Y38.183 E3.95571
G1 X40.172 Y37.828 E3.95911
G1 X40.413 Y37.918 F7800.000
G4 P31
G1 X40.918 Y37.413 E3.96454 F1500.000
G1 X41.333 Y37.095 E3.96851
G1 X41.952 Y36.737 E3.97394
G1 X42.434 Y36.538 E3.97791
G1 X43.125 Y36.353 E3.98334
G1 X43.643 Y36.284 E3.98731
G1 X44.000 Y36.261 E3.99003
G1 X126.000 Y36.261 E4.61301
G1 X126.357 Y36.284 E4.61573
G1 X126.875 Y36.353 E4.61969 F1500.000
G1 X127.566 Y36.538 E4.62513
G1 X128.048 Y36.737 E4.62909
G1 X128.667 Y37.095 E4.63452
G1 X129.082 Y37.413 E4.63849
G1 X129.587 Y37.918 E4.64392
G1 X129.905 Y38.333 E4.64789
G1 X130.263 Y38.952 E4.65332
G1 X130.462 Y39.434 E4.65729
G1 X130.647 Y40.125 E4.66272
G1 X130.716 Y40.643 E4.66669
G1 X130.739 Y41.000 E4.66941
G1 X130.739 Y79.000 E4.95811
G1 X130.716 Y79.357 E4.96083
G1 X130.647 Y79.875 E4.96479
G1 X130.463 Y80.565 E4.97022
G1 X130.263 Y81.048 E4.97419
G1 X129.905 Y81.667 E4.97963
G1 X129.587 Y82.082 E4.98360
G1 X129.082 Y82.587 E4.98902
G1 X128.667 Y82.905 E4.99299
G1 X128.048 Y83.263 E4.99842
G1 X127.566 Y83.462 E5.00239
G1 X126.875 Y83.647 E5.00782
G1 X126.358 Y83.716 E5.01179
G1 X126.000 Y83.739 E5.01451
G1 X90.000 Y83.739 E5.28801
G1 X89.642 Y83.716 E5.29073
G1 X89.124 Y83.647 E5.29470
G1 X88.583 Y83.519 E5.29894
G1 X42.583 Y67.519 E5.66895
G1 X41.952 Y67.263 E5.67412
G1 X41.333 Y66.905 E5.67955
G1 X40.918 Y66.587 E5.68352
G1 X40.413 Y66.082 E5.68895
G1 X40.095 Y65.667 E5.69292
G1 X39.737 Y65.048 E5.69835
G1 X39.538 Y64.566 E5.70231
G1 X39.353 Y63.875 E5.70775
G1 X39.284 Y63.357 E5.71172
G1 X39.261 Y63.000 E5.71444
G1 X39.261 Y41.000 E5.88158
G1 X39.284 Y40.642 E5.88430
G1 X39.353 Y40.124 E5.88827
G1 X39.538 Y39.434 E5.89370
G1 X39.738 Y38.952 E5.89766
G1 X40.095 Y38.333 E5.90309
G1 X40.367 Y37.978 E5.90649
G1 X40.608 Y38.068 F7800.000
G4 P31
G1 X41.068 Y37.608 E5.91144 F1500.000
G1 X41.483 Y37.290 E5.91540
G1 X42.046 Y36.965 E5.92034
G1 X42.528 Y36.765 E5.92431
G1 X43.157 Y36.597 E5.92926
G1 X43.675 Y36.529 E5.93323
G1 X44.000 Y36.507 E5.93570
G1 X126.000 Y36.507 E6.55868
G1 X126.325 Y36.529 E6.56115
G1 X126.843 Y36.597 E6.56512 F1500.000
G1 X127.472 Y36.765 E6.57006
G1 X127.954 Y36.965 E6.57403
G1 X128.517 Y37.290 E6.57897
G1 X128.932 Y37.608 E6.58294
G1 X129.392 Y38.068 E6.58788
G1 X129.710 Y38.483 E6.59185
G1 X130.035 Y39.046 E6.59679
G1 X130.235 Y39.528 E6.60076
G1 X130.403 Y40.157 E6.60570
G1 X130.471 Y40.675 E6.60967
G1 X130.493 Y41.000 E6.61215
G1 X130.493 Y79.000 E6.90084
G1 X130.471 Y79.325 E6.90332
G1 X130.403 Y79.843 E6.90729
G1 X130.235 Y80.471 E6.91223
G1 X130.035 Y80.954 E6.91620
G1 X129.710 Y81.517 E6.92114
G1 X129.391 Y81.932 E6.92511
G1 X128.932 Y82.392 E6.93005
G1 X128.517 Y82.710 E6.93402
G1 X127.954 Y83.035 E6.93896
G1 X127.472 Y83.235 E6.94293
G1 X126.843 Y83.403 E6.94787
G1 X126.325 Y83.471 E6.95184
G1 X126.000 Y83.493 E6.95432
G1 X90.000 Y83.493 E7.22782
G1 X89.675 Y83.471 E7.23029
G1 X89.157 Y83.403 E7.23426
G1 X88.663 Y83.286 E7.23811
G1 X42.663 Y67.286 E7.60813
G1 X42.046 Y67.035 E7.61319
G1 X41.483 Y66.710 E7.61813
G1 X41.068 Y66.392 E7.62210
G1 X40.608 Y65.932 E7.62704
G1 X40.290 Y65.517 E7.63101
G1 X39.965 Y64.954 E7.63595
G1 X39.765 Y64.472 E7.63992
G1 X39.597 Y63.843 E7.64486
G1 X39.529 Y63.325 E7.64883
G1 X39.507 Y63.000 E7.65131
G1 X39.507 Y41.000 E7.81845
G1 X39.529 Y40.675 E7.82092
G1 X39.597 Y40.157 E7.82489
G1 X39.765 Y39.528 E7.82983
G1 X39.965 Y39.046 E7.83380
G1 X40.290 Y38.483 E7.83874
G1 X40.563 Y38.128 E7.84214
G1 X40.804 Y38.218 F7800.000
G4 P31
G1 X41.218 Y37.804 E7.84660 F1500.000
G1 X41.633 Y37.486 E7.85056
G1 X42.140 Y37.193 E7.85502
G1 X42.623 Y36.993 E7.85898
G1 X43.189 Y36.841 E7.86344
G1 X44.000 Y36.754 E7.86964
G1 X126.000 Y36.754 E8.49261
G1 X126.293 Y36.773 E8.49484
G1 X126.811 Y36.841 E8.49881 F1500.000
G1 X127.377 Y36.993 E8.50327
G1 X127.860 Y37.193 E8.50723
G1 X128.367 Y37.486 E8.51169
G1 X128.782 Y37.804 E8.51565
G1 X129.196 Y38.218 E8.52011
G1 X129.514 Y38.633 E8.52408
G1 X129.807 Y39.140 E8.52853
G1 X130.007 Y39.623 E8.53250
G1 X130.159 Y40.189 E8.53695
G1 X130.227 Y40.707 E8.54092
G1 X130.246 Y41.000 E8.54315
G1 X130.246 Y79.000 E8.83185
G1 X130.159 Y79.811 E8.83804
G1 X130.007 Y80.377 E8.84249
G1 X129.807 Y80.860 E8.84646
G1 X129.514 Y81.367 E8.85092
G1 X129.196 Y81.782 E8.85489
G1 X128.782 Y82.196 E8.85934
G1 X128.367 Y82.514 E8.86331
G1 X127.860 Y82.807 E8.86776
G1 X127.377 Y83.007 E8.87173
G1 X126.811 Y83.159 E8.87618
G1 X126.000 Y83.246 E8.88238
G1 X90.000 Y83.246 E9.15588
G1 X89.189 Y83.159 E9.16208
G1 X88.744 Y83.054 E9.16555
G1 X42.744 Y67.054 E9.53556
G1 X42.140 Y66.807 E9.54052
G1 X41.633 Y66.514 E9.54497
G1 X41.218 Y66.196 E9.54894
G1 X40.804 Y65.782 E9.55339
G1 X40.486 Y65.367 E9.55736
G1 X40.193 Y64.860 E9.56181
G1 X39.993 Y64.377 E9.56578
G1 X39.841 Y63.811 E9.57024
G1 X39.754 Y63.000 E9.57643
G1 X39.754 Y41.000 E9.74357
G1 X39.841 Y40.189 E9.74977
G1 X39.993 Y39.623 E9.75422
G1 X40.193 Y39.140 E9.75819
G1 X40.486 Y38.633 E9.76264
G1 X40.758 Y38.278 E9.76604
G1 E7.76604 F1920.00000
G92 E0
G1 X112.590 Y39.643 F7800.000
G1 E2.00000 F1920.00000
G1 X125.958 Y39.643 E2.10156 F1500.000
G1 X126.350 Y39.694 E2.10456
G1 X126.676 Y39.829 E2.10724
G1 X126.956 Y40.044 E2.10993
G1 X127.171 Y40.324 E2.11261
G1 X127.306 Y40.650 E2.11529
G1 X127.357 Y41.042 E2.11829
G1 X127.357 Y46.958 E2.16323
G1 X127.306 Y47.350 E2.16624
G1 X127.171 Y47.676 E2.16892
G1 X126.956 Y47.956 E2.17160
G1 X126.676 Y48.171 E2.17428
G1 X126.350 Y48.306 E2.17696
G1 X125.958 Y48.357 E2.17997
G1 X90.042 Y48.357 E2.45283
G1 X89.650 Y48.306 E2.45583
G1 X89.324 Y48.171 E2.45851
G1 X89.044 Y47.956 E2.46119
G1 X88.829 Y47.676 E2.46387
G1 X88.694 Y47.350 E2.46655
G1 X88.643 Y46.958 E2.46956
G1 X88.643 Y41.042 E2.51450
G1 X88.694 Y40.650 E2.51751
G1 X88.829 Y40.324 E2.52019
G1 X89.044 Y40.044 E2.52287
G1 X89.324 Y39.829 E2.52555
G1 X89.650 Y39.694 E2.52823
G1 X90.042 Y39.643 E2.53123
G1 X103.410 Y39.643 E2.63279
G1 X103.678 Y40.710 E2.64115
G1 X104.277 Y41.784 E2.65049
G1 X105.138 Y42.663 E2.65984
G1 X106.198 Y43.285 E2.66918
G1 X107.385 Y43.608 E2.67852
G1 X108.615 Y43.608 E2.68787
G1 X109.802 Y43.285 E2.69721
G1 X110.862 Y42.663 E2.70656
G1 X111.723 Y41.784 E2.71590
G1 X112.322 Y40.710 E2.72524
G1 X112.572 Y39.715 E2.73303
G1 X112.444 Y39.405 F7800.000
G4 P30
G1 X125.974 Y39.396 E2.83583 F1500.000
G1 X126.414 Y39.454 E2.83920
G1 X126.800 Y39.614 E2.84237
G1 X127.132 Y39.868 E2.84555
G1 X127.386 Y40.200 E2.84872
G1 X127.546 Y40.586 E2.85189
G1 X127.604 Y41.026 E2.85527
G1 X127.604 Y46.974 E2.90045
G1 X127.546 Y47.414 E2.90383
G1 X127.386 Y47.800 E2.90700
G1 X127.132 Y48.132 E2.91018
G1 X126.800 Y48.386 E2.91335
G1 X126.414 Y48.546 E2.91652
G1 X125.974 Y48.604 E2.91990
G1 X90.026 Y48.604 E3.19300
G1 X89.586 Y48.546 E3.19637
G1 X89.200 Y48.386 E3.19955
G1 X88.868 Y48.132 E3.20272
G1 X88.614 Y47.800 E3.20590
G1 X88.454 Y47.414 E3.20907
G1 X88.396 Y46.974 E3.21244
G1 X88.396 Y41.026 E3.25763
G1 X88.454 Y40.586 E3.26100
G1 X88.614 Y40.200 E3.26418
G1 X88.868 Y39.868 E3.26735
G1 X89.200 Y39.614 E3.27053
G1 X89.586 Y39.454 E3.27370
G1 X90.026 Y39.396 E3.27707
G1 X103.556 Y39.405 E3.37987
G1 X103.618 Y39.459 E3.38049
G1 X103.909 Y40.619 E3.38957
G1 X104.476 Y41.635 E3.39842
G1 X105.291 Y42.467 E3.40726
G1 X106.295 Y43.056 E3.41610
G1 X107.418 Y43.361 E3.42495
G1 X108.582 Y43.361 E3.43379
G1 X109.705 Y43.056 E3.44263
G1 X110.709 Y42.467 E3.45148
G1 X111.524 Y41.635 E3.46032
G1 X112.091 Y40.619 E3.46916
G1 X112.387 Y39.451 E3.47832
G1 X112.372 Y39.166 F7800.000
G4 P31
G1 X112.483 Y39.150 E3.47917 F1500.000
G1 X125.990 Y39.150 E3.58179
G1 X126.478 Y39.214 E3.58553
G1 X126.924 Y39.399 E3.58920
G1 X127.307 Y39.693 E3.59286
G1 X127.601 Y40.076 E3.59653
G1 X127.786 Y40.522 E3.60020
G1 X127.850 Y41.010 E3.60394
G1 X127.850 Y46.990 E3.64937
G1 X127.786 Y47.478 E3.65311
G1 X127.601 Y47.924 E3.65678
G1 X127.307 Y48.307 E3.66045
G1 X126.924 Y48.601 E3.66411
G1 X126.478 Y48.786 E3.66778
G1 X125.990 Y48.850 E3.67152
G1 X90.010 Y48.850 E3.94487
G1 X89.522 Y48.786 E3.94861
G1 X89.076 Y48.601 E3.95228
G1 X88.693 Y48.307 E3.95595
G1 X88.399 Y47.924 E3.95961
G1 X88.214 Y47.478 E3.96328
G1 X88.150 Y46.990 E3.96702
G1 X88.150 Y41.010 E4.01246
G1 X88.214 Y40.522 E4.01620
G1 X88.399 Y40.076 E4.01987
G1 X88.693 Y39.693 E4.02353
G1 X89.076 Y39.399 E4.02720
G1 X89.522 Y39.214 E4.03086
G1 X90.010 Y39.150 E4.03461
G1 X103.519 Y39.150 E4.13724
G1 X103.628 Y39.166 E4.13808
G1 X103.720 Y39.209 E4.13885
G1 X103.795 Y39.277 E4.13962
G1 X103.848 Y39.363 E4.14038
G1 X104.140 Y40.527 E4.14950
G1 X104.675 Y41.486 E4.15785
G1 X105.444 Y42.271 E4.16619
G1 X106.391 Y42.827 E4.17453
G1 X107.451 Y43.115 E4.18288
G1 X108.549 Y43.115 E4.19122
G1 X109.609 Y42.827 E4.19957
G1 X110.556 Y42.271 E4.20791
G1 X111.325 Y41.486 E4.21626
G1 X111.860 Y40.527 E4.22460
G1 X112.152 Y39.363 E4.23372
G1 X112.205 Y39.277 E4.23448
G1 X112.304 Y39.198 E4.23545
G1 X112.454 Y39.243 F7800.000
G1 E2.23545 F1920.00000
G92 E0
G1 X106.223 Y43.450 F7800.000
G1 E2.00000 F1920.00000
G1 X110.993 Y48.220 E2.05158 F1500.000
G1 X111.344 Y48.220 E2.05426
G1 X106.704 Y43.581 E2.10442
G1 X107.186 Y43.712 E2.10823
G1 X111.694 Y48.220 E2.15698
G1 X112.045 Y48.220 E2.15966
G1 X107.569 Y43.745 E2.20805
G1 X107.920 Y43.745 E2.21073
G1 X112.395 Y48.220 E2.25912
G1 X112.746 Y48.220 E2.26180
G1 X108.270 Y43.745 E2.31019
G1 X108.614 Y43.738 E2.31282
G1 X113.097 Y48.220 E2.36128
G1 X113.447 Y48.220 E2.36396
G1 X108.890 Y43.663 E2.41324
G1 X109.165 Y43.588 E2.41542
G1 X113.798 Y48.220 E2.46551
G1 X114.148 Y48.220 E2.46819
G1 X109.441 Y43.513 E2.51909
G1 X109.717 Y43.438 E2.52127
G1 X114.499 Y48.220 E2.57298
G1 X114.850 Y48.220 E2.57566
G1 X109.959 Y43.329 E2.62854
G1 X110.180 Y43.200 E2.63049
G1 X115.200 Y48.220 E2.68477
G1 X115.551 Y48.220 E2.68745
G1 X110.401 Y43.070 E2.74314
G1 X110.622 Y42.940 E2.74510
G1 X115.901 Y48.220 E2.80218
G1 X116.252 Y48.220 E2.80486
G1 X110.843 Y42.811 E2.86335
G1 X111.034 Y42.652 E2.86525
G1 X116.603 Y48.220 E2.92545
G1 X116.953 Y48.220 E2.92813
G1 X111.208 Y42.475 E2.99025
G1 X111.381 Y42.298 E2.99215
G1 X117.304 Y48.220 E3.05618
G1 X117.654 Y48.220 E3.05886
G1 X111.555 Y42.120 E3.12481
G1 X111.728 Y41.943 E3.12671
G1 X118.005 Y48.220 E3.19457
G1 X118.355 Y48.220 E3.19725
G1 X111.880 Y41.745 E3.26727
G1 X112.006 Y41.520 E3.26924
G1 X118.706 Y48.220 E3.34168
G1 X119.057 Y48.220 E3.34436
G1 X112.131 Y41.295 E3.41924
G1 X112.257 Y41.070 E3.42121
G1 X119.407 Y48.220 E3.49852
G1 X119.758 Y48.220 E3.50120
G1 X112.383 Y40.845 E3.58094
G1 X112.481 Y40.593 E3.58301
G1 X120.108 Y48.220 E3.66547
G1 X120.459 Y48.220 E3.66815
G1 X112.552 Y40.313 E3.75364
G1 X112.622 Y40.033 E3.75585
G1 X120.810 Y48.220 E3.84438
G1 X121.160 Y48.220 E3.84706
G1 X112.720 Y39.780 E3.93831
G1 X113.070 Y39.780 E3.94100
G1 X121.511 Y48.220 E4.03225
G1 X121.861 Y48.220 E4.03493
G1 X113.421 Y39.780 E4.12619
G1 X113.772 Y39.780 E4.12887
G1 X122.212 Y48.220 E4.22013
G1 X122.563 Y48.220 E4.22281
G1 X114.122 Y39.780 E4.31407
G1 X114.473 Y39.780 E4.31675
G1 X122.913 Y48.220 E4.40800
G1 X123.264 Y48.220 E4.41068
G1 X114.823 Y39.780 E4.50194
G1 X115.174 Y39.780 E4.50462
G1 X123.614 Y48.220 E4.59588
G1 X123.965 Y48.220 E4.59856
G1 X115.525 Y39.780 E4.68982
G1 X115.875 Y39.780 E4.69250
G1 X124.316 Y48.220 E4.78375
G1 X124.666 Y48.220 E4.78643
G1 X116.226 Y39.780 E4.87769
G1 X116.576 Y39.780 E4.88037
G1 X125.017 Y48.220 E4.97163
G1 X125.367 Y48.220 E4.97431
G1 X116.927 Y39.780 E5.06557
G1 X117.277 Y39.780 E5.06825
G1 X125.718 Y48.220 E5.15950
G1 X126.060 Y48.212 E5.16212
G1 X117.628 Y39.780 E5.25329
G1 X117.979 Y39.780 E5.25597
G1 X126.367 Y48.168 E5.34666
G1 X126.614 Y48.065 E5.34871
G1 X118.329 Y39.780 E5.43829
G1 X118.680 Y39.780 E5.44097
G1 X126.809 Y47.909 E5.52886
G1 X126.982 Y47.731 E5.53076
G1 X119.030 Y39.780 E5.61673
G1 X119.381 Y39.780 E5.61941
G1 X127.109 Y47.508 E5.70296
G1 X127.189 Y47.237 E5.70512
G1 X119.732 Y39.780 E5.78575
G1 X120.082 Y39.780 E5.78843
G1 X127.220 Y46.918 E5.86561
G1 X127.220 Y46.567 E5.86829
G1 X120.433 Y39.780 E5.94167
G1 X120.783 Y39.780 E5.94435
G1 X127.220 Y46.217 E6.01395
G1 X127.220 Y45.866 E6.01663
G1 X121.134 Y39.780 E6.08243
G1 X121.485 Y39.780 E6.08511
G1 X127.220 Y45.515 E6.14712
G1 X127.220 Y45.165 E6.14980
G1 X121.835 Y39.780 E6.20803
G1 X122.186 Y39.780 E6.21071
G1 X127.220 Y44.814 E6.26514
G1 X127.220 Y44.464 E6.26782
G1 X122.536 Y39.780 E6.31846
G1 X122.887 Y39.780 E6.32114
G1 X127.220 Y44.113 E6.36799
G1 X127.220 Y43.762 E6.37067
G1 X123.238 Y39.780 E6.41373
G1 X123.588 Y39.780 E6.41641
G1 X127.220 Y43.412 E6.45568
G1 X127.220 Y43.061 E6.45836
G1 X123.939 Y39.780 E6.49384
G1 X124.289 Y39.780 E6.49652
G1 X127.220 Y42.711 E6.52821
G1 X127.220 Y42.360 E6.53089
G1 X124.640 Y39.780 E6.55879
G1 X124.990 Y39.780 E6.56147
G1 X127.220 Y42.010 E6.58558
G1 X127.220 Y41.659 E6.58826
G1 X125.341 Y39.780 E6.60858
G1 X125.692 Y39.780 E6.61126
G1 X127.220 Y41.308 E6.62778
G1 X127.198 Y40.935 E6.63064
G1 X126.065 Y39.802 E6.64289
G1 X126.646 Y40.033 F7800.000
G1 X126.967 Y40.354 E6.64636 F1500.000
G1 E4.64636 F1920.00000
G92 E0
G4 P10
G1 X105.489 Y43.067 F7800.000
G1 E2.00000 F1920.00000
G1 X110.642 Y48.220 E2.05572 F1500.000
G1 X110.292 Y48.220 E2.05840
G1 X101.852 Y39.780 E2.14965
G1 X102.202 Y39.780 E2.15233
G1 X103.928 Y41.506 E2.17099
G1 X103.535 Y40.762 F7800.000
G1 X102.553 Y39.780 E2.18161 F1500.000
G1 X102.904 Y39.780 E2.18429
G1 X103.417 Y40.294 E2.18984
G4 P4
G1 X101.501 Y39.780 F7800.000
G4 P18
G1 X109.941 Y48.220 E2.28110 F1500.000
G1 X109.591 Y48.220 E2.28378
G1 X101.151 Y39.780 E2.37503
G1 X100.800 Y39.780 E2.37771
G1 X109.240 Y48.220 E2.46897
G1 X108.890 Y48.220 E2.47165
G1 X100.449 Y39.780 E2.56290
G1 X100.099 Y39.780 E2.56558
G1 X108.539 Y48.220 E2.65684
G1 X108.188 Y48.220 E2.65952
G1 X99.748 Y39.780 E2.75077
G1 X99.398 Y39.780 E2.75345
G1 X107.838 Y48.220 E2.84471
G1 X107.487 Y48.220 E2.84739
G1 X99.047 Y39.780 E2.93864
G1 X98.696 Y39.780 E2.94132
