; generated by Slic3r 1.2.9 on 2015-12-27 at 22:35:29

; external perimeters extrusion width = 0.50mm
; perimeters extrusion width = 0.50mm
; infill extrusion width = 0.50mm
; solid infill extrusion width = 0.50mm
; top infill extrusion width = 0.50mm

M107
M190 S70 ; set bed temperature
M104 S220 ; set temperature
G28 ; home all axes
M109 S220 ; wait for temperature to be reached
G21 ; set units to millimeters
G90 ; use absolute coordinates
M82 ; use absolute distances for extrusion
G92 E0
G1 Z0.350 F7800.000
G1 E-2.00000 F1920.00000
G92 E0
G1 X60.235 Y19.480 F7800.000
G1 E2.00000 F1920.00000
M204 S3000
G1 X60.435 Y18.998 E2.00715 F1800.000
G1 X61.117 Y17.815 E2.02583
G1 X61.435 Y17.401 E2.03298
G1 X62.401 Y16.435 E2.05167
G1 X62.815 Y16.117 E2.05881
G1 X63.998 Y15.434 E2.07750
G1 X64.480 Y15.235 E2.08464
G1 X65.800 Y14.881 E2.10333
G1 X66.317 Y14.813 E2.11048
G1 X67.000 Y14.768 E2.11984
G1 X103.000 Y14.768 E2.61247
G1 X103.683 Y14.813 E2.62183
G1 X104.200 Y14.881 E2.62898 F1800.000
G1 X105.520 Y15.235 E2.64767
G1 X106.002 Y15.434 E2.65481
G1 X107.185 Y16.117 E2.67350
G1 X107.599 Y16.435 E2.68064
G1 X108.565 Y17.401 E2.69933
G1 X108.883 Y17.815 E2.70648
G1 X109.566 Y18.998 E2.72517
G1 X109.765 Y19.480 E2.73231
G1 X110.119 Y20.800 E2.75100
G1 X110.187 Y21.317 E2.75815
G1 X110.232 Y22.000 E2.76751
G1 X110.232 Y98.000 E3.80750
G1 X110.187 Y98.683 E3.81686
G1 X110.119 Y99.201 E3.82401
G1 X109.766 Y100.519 E3.84268
G1 X109.566 Y101.002 E3.84984
G1 X108.883 Y102.185 E3.86853
G1 X108.564 Y102.600 E3.87569
G1 X107.600 Y103.564 E3.89435
G1 X107.185 Y103.883 E3.90151
G1 X106.002 Y104.566 E3.92020
G1 X105.519 Y104.766 E3.92735
G1 X104.200 Y105.119 E3.94603
G1 X103.683 Y105.187 E3.95318
G1 X103.000 Y105.232 E3.96254
G1 X67.000 Y105.232 E4.45517
G1 X66.318 Y105.187 E4.46452
G1 X65.800 Y105.119 E4.47167
G1 X64.481 Y104.766 E4.49035
G1 X63.998 Y104.566 E4.49751
G1 X62.815 Y103.883 E4.51620
G1 X62.400 Y103.564 E4.52335
G1 X61.435 Y102.599 E4.54203
G1 X61.117 Y102.185 E4.54918
G1 X60.434 Y101.002 E4.56786
G1 X60.235 Y100.520 E4.57501
G1 X59.881 Y99.201 E4.59369
G1 X59.813 Y98.683 E4.60084
G1 X59.768 Y98.000 E4.61021
G1 X59.768 Y22.000 E5.65019
G1 X59.813 Y21.317 E5.65956
G1 X59.881 Y20.799 E5.66670
G1 X60.215 Y19.553 E5.68437
G1 X60.647 Y19.651 F7800.000
G4 P29
G1 X60.847 Y19.168 E5.69151 F1800.000
G1 X61.471 Y18.087 E5.70860
G1 X61.789 Y17.673 E5.71575
G1 X62.673 Y16.789 E5.73284
G1 X63.087 Y16.471 E5.73999
G1 X64.169 Y15.847 E5.75708
G1 X64.651 Y15.647 E5.76423
G1 X65.858 Y15.324 E5.78132
G1 X66.376 Y15.256 E5.78847
G1 X67.000 Y15.215 E5.79703
G1 X103.000 Y15.215 E6.28966
G1 X103.625 Y15.256 E6.29822
G1 X104.142 Y15.324 E6.30537 F1800.000
G1 X105.349 Y15.647 E6.32246
G1 X105.831 Y15.847 E6.32961
G1 X106.913 Y16.471 E6.34670
G1 X107.327 Y16.789 E6.35385
G1 X108.211 Y17.673 E6.37094
G1 X108.529 Y18.087 E6.37809
G1 X109.153 Y19.169 E6.39518
G1 X109.353 Y19.651 E6.40232
G1 X109.676 Y20.858 E6.41942
G1 X109.744 Y21.375 E6.42656
G1 X109.785 Y22.000 E6.43513
G1 X109.785 Y98.000 E7.47512
G1 X109.744 Y98.625 E7.48368
G1 X109.676 Y99.142 E7.49083
G1 X109.353 Y100.348 E7.50791
G1 X109.153 Y100.831 E7.51507
G1 X108.529 Y101.913 E7.53216
G1 X108.210 Y102.328 E7.53932
G1 X107.328 Y103.210 E7.55639
G1 X106.913 Y103.529 E7.56354
G1 X105.831 Y104.153 E7.58064
G1 X105.348 Y104.353 E7.58779
G1 X104.142 Y104.676 E7.60488
G1 X103.625 Y104.744 E7.61202
G1 X103.000 Y104.785 E7.62059
G1 X67.000 Y104.785 E8.11321
G1 X66.376 Y104.745 E8.12177
G1 X65.858 Y104.676 E8.12892
G1 X64.652 Y104.353 E8.14601
G1 X64.169 Y104.153 E8.15316
G1 X63.087 Y103.529 E8.17026
G1 X62.672 Y103.210 E8.17741
G1 X61.789 Y102.327 E8.19450
G1 X61.471 Y101.913 E8.20164
G1 X60.847 Y100.831 E8.21874
G1 X60.647 Y100.349 E8.22588
G1 X60.324 Y99.143 E8.24297
G1 X60.256 Y98.625 E8.25012
G1 X60.215 Y98.000 E8.25869
G1 X60.215 Y22.000 E9.29867
G1 X60.256 Y21.375 E9.30724
G1 X60.324 Y20.858 E9.31438
G1 X60.628 Y19.724 E9.33045
G1 X61.059 Y19.822 F7800.000
G4 P29
G1 X61.259 Y19.339 E9.33760 F1800.000
G1 X61.826 Y18.359 E9.35310
G1 X62.143 Y17.944 E9.36024
G1 X62.944 Y17.143 E9.37574
G1 X63.359 Y16.826 E9.38289
G1 X64.339 Y16.259 E9.39838
G1 X64.822 Y16.059 E9.40553
G1 X65.916 Y15.766 E9.42103
G1 X66.434 Y15.698 E9.42818
G1 X67.000 Y15.661 E9.43594
G1 X103.000 Y15.661 E9.92857
G1 X103.566 Y15.698 E9.93633
G1 X104.084 Y15.766 E9.94348 F1800.000
G1 X105.178 Y16.059 E9.95898
G1 X105.661 Y16.259 E9.96612
G1 X106.641 Y16.826 E9.98162
G1 X107.056 Y17.143 E9.98877
G1 X107.857 Y17.944 E10.00427
G1 X108.174 Y18.359 E10.01141
G1 X108.741 Y19.339 E10.02691
G1 X108.941 Y19.822 E10.03406
G1 X109.234 Y20.916 E10.04956
G1 X109.302 Y21.434 E10.05670
G1 X109.339 Y22.000 E10.06447
G1 X109.339 Y98.000 E11.10445
G1 X109.302 Y98.566 E11.11222
G1 X109.234 Y99.084 E11.11937
G1 X108.941 Y100.177 E11.13485
G1 X108.741 Y100.661 E11.14201
G1 X108.174 Y101.641 E11.15751
G1 X107.856 Y102.056 E11.16466
G1 X107.056 Y102.856 E11.18014
G1 X106.641 Y103.174 E11.18730
G1 X105.660 Y103.741 E11.20280
G1 X105.178 Y103.941 E11.20995
G1 X104.084 Y104.234 E11.22545
G1 X103.566 Y104.302 E11.23259
G1 X103.000 Y104.339 E11.24036
G1 X67.000 Y104.339 E11.73298
G1 X66.434 Y104.302 E11.74074
G1 X65.916 Y104.234 E11.74789
G1 X64.823 Y103.941 E11.76338
G1 X64.340 Y103.741 E11.77054
G1 X63.359 Y103.174 E11.78604
G1 X62.944 Y102.856 E11.79319
G1 X62.143 Y102.056 E11.80868
G1 X61.826 Y101.641 E11.81583
G1 X61.259 Y100.661 E11.83133
G1 X61.059 Y100.178 E11.83847
G1 X60.766 Y99.085 E11.85396
G1 X60.698 Y98.566 E11.86112
G1 X60.661 Y98.000 E11.86888
G1 X60.661 Y22.000 E12.90887
G1 X60.698 Y21.434 E12.91664
G1 X60.766 Y20.916 E12.92378
G1 X61.040 Y19.894 E12.93826
G1 X61.472 Y19.993 F7800.000
G4 P29
G1 X61.672 Y19.510 E12.94540 F1800.000
G1 X62.180 Y18.630 E12.95930
G1 X62.497 Y18.216 E12.96645
G1 X63.216 Y17.497 E12.98036
G1 X63.630 Y17.180 E12.98750
G1 X64.510 Y16.672 E13.00141
G1 X64.993 Y16.472 E13.00855
G1 X65.974 Y16.209 E13.02246
G1 X66.492 Y16.141 E13.02960
G1 X67.000 Y16.107 E13.03657
G1 X103.000 Y16.107 E13.52919
G1 X103.508 Y16.141 E13.53616
G1 X104.026 Y16.209 E13.54331 F1800.000
G1 X105.007 Y16.472 E13.55721
G1 X105.490 Y16.672 E13.56436
G1 X106.370 Y17.180 E13.57826
G1 X106.784 Y17.497 E13.58541
G1 X107.502 Y18.216 E13.59931
G1 X107.820 Y18.630 E13.60646
G1 X108.328 Y19.510 E13.62036
G1 X108.528 Y19.993 E13.62751
G1 X108.791 Y20.974 E13.64141
G1 X108.859 Y21.492 E13.64856
G1 X108.893 Y22.000 E13.65552
G1 X108.893 Y98.000 E14.69551
G1 X108.859 Y98.508 E14.70248
G1 X108.791 Y99.026 E14.70962
G1 X108.529 Y100.006 E14.72352
G1 X108.328 Y100.490 E14.73067
G1 X107.820 Y101.370 E14.74458
G1 X107.502 Y101.784 E14.75173
G1 X106.785 Y102.502 E14.76562
G1 X106.370 Y102.820 E14.77277
G1 X105.490 Y103.328 E14.78668
G1 X105.007 Y103.528 E14.79383
G1 X104.026 Y103.791 E14.80773
G1 X103.508 Y103.859 E14.81488
G1 X103.000 Y103.893 E14.82184
G1 X67.000 Y103.893 E15.31447
G1 X66.492 Y103.859 E15.32143
G1 X65.974 Y103.791 E15.32858
G1 X64.993 Y103.528 E15.34248
G1 X64.510 Y103.328 E15.34963
G1 X63.630 Y102.820 E15.36354
G1 X63.216 Y102.502 E15.37069
G1 X62.498 Y101.784 E15.38459
G1 X62.180 Y101.370 E15.39173
G1 X61.672 Y100.490 E15.40564
G1 X61.472 Y100.007 E15.41278
G1 X61.209 Y99.026 E15.42668
G1 X61.141 Y98.508 E15.43383
G1 X61.107 Y98.000 E15.44080
G1 X61.107 Y22.000 E16.48079
G1 X61.141 Y21.492 E16.48775
G1 X61.209 Y20.974 E16.49490
G1 X61.452 Y20.065 E16.50778
G1 X61.884 Y20.163 F7800.000
G4 P29
G1 X62.084 Y19.681 E16.51492 F1800.000
G1 X62.534 Y18.902 E16.52723
G1 X62.852 Y18.488 E16.53438
G1 X63.488 Y17.852 E16.54669
G1 X63.902 Y17.534 E16.55383
G1 X64.681 Y17.084 E16.56614
G1 X65.163 Y16.884 E16.57329
G1 X66.033 Y16.651 E16.58560
G1 X66.550 Y16.583 E16.59275
G1 X67.000 Y16.554 E16.59891
G1 X103.000 Y16.554 E17.09154
G1 X103.450 Y16.583 E17.09771
G1 X103.967 Y16.651 E17.10485 F1800.000
G1 X104.837 Y16.884 E17.11716
G1 X105.319 Y17.084 E17.12431
G1 X106.098 Y17.534 E17.13662
G1 X106.512 Y17.852 E17.14376
G1 X107.148 Y18.488 E17.15607
G1 X107.466 Y18.902 E17.16322
G1 X107.916 Y19.681 E17.17553
G1 X108.116 Y20.163 E17.18267
G1 X108.349 Y21.033 E17.19499
G1 X108.417 Y21.550 E17.20213
G1 X108.446 Y22.000 E17.20830
G1 X108.446 Y98.000 E18.24829
G1 X108.417 Y98.450 E18.25446
G1 X108.349 Y98.968 E18.26160
G1 X108.116 Y99.836 E18.27390
G1 X107.916 Y100.319 E18.28106
G1 X107.466 Y101.098 E18.29337
G1 X107.148 Y101.513 E18.30052
G1 X106.513 Y102.148 E18.31281
G1 X106.098 Y102.466 E18.31997
G1 X105.319 Y102.916 E18.33228
G1 X104.836 Y103.116 E18.33943
G1 X103.967 Y103.349 E18.35174
G1 X103.450 Y103.417 E18.35888
G1 X103.000 Y103.446 E18.36505
G1 X67.000 Y103.446 E18.85767
G1 X66.550 Y103.417 E18.86384
G1 X66.033 Y103.349 E18.87099
G1 X65.164 Y103.116 E18.88329
G1 X64.681 Y102.916 E18.89044
G1 X63.902 Y102.466 E18.90275
G1 X63.487 Y102.148 E18.90991
G1 X62.852 Y101.512 E18.92221
G1 X62.534 Y101.098 E18.92935
G1 X62.084 Y100.319 E18.94167
G1 X61.884 Y99.836 E18.94881
G1 X61.651 Y98.968 E18.96112
G1 X61.583 Y98.450 E18.96827
G1 X61.554 Y98.000 E18.97443
G1 X61.554 Y22.000 E20.01442
G1 X61.583 Y21.550 E20.02059
G1 X61.651 Y21.032 E20.02774
G1 X61.865 Y20.236 E20.03902
G1 E18.03902 F1920.00000
G92 E0
G1 X101.446 Y93.304 F7800.000
G1 E2.00000 F1920.00000
G1 X101.446 Y98.196 E2.06695 F1800.000
G1 X92.554 Y98.196 E2.18864
G1 X92.554 Y93.304 E2.25559
G1 X101.371 Y93.304 E2.37625
G1 X101.000 Y93.750 F7800.000
G1 X101.000 Y97.750 E2.43099 F1800.000
G1 X93.000 Y97.750 E2.54046
G1 X93.000 Y93.750 E2.59520
G1 X100.925 Y93.750 E2.70364
G1 X101.500 Y93.750 F7800.000
G1 X77.446 Y93.304 F7800.000
G1 X77.446 Y98.196 E2.77060 F1800.000
G1 X68.554 Y98.196 E2.89228
G1 X68.554 Y93.304 E2.95924
G1 X77.371 Y93.304 E3.07990
G1 X77.000 Y93.750 F7800.000
G1 X77.000 Y97.750 E3.13463 F1800.000
G1 X69.000 Y97.750 E3.24411
G1 X69.000 Y93.750 E3.29884
G1 X76.925 Y93.750 E3.40729
G1 X77.500 Y93.750 F7800.000
G1 X81.032 Y85.239 F7800.000
G1 X80.135 Y84.743 E3.42132 F1800.000
G1 X79.298 Y84.149 E3.43535
G1 X78.534 Y83.466 E3.44939
G1 X77.851 Y82.702 E3.46342
G1 X77.257 Y81.865 E3.47745
G1 X76.761 Y80.968 E3.49148
G1 X76.368 Y80.018 E3.50555
G1 X76.078 Y78.995 E3.52009
G1 X75.913 Y78.024 E3.53358
G1 X75.857 Y77.032 E3.54717
G1 X75.857 Y56.968 E3.82173
G1 X75.913 Y55.976 E3.83532
G1 X76.085 Y54.963 E3.84939
G1 X76.384 Y53.943 E3.86393
G1 X76.761 Y53.032 E3.87742
G1 X77.257 Y52.135 E3.89145
G1 X77.851 Y51.298 E3.90548
G1 X78.534 Y50.534 E3.91952
G1 X79.298 Y49.851 E3.93355
G1 X80.135 Y49.257 E3.94758
G1 X81.032 Y48.761 E3.96161
G1 X81.980 Y48.369 E3.97565
G1 X82.968 Y48.084 E3.98971
G1 X84.016 Y47.911 E4.00425
G1 X85.000 Y47.855 E4.01774 F1800.000
G1 X86.024 Y47.913 E4.03177
G1 X87.035 Y48.085 E4.04581
G1 X88.020 Y48.369 E4.05984
G1 X88.968 Y48.761 E4.07387
G1 X89.865 Y49.257 E4.08790
G1 X90.701 Y49.851 E4.10194
G1 X91.466 Y50.534 E4.11597
G1 X92.149 Y51.298 E4.13000
G1 X92.743 Y52.135 E4.14403
G1 X93.239 Y53.032 E4.15807
G1 X93.616 Y53.943 E4.17155
G1 X93.915 Y54.963 E4.18609
G1 X94.087 Y55.976 E4.20016
G1 X94.143 Y56.968 E4.21375
G1 X94.143 Y77.032 E4.48831
G1 X94.087 Y78.024 E4.50191
G1 X93.915 Y79.037 E4.51597
G1 X93.616 Y80.057 E4.53051
G1 X93.239 Y80.968 E4.54400
G1 X92.742 Y81.867 E4.55807
G1 X92.123 Y82.731 E4.57261
G1 X91.466 Y83.466 E4.58610
G1 X90.701 Y84.149 E4.60013
G1 X89.865 Y84.743 E4.61416
G1 X88.968 Y85.239 E4.62819
G1 X88.020 Y85.631 E4.64223
G1 X87.035 Y85.915 E4.65626
G1 X86.024 Y86.087 E4.67029
G1 X85.000 Y86.144 E4.68432
G1 X83.976 Y86.087 E4.69836
G1 X82.965 Y85.915 E4.71239
G1 X81.980 Y85.631 E4.72642
G1 X81.102 Y85.268 E4.73943
G1 X81.226 Y84.836 F7800.000
G4 P29
G1 X80.373 Y84.364 E4.75277 F1800.000
G1 X79.577 Y83.800 E4.76612
G1 X78.850 Y83.150 E4.77947
G1 X78.200 Y82.423 E4.79281
G1 X77.636 Y81.627 E4.80616
G1 X77.164 Y80.774 E4.81951
G1 X76.790 Y79.871 E4.83288
G1 X76.514 Y78.897 E4.84673
G1 X76.357 Y77.974 E4.85954
G1 X76.304 Y77.020 E4.87262
G1 X76.304 Y56.980 E5.14684
G1 X76.357 Y56.026 E5.15992
G1 X76.521 Y55.063 E5.17329
G1 X76.806 Y54.091 E5.18714
G1 X77.164 Y53.226 E5.19995
G1 X77.636 Y52.373 E5.21330
G1 X78.200 Y51.577 E5.22665
G1 X78.850 Y50.850 E5.23999
G1 X79.577 Y50.200 E5.25334
G1 X80.373 Y49.636 E5.26669
G1 X81.226 Y49.164 E5.28003
G1 X82.127 Y48.791 E5.29338
G1 X83.066 Y48.520 E5.30675
G1 X84.065 Y48.355 E5.32060
G1 X85.000 Y48.303 E5.33342 F1800.000
G1 X85.974 Y48.357 E5.34676
G1 X86.935 Y48.521 E5.36011
G1 X87.873 Y48.791 E5.37346
G1 X88.774 Y49.164 E5.38680
G1 X89.627 Y49.636 E5.40015
G1 X90.423 Y50.200 E5.41350
G1 X91.150 Y50.850 E5.42684
G1 X91.800 Y51.577 E5.44019
G1 X92.364 Y52.373 E5.45354
G1 X92.836 Y53.226 E5.46688
G1 X93.194 Y54.091 E5.47970
G1 X93.479 Y55.063 E5.49355
G1 X93.643 Y56.026 E5.50692
G1 X93.696 Y56.980 E5.52000
G1 X93.696 Y77.020 E5.79421
G1 X93.643 Y77.974 E5.80729
G1 X93.479 Y78.937 E5.82066
G1 X93.194 Y79.909 E5.83452
G1 X92.836 Y80.774 E5.84733
G1 X92.364 Y81.629 E5.86070
G1 X91.774 Y82.452 E5.87455
G1 X91.150 Y83.150 E5.88737
G1 X90.423 Y83.800 E5.90071
G1 X89.627 Y84.364 E5.91406
G1 X88.774 Y84.836 E5.92741
G1 X87.873 Y85.209 E5.94075
G1 X86.935 Y85.479 E5.95410
G1 X85.974 Y85.643 E5.96744
G1 X85.000 Y85.697 E5.98079
G1 X84.026 Y85.643 E5.99414
G1 X83.065 Y85.479 E6.00748
G1 X82.127 Y85.209 E6.02083
G1 X81.296 Y84.865 E6.03315
G1 X81.420 Y84.433 F7800.000
G4 P29
G1 X80.611 Y83.986 E6.04581 F1800.000
G1 X79.856 Y83.450 E6.05847
G1 X79.166 Y82.834 E6.07113
G1 X78.550 Y82.144 E6.08379
G1 X78.014 Y81.389 E6.09645
G1 X77.567 Y80.580 E6.10912
G1 X77.212 Y79.724 E6.12178
G1 X76.950 Y78.798 E6.13495
G1 X76.801 Y77.924 E6.14709
G1 X76.750 Y77.007 E6.15966
G1 X76.750 Y56.993 E6.43353
G1 X76.801 Y56.076 E6.44610
G1 X76.957 Y55.164 E6.45876
G1 X77.227 Y54.240 E6.47193
G1 X77.567 Y53.420 E6.48407
G1 X78.014 Y52.611 E6.49673
G1 X78.550 Y51.856 E6.50939
G1 X79.166 Y51.166 E6.52206
G1 X79.856 Y50.550 E6.53472
G1 X80.611 Y50.014 E6.54738
G1 X81.420 Y49.567 E6.56004
G1 X82.275 Y49.213 E6.57270
G1 X83.165 Y48.956 E6.58537
G1 X84.114 Y48.799 E6.59853
G1 X85.000 Y48.750 E6.61068 F1800.000
G1 X85.924 Y48.801 E6.62334
G1 X86.836 Y48.956 E6.63600
G1 X87.725 Y49.213 E6.64866
G1 X88.580 Y49.567 E6.66132
G1 X89.389 Y50.014 E6.67398
G1 X90.144 Y50.550 E6.68664
G1 X90.834 Y51.166 E6.69930
G1 X91.450 Y51.856 E6.71196
G1 X91.986 Y52.611 E6.72462
G1 X92.433 Y53.420 E6.73728
G1 X92.773 Y54.240 E6.74942
G1 X93.043 Y55.164 E6.76259
G1 X93.199 Y56.076 E6.77526
G1 X93.250 Y56.993 E6.78782
G1 X93.250 Y77.007 E7.06170
G1 X93.199 Y77.924 E7.07426
G1 X93.043 Y78.836 E7.08693
G1 X92.773 Y79.760 E7.10010
G1 X92.433 Y80.580 E7.11224
G1 X91.986 Y81.390 E7.12491
G1 X91.425 Y82.172 E7.13808
G1 X90.834 Y82.834 E7.15022
G1 X90.144 Y83.450 E7.16288
G1 X89.389 Y83.986 E7.17554
G1 X88.580 Y84.433 E7.18820
G1 X87.725 Y84.787 E7.20086
G1 X86.836 Y85.044 E7.21352
G1 X85.924 Y85.199 E7.22618
G1 X85.000 Y85.250 E7.23884
G1 X84.076 Y85.199 E7.25150
G1 X83.164 Y85.044 E7.26416
G1 X82.275 Y84.787 E7.27682
G1 X81.490 Y84.462 E7.28846
G1 X81.002 Y84.707 F7800.000
G1 E5.28846 F1920.00000
G92 E0
G4 P29
G1 X75.280 Y34.443 F7800.000
G1 E2.00000 F1920.00000
G1 X74.166 Y34.373 E2.01527 F1800.000
G1 X73.105 Y34.028 E2.03054
G1 X72.157 Y33.427 E2.04589
G1 X71.379 Y32.581 E2.06162
G1 X70.861 Y31.639 E2.07634
G1 X70.583 Y30.558 E2.09161
G1 X70.583 Y29.442 E2.10688
G1 X70.851 Y28.400 E2.12160
G1 X71.394 Y27.388 E2.13732
G1 X72.162 Y26.570 E2.15267
G1 X73.109 Y25.969 E2.16802
G1 X74.206 Y25.625 E2.18375
G1 X75.271 Y25.558 E2.19836 F1800.000
G1 X76.328 Y25.744 E2.21305
G1 X77.385 Y26.241 E2.22903
G1 X78.245 Y26.953 E2.24430
G1 X78.901 Y27.855 E2.25957
G1 X79.312 Y28.893 E2.27484
G1 X79.452 Y30.000 E2.29011
G1 X79.312 Y31.107 E2.30538
G1 X78.901 Y32.145 E2.32065
G1 X78.245 Y33.047 E2.33592
G1 X77.385 Y33.759 E2.35119
G1 X76.376 Y34.234 E2.36646
G1 X75.353 Y34.429 E2.38071
G1 X75.251 Y33.994 F7800.000
G1 X74.250 Y33.931 E2.39443 F1800.000
G1 X73.296 Y33.621 E2.40816
G1 X72.446 Y33.082 E2.42194
G1 X71.744 Y32.319 E2.43612
G1 X71.279 Y31.473 E2.44933
G1 X71.030 Y30.502 E2.46305
G1 X71.030 Y29.498 E2.47678
G1 X71.270 Y28.564 E2.48999
G1 X71.760 Y27.650 E2.50417
