; generated by Slic3r 1.2.9 on 2015-12-28 at 00:41:46

; external perimeters extrusion width = 0.50mm
; perimeters extrusion width = 0.50mm
; infill extrusion width = 0.50mm
; solid infill extrusion width = 0.50mm
; top infill extrusion width = 0.50mm

M107
M190 S70 ; set bed temperature
M104 S220 ; set temperature
G28 ; home all axes
M109 S220 ; wait for temperature to be reached
G21 ; set units to millimeters
G90 ; use absolute coordinates
M82 ; use absolute distances for extrusion
G92 E0
G1 Z0.350 F7800.000
G1 E-2.00000 F1920.00000
G92 E0
G1 X39.443 Y51.403 F7800.000
G1 E2.00000 F1920.00000
M204 S3000
G1 X39.815 Y51.117 E2.00643 F1800.000
G1 X40.998 Y50.435 E2.02511
G1 X41.480 Y50.235 E2.03226
G1 X42.799 Y49.881 E2.05095
G1 X43.318 Y49.813 E2.05811
G1 X44.000 Y49.768 E2.06746
G1 X126.000 Y49.768 E3.18955
G1 X126.682 Y49.813 E3.19891
G1 X127.200 Y49.881 E3.20606 F1800.000
G1 X128.520 Y50.235 E3.22475
G1 X129.002 Y50.434 E3.23189
G1 X130.185 Y51.117 E3.25058
G1 X130.599 Y51.435 E3.25773
G1 X131.565 Y52.401 E3.27642
G1 X131.883 Y52.815 E3.28356
G1 X132.566 Y53.998 E3.30225
G1 X132.765 Y54.480 E3.30939
G1 X133.119 Y55.800 E3.32808
G1 X133.187 Y56.317 E3.33523
G1 X133.232 Y57.000 E3.34459
G1 X133.232 Y63.000 E3.42670
G1 X133.187 Y63.683 E3.43606
G1 X133.119 Y64.200 E3.44320
G1 X132.766 Y65.518 E3.46188
G1 X132.566 Y66.002 E3.46904
G1 X131.883 Y67.185 E3.48773
G1 X131.564 Y67.600 E3.49489
G1 X130.599 Y68.565 E3.51356
G1 X130.185 Y68.883 E3.52071
G1 X129.002 Y69.565 E3.53939
G1 X128.520 Y69.765 E3.54654
G1 X127.200 Y70.119 E3.56523
G1 X126.683 Y70.187 E3.57237
G1 X126.000 Y70.232 E3.58174
G1 X44.000 Y70.232 E4.70383
G1 X43.317 Y70.187 E4.71319
G1 X42.799 Y70.119 E4.72035
G1 X41.480 Y69.765 E4.73903
G1 X40.998 Y69.566 E4.74617
G1 X39.815 Y68.883 E4.76486
G1 X39.401 Y68.565 E4.77201
G1 X38.435 Y67.599 E4.79069
G1 X38.117 Y67.185 E4.79784
G1 X37.434 Y66.002 E4.81653
G1 X37.235 Y65.520 E4.82367
G1 X36.881 Y64.201 E4.84236
G1 X36.813 Y63.682 E4.84952
G1 X36.768 Y63.000 E4.85887
G1 X36.768 Y57.000 E4.94098
G1 X36.813 Y56.317 E4.95034
G1 X36.881 Y55.799 E4.95749
G1 X37.235 Y54.480 E4.97617
G1 X37.435 Y53.997 E4.98333
G1 X38.117 Y52.816 E5.00200
G1 X38.435 Y52.401 E5.00915
G1 X39.385 Y51.451 E5.02753
G1 X39.714 Y51.757 F7800.000
G4 P29
G1 X40.087 Y51.471 E5.03396 F1800.000
G1 X41.168 Y50.847 E5.05105
G1 X41.651 Y50.647 E5.05820
G1 X42.858 Y50.324 E5.07529
G1 X43.376 Y50.255 E5.08245
G1 X44.000 Y50.215 E5.09100
G1 X126.000 Y50.215 E6.21309
G1 X126.624 Y50.255 E6.22165
G1 X127.142 Y50.324 E6.22880 F1800.000
G1 X128.349 Y50.647 E6.24590
G1 X128.831 Y50.847 E6.25304
G1 X129.913 Y51.471 E6.27014
G1 X130.327 Y51.789 E6.27728
G1 X131.211 Y52.673 E6.29438
G1 X131.529 Y53.087 E6.30152
G1 X132.153 Y54.169 E6.31862
G1 X132.353 Y54.651 E6.32576
G1 X132.676 Y55.858 E6.34286
G1 X132.744 Y56.375 E6.35000
G1 X132.785 Y57.000 E6.35857
G1 X132.785 Y63.000 E6.44067
G1 X132.744 Y63.625 E6.44924
G1 X132.676 Y64.142 E6.45638
G1 X132.353 Y65.348 E6.47346
G1 X132.153 Y65.831 E6.48062
G1 X131.529 Y66.913 E6.49771
G1 X131.210 Y67.328 E6.50487
G1 X130.327 Y68.211 E6.52195
G1 X129.913 Y68.529 E6.52910
G1 X128.832 Y69.153 E6.54619
G1 X128.349 Y69.353 E6.55334
G1 X127.142 Y69.676 E6.57043
G1 X126.625 Y69.744 E6.57758
G1 X126.000 Y69.785 E6.58614
G1 X44.000 Y69.785 E7.70823
G1 X43.375 Y69.744 E7.71680
G1 X42.857 Y69.676 E7.72395
G1 X41.651 Y69.353 E7.74104
G1 X41.169 Y69.153 E7.74818
G1 X40.087 Y68.529 E7.76528
G1 X39.673 Y68.211 E7.77242
G1 X38.789 Y67.327 E7.78952
G1 X38.471 Y66.913 E7.79666
G1 X37.847 Y65.831 E7.81375
G1 X37.647 Y65.349 E7.82090
G1 X37.324 Y64.142 E7.83799
G1 X37.255 Y63.624 E7.84515
G1 X37.215 Y63.000 E7.85370
G1 X37.215 Y57.000 E7.93581
G1 X37.256 Y56.375 E7.94437
G1 X37.324 Y55.857 E7.95153
G1 X37.647 Y54.651 E7.96861
G1 X37.847 Y54.168 E7.97576
G1 X38.471 Y53.087 E7.99284
G1 X38.789 Y52.673 E8.00000
G1 X39.657 Y51.805 E8.01678
G1 X39.986 Y52.111 F7800.000
G4 P29
G1 X40.359 Y51.825 E8.02321 F1800.000
G1 X41.339 Y51.259 E8.03871
G1 X41.822 Y51.059 E8.04585
G1 X42.916 Y50.766 E8.06136
G1 X43.435 Y50.698 E8.06851
G1 X44.000 Y50.661 E8.07627
G1 X126.000 Y50.661 E9.19836
G1 X126.566 Y50.698 E9.20612
G1 X127.084 Y50.766 E9.21327 F1800.000
G1 X128.178 Y51.059 E9.22877
G1 X128.661 Y51.259 E9.23591
G1 X129.641 Y51.826 E9.25141
G1 X130.056 Y52.143 E9.25856
G1 X130.857 Y52.944 E9.27406
G1 X131.174 Y53.359 E9.28120
G1 X131.741 Y54.339 E9.29670
G1 X131.941 Y54.822 E9.30385
G1 X132.234 Y55.916 E9.31935
G1 X132.302 Y56.434 E9.32649
G1 X132.339 Y57.000 E9.33426
G1 X132.339 Y63.000 E9.41636
G1 X132.302 Y63.566 E9.42413
G1 X132.234 Y64.084 E9.43127
G1 X131.941 Y65.177 E9.44676
G1 X131.741 Y65.661 E9.45392
G1 X131.174 Y66.641 E9.46942
G1 X130.856 Y67.056 E9.47658
G1 X130.056 Y67.857 E9.49206
G1 X129.641 Y68.174 E9.49921
G1 X128.661 Y68.741 E9.51471
G1 X128.178 Y68.941 E9.52185
G1 X127.084 Y69.234 E9.53735
G1 X126.566 Y69.302 E9.54450
G1 X126.000 Y69.339 E9.55226
G1 X44.000 Y69.339 E10.67436
G1 X43.434 Y69.302 E10.68212
G1 X42.915 Y69.234 E10.68927
G1 X41.822 Y68.941 E10.70477
G1 X41.339 Y68.741 E10.71191
G1 X40.359 Y68.174 E10.72741
G1 X39.944 Y67.857 E10.73456
G1 X39.143 Y67.056 E10.75006
G1 X38.826 Y66.641 E10.75720
G1 X38.259 Y65.661 E10.77270
G1 X38.059 Y65.178 E10.77985
G1 X37.766 Y64.084 E10.79535
G1 X37.698 Y63.565 E10.80250
G1 X37.661 Y63.000 E10.81026
G1 X37.661 Y57.000 E10.89236
G1 X37.698 Y56.434 E10.90013
G1 X37.766 Y55.915 E10.90728
G1 X38.059 Y54.822 E10.92277
G1 X38.259 Y54.339 E10.92992
G1 X38.825 Y53.359 E10.94541
G1 X39.143 Y52.944 E10.95256
G1 X39.928 Y52.159 E10.96775
G1 X40.258 Y52.466 F7800.000
G4 P29
G1 X40.630 Y52.180 E10.97418 F1800.000
G1 X41.510 Y51.672 E10.98808
G1 X41.993 Y51.472 E10.99523
G1 X42.974 Y51.209 E11.00914
G1 X43.493 Y51.140 E11.01629
G1 X44.000 Y51.107 E11.02325
G1 X126.000 Y51.107 E12.14534
G1 X126.508 Y51.141 E12.15230
G1 X127.026 Y51.209 E12.15945 F1800.000
G1 X128.007 Y51.472 E12.17336
G1 X128.490 Y51.672 E12.18050
G1 X129.370 Y52.180 E12.19441
G1 X129.784 Y52.497 E12.20155
G1 X130.503 Y53.216 E12.21546
G1 X130.820 Y53.630 E12.22260
G1 X131.328 Y54.510 E12.23651
G1 X131.528 Y54.993 E12.24365
G1 X131.791 Y55.974 E12.25756
G1 X131.859 Y56.492 E12.26470
G1 X131.893 Y57.000 E12.27167
G1 X131.893 Y63.000 E12.35378
G1 X131.859 Y63.508 E12.36074
G1 X131.791 Y64.026 E12.36789
G1 X131.529 Y65.006 E12.38178
G1 X131.328 Y65.490 E12.38894
G1 X130.820 Y66.370 E12.40284
G1 X130.502 Y66.785 E12.41000
G1 X129.784 Y67.503 E12.42389
G1 X129.370 Y67.820 E12.43104
G1 X128.490 Y68.328 E12.44494
G1 X128.007 Y68.528 E12.45209
G1 X127.026 Y68.791 E12.46599
G1 X126.508 Y68.859 E12.47314
G1 X126.000 Y68.893 E12.48011
G1 X44.000 Y68.893 E13.60220
G1 X43.492 Y68.859 E13.60916
G1 X42.974 Y68.791 E13.61632
G1 X41.993 Y68.528 E13.63022
G1 X41.510 Y68.328 E13.63736
G1 X40.630 Y67.820 E13.65127
G1 X40.216 Y67.503 E13.65841
G1 X39.498 Y66.784 E13.67232
G1 X39.180 Y66.370 E13.67946
G1 X38.672 Y65.490 E13.69337
G1 X38.472 Y65.007 E13.70051
G1 X38.209 Y64.026 E13.71442
G1 X38.140 Y63.507 E13.72157
G1 X38.107 Y63.000 E13.72853
G1 X38.107 Y57.000 E13.81063
G1 X38.141 Y56.492 E13.81760
G1 X38.209 Y55.974 E13.82475
G1 X38.472 Y54.993 E13.83865
G1 X38.672 Y54.510 E13.84580
G1 X39.179 Y53.631 E13.85969
G1 X39.497 Y53.216 E13.86685
G1 X40.200 Y52.513 E13.88044
G1 X40.529 Y52.820 F7800.000
G4 P29
G1 X40.902 Y52.534 E13.88687 F1800.000
G1 X41.681 Y52.084 E13.89918
G1 X42.163 Y51.884 E13.90632
G1 X43.033 Y51.651 E13.91864
G1 X43.551 Y51.583 E13.92579
G1 X44.000 Y51.554 E13.93195
G1 X126.000 Y51.554 E15.05404
G1 X126.450 Y51.583 E15.06021
G1 X126.967 Y51.651 E15.06735 F1800.000
G1 X127.837 Y51.884 E15.07967
G1 X128.319 Y52.084 E15.08681
G1 X129.098 Y52.534 E15.09912
G1 X129.512 Y52.852 E15.10627
G1 X130.148 Y53.488 E15.11858
G1 X130.466 Y53.902 E15.12572
G1 X130.916 Y54.681 E15.13803
G1 X131.116 Y55.163 E15.14518
G1 X131.349 Y56.033 E15.15749
G1 X131.417 Y56.550 E15.16463
G1 X131.446 Y57.000 E15.17080
G1 X131.446 Y63.000 E15.25291
G1 X131.417 Y63.450 E15.25907
G1 X131.349 Y63.967 E15.26622
G1 X131.116 Y64.836 E15.27852
G1 X130.916 Y65.319 E15.28568
G1 X130.466 Y66.098 E15.29799
G1 X130.148 Y66.513 E15.30514
G1 X129.512 Y67.148 E15.31744
G1 X129.098 Y67.466 E15.32459
G1 X128.319 Y67.916 E15.33690
G1 X127.837 Y68.116 E15.34404
G1 X126.967 Y68.349 E15.35635
G1 X126.450 Y68.417 E15.36350
G1 X126.000 Y68.446 E15.36967
G1 X44.000 Y68.446 E16.49176
G1 X43.550 Y68.417 E16.49793
G1 X43.032 Y68.349 E16.50508
G1 X42.163 Y68.116 E16.51738
G1 X41.681 Y67.916 E16.52453
G1 X40.902 Y67.466 E16.53684
G1 X40.488 Y67.148 E16.54398
G1 X39.852 Y66.512 E16.55629
G1 X39.534 Y66.098 E16.56344
G1 X39.084 Y65.319 E16.57575
G1 X38.884 Y64.837 E16.58289
G1 X38.651 Y63.967 E16.59521
G1 X38.583 Y63.449 E16.60236
G1 X38.554 Y63.000 E16.60852
G1 X38.554 Y57.000 E16.69062
G1 X38.583 Y56.550 E16.69679
G1 X38.651 Y56.032 E16.70394
G1 X38.884 Y55.163 E16.71625
G1 X39.084 Y54.681 E16.72340
G1 X39.533 Y53.902 E16.73570
G1 X39.852 Y53.488 E16.74285
G1 X40.472 Y52.868 E16.75485
G1 E14.75485 F1920.00000
G92 E0
G1 X112.980 Y56.143 F7800.000
G1 E2.00000 F1920.00000
G1 X125.925 Y56.143 E2.17714 F1800.000
G1 X126.219 Y56.181 E2.18120
G1 X126.424 Y56.266 E2.18423
G1 X126.599 Y56.401 E2.18726
G1 X126.734 Y56.576 E2.19028
G1 X126.819 Y56.781 E2.19331
G1 X126.857 Y57.075 E2.19737
G1 X126.857 Y62.925 E2.27743
G1 X126.819 Y63.219 E2.28149
G1 X126.734 Y63.424 E2.28452
G1 X126.599 Y63.599 E2.28754
G1 X126.424 Y63.734 E2.29057
G1 X126.219 Y63.819 E2.29360
G1 X125.925 Y63.857 E2.29766
G1 X90.075 Y63.857 E2.78823
G1 X89.781 Y63.819 E2.79229
G1 X89.576 Y63.734 E2.79532
G1 X89.401 Y63.599 E2.79835
G1 X89.266 Y63.424 E2.80138
G1 X89.181 Y63.219 E2.80440
G1 X89.143 Y62.925 E2.80846
G1 X89.143 Y57.075 E2.88852
G1 X89.181 Y56.781 E2.89258
G1 X89.266 Y56.576 E2.89561
G1 X89.401 Y56.401 E2.89863
G1 X89.576 Y56.266 E2.90166
G1 X89.781 Y56.181 E2.90469
G1 X90.075 Y56.143 E2.90875
G1 X103.020 Y56.143 E3.08589
G1 X103.209 Y56.896 E3.09652
G1 X103.873 Y58.086 E3.11516
G1 X104.827 Y59.060 E3.13382
G1 X106.003 Y59.750 E3.15247
G1 X107.321 Y60.108 E3.17116
G1 X108.700 Y60.103 E3.19004
G1 X109.997 Y59.750 E3.20843
G1 X111.173 Y59.060 E3.22709
G1 X112.127 Y58.086 E3.24574
G1 X112.791 Y56.896 E3.26439
G1 X112.962 Y56.215 E3.27399
G1 X112.632 Y55.696 F7800.000
G4 P28
G1 X125.954 Y55.696 E3.45630 F1800.000
G1 X126.336 Y55.747 E3.46157
G1 X126.649 Y55.876 E3.46620
G1 X126.918 Y56.082 E3.47084
G1 X127.124 Y56.351 E3.47547
G1 X127.253 Y56.664 E3.48011
G1 X127.304 Y57.046 E3.48537
G1 X127.304 Y62.954 E3.56623
G1 X127.253 Y63.336 E3.57149
G1 X127.124 Y63.649 E3.57613
G1 X126.918 Y63.918 E3.58076
G1 X126.649 Y64.124 E3.58540
G1 X126.336 Y64.253 E3.59004
G1 X125.954 Y64.304 E3.59530
G1 X90.046 Y64.304 E4.08668
G1 X89.664 Y64.253 E4.09194
G1 X89.351 Y64.124 E4.09658
G1 X89.082 Y63.918 E4.10121
G1 X88.876 Y63.649 E4.10585
G1 X88.747 Y63.336 E4.11048
G1 X88.696 Y62.954 E4.11575
G1 X88.696 Y57.046 E4.19661
G1 X88.747 Y56.664 E4.20187
G1 X88.876 Y56.351 E4.20651
G1 X89.082 Y56.082 E4.21114
G1 X89.351 Y55.876 E4.21578
G1 X89.664 Y55.747 E4.22041
G1 X90.046 Y55.696 E4.22568
G1 X103.368 Y55.697 E4.40799
G1 X103.627 Y56.730 E4.42257
G1 X104.234 Y57.816 E4.43959
G1 X105.104 Y58.705 E4.45661
G1 X106.177 Y59.335 E4.47364
G1 X107.379 Y59.662 E4.49068
G1 X108.639 Y59.656 E4.50793
G1 X109.823 Y59.335 E4.52471
G1 X110.896 Y58.705 E4.54173
G1 X111.766 Y57.816 E4.55876
G1 X112.373 Y56.730 E4.57577
G1 X112.613 Y55.769 E4.58934
G1 X112.401 Y55.263 F7800.000
G4 P29
G1 X112.490 Y55.250 E4.59057 F1800.000
G1 X125.984 Y55.250 E4.77521
G1 X126.452 Y55.312 E4.78168
G1 X126.874 Y55.486 E4.78793
G1 X127.236 Y55.764 E4.79417
G1 X127.514 Y56.126 E4.80041
G1 X127.688 Y56.548 E4.80666
G1 X127.750 Y57.016 E4.81313
G1 X127.750 Y62.984 E4.89478
G1 X127.688 Y63.452 E4.90125
G1 X127.514 Y63.874 E4.90750
G1 X127.236 Y64.236 E4.91374
G1 X126.874 Y64.514 E4.91999
G1 X126.452 Y64.688 E4.92623
G1 X125.984 Y64.750 E4.93270
G1 X90.016 Y64.750 E5.42488
G1 X89.548 Y64.688 E5.43135
G1 X89.126 Y64.514 E5.43759
G1 X88.764 Y64.236 E5.44383
G1 X88.486 Y63.874 E5.45008
G1 X88.312 Y63.452 E5.45632
G1 X88.250 Y62.984 E5.46279
G1 X88.250 Y57.016 E5.54445
G1 X88.312 Y56.548 E5.55092
G1 X88.486 Y56.126 E5.55716
G1 X88.764 Y55.764 E5.56340
G1 X89.126 Y55.486 E5.56965
G1 X89.548 Y55.312 E5.57589
G1 X90.016 Y55.250 E5.58236
G1 X103.512 Y55.250 E5.76703
G1 X103.599 Y55.263 E5.76824
G1 X103.664 Y55.294 E5.76922
G1 X103.755 Y55.402 E5.77115
G1 X104.046 Y56.564 E5.78755
G1 X104.595 Y57.546 E5.80295
G1 X105.382 Y58.350 E5.81834
G1 X106.352 Y58.920 E5.83374
G1 X107.438 Y59.215 E5.84914
G1 X108.579 Y59.210 E5.86475
G1 X109.648 Y58.920 E5.87991
G1 X110.618 Y58.350 E5.89531
G1 X111.405 Y57.546 E5.91070
G1 X111.954 Y56.564 E5.92610
G1 X112.245 Y55.402 E5.94250
G1 X112.334 Y55.296 E5.94438
G1 X112.470 Y55.322 F7800.000
G1 E3.94438 F1920.00000
G92 E0
G1 X104.979 Y59.527 F7800.000
G1 E2.00000 F1920.00000
G1 X109.045 Y63.593 E2.07940 F1800.000
G1 X109.682 Y63.593 E2.08820
G1 X106.195 Y60.106 E2.15629
G1 X107.069 Y60.343 E2.16881
G1 X110.319 Y63.593 E2.23226
G1 X110.956 Y63.593 E2.24106
G1 X107.734 Y60.371 E2.30398
G1 X108.368 Y60.368 E2.31274
G1 X111.593 Y63.593 E2.37570
G1 X112.230 Y63.593 E2.38450
G1 X108.929 Y60.292 E2.44895
G1 X109.430 Y60.156 E2.45612
G1 X112.867 Y63.593 E2.52322
G1 X113.504 Y63.593 E2.53202
G1 X109.931 Y60.020 E2.60179
G1 X110.355 Y59.807 E2.60834
G1 X114.141 Y63.593 E2.68227
G1 X114.777 Y63.593 E2.69106
G1 X110.756 Y59.571 E2.76960
G1 X111.157 Y59.336 E2.77602
G1 X115.414 Y63.593 E2.85916
G1 X116.051 Y63.593 E2.86795
G1 X111.504 Y59.045 E2.95677
G1 X111.819 Y58.723 E2.96299
G1 X116.688 Y63.593 E3.05809
G1 X117.325 Y63.593 E3.06688
G1 X112.134 Y58.401 E3.16827
G1 X112.414 Y58.044 E3.17453
G1 X117.962 Y63.593 E3.28288
G1 X118.599 Y63.593 E3.29168
G1 X112.642 Y57.636 E3.40801
G1 X112.871 Y57.227 E3.41447
G1 X119.236 Y63.593 E3.53879
G1 X119.873 Y63.593 E3.54758
G1 X113.070 Y56.789 E3.68044
G1 X113.325 Y56.407 E3.68678
G1 X120.510 Y63.593 E3.82710
G1 X121.147 Y63.593 E3.83589
G1 X113.962 Y56.407 E3.97621
G1 X114.599 Y56.407 E3.98501
G1 X121.784 Y63.593 E4.12532
G1 X122.421 Y63.593 E4.13412
G1 X115.236 Y56.407 E4.27443
G1 X115.873 Y56.407 E4.28323
G1 X123.058 Y63.593 E4.42354
G1 X123.695 Y63.593 E4.43234
G1 X116.510 Y56.407 E4.57265
G1 X117.147 Y56.407 E4.58145
G1 X124.332 Y63.593 E4.72177
G1 X124.969 Y63.593 E4.73056
G1 X117.784 Y56.407 E4.87088
G1 X118.421 Y56.407 E4.87967
G1 X125.606 Y63.593 E5.01999
G1 X126.214 Y63.564 E5.02840
G1 X119.058 Y56.407 E5.16815
G1 X119.695 Y56.407 E5.17695
G1 X126.547 Y63.259 E5.31075
G1 X126.593 Y62.668 E5.31894
G1 X120.332 Y56.407 E5.44121
G1 X120.969 Y56.407 E5.45000
G1 X126.593 Y62.031 E5.55982
G1 X126.593 Y61.394 E5.56862
G1 X121.606 Y56.407 E5.66600
G1 X122.243 Y56.407 E5.67480
G1 X126.593 Y60.757 E5.75974
G1 X126.593 Y60.120 E5.76854
G1 X122.880 Y56.407 E5.84104
G1 X123.517 Y56.407 E5.84984
G1 X126.593 Y59.483 E5.90990
G1 X126.593 Y58.846 E5.91870
G1 X124.154 Y56.407 E5.96633
G1 X124.791 Y56.407 E5.97512
G1 X126.593 Y58.209 E6.01031
G1 X126.593 Y57.572 E6.01911
G1 X125.428 Y56.407 E6.04185
G1 X126.139 Y56.482 E6.05173
G1 X126.518 Y56.861 E6.05914
G1 E4.05914 F1920.00000
G92 E0
G1 X103.460 Y58.008 F7800.000
G1 E2.00000 F1920.00000
G1 X101.860 Y56.408 E2.03125 F1800.000
G1 X102.497 Y56.408 E2.04005
G1 X102.884 Y56.795 E2.04761
G4 P15
G1 X101.223 Y56.408 F7800.000
G4 P20
G1 X108.408 Y63.593 E2.18792 F1800.000
G1 X107.771 Y63.593 E2.19671
G1 X100.586 Y56.408 E2.33702
G1 X99.949 Y56.408 E2.34582
G1 X107.134 Y63.593 E2.48613
G1 X106.497 Y63.593 E2.49493
G1 X99.312 Y56.408 E2.63524
G1 X98.675 Y56.408 E2.64403
G1 X105.860 Y63.593 E2.78434
G1 X105.223 Y63.593 E2.79314
G1 X98.038 Y56.408 E2.93345
G1 X97.401 Y56.408 E2.94225
G1 X104.586 Y63.593 E3.08256
G1 X103.949 Y63.593 E3.09136
G1 X96.764 Y56.408 E3.23167
G1 X96.127 Y56.408 E3.24046
G1 X103.312 Y63.593 E3.38078
G1 X102.675 Y63.593 E3.38957
G1 X95.490 Y56.408 E3.52988
G1 X94.853 Y56.408 E3.53868
G1 X102.038 Y63.593 E3.67899
G1 X101.401 Y63.593 E3.68779
G1 X94.216 Y56.407 E3.82810
