; generated by PrusaSlicer 2.0.0+linux64 on 2019-11-25 at 20:46:58

; 

; external perimeters extrusion width = 0.56mm
; perimeters extrusion width = 0.56mm
; infill extrusion width = 0.56mm
; solid infill extrusion width = 0.40mm
; top infill extrusion width = 0.50mm
; first layer extrusion width = 0.50mm

M201 X9000 Y9000 Z100 E10000 ; sets maximum accelerations, mm/sec^2
M203 X300 Y300 Z5 E120 ; sets maximum feedrates, mm/sec
M204 P1500 R1500 T1500 ; sets acceleration (P, T) and retract acceleration (R), mm/sec^2
M205 X10.00 Y10.00 Z0.20 E2.50 ; sets the jerk limits, mm/sec
M205 S0 T0 ; sets the minimum extruding and travel feed rate, mm/sec
M107
M190 S70 ; set bed temperature and wait for it to be reached
M104 S230 ; set temperature
G28 ; home all axes
G1 Z5 F100 ; lift nozzle
; Filament gcode
M109 S230 ; set temperature and wait for it to be reached
G21 ; set units to millimeters
G90 ; use absolute coordinates
M82 ; use absolute distances for extrusion
G92 E0
G1 Z0.450 F10800.000
G1 E-2.00000 F2400.00000
G92 E0
G1 X69.419 Y50.582 F10800.000
G1 E2.00000 F2400.00000
G1 F1800
G1 X72.013 Y48.766 E2.04431
G1 X74.771 Y47.487 E2.08685
G1 X77.880 Y46.677 E2.13182
G1 X80.653 Y46.439 E2.17075
G1 X89.255 Y46.438 E2.29113
G1 X92.292 Y46.703 E2.33379
G1 X95.215 Y47.482 E2.37612
G1 X97.992 Y48.769 E2.41895
G1 X100.240 Y50.316 E2.45714
G1 X100.829 Y50.812 E2.46791
G1 X102.925 Y52.997 E2.51028
G1 X104.489 Y55.272 E2.54892
G1 X105.801 Y58.131 E2.59293
G1 X106.547 Y60.958 E2.63385
G1 X106.811 Y63.918 E2.67544
G1 X106.812 Y96.032 E3.12481
G1 X106.549 Y99.032 E3.16696
G1 X105.857 Y101.683 E3.20530
G1 X105.618 Y102.337 E3.21503
G1 X104.461 Y104.779 E3.25286
G1 X102.924 Y107.003 E3.29068
G1 X102.479 Y107.538 E3.30042
G1 X100.549 Y109.445 E3.33840
G1 X97.773 Y111.348 E3.38549
G1 X95.174 Y112.532 E3.42545
G1 X92.622 Y113.227 E3.46246
G1 X91.947 Y113.344 E3.47205
G1 X89.337 Y113.561 E3.50870
G1 X80.734 Y113.562 E3.62908
G1 X77.718 Y113.299 E3.67145
G1 X74.785 Y112.518 E3.71392
G1 X72.317 Y111.391 E3.75189
G1 X71.685 Y111.031 E3.76207
G1 X69.423 Y109.421 E3.80092
G1 X67.315 Y107.311 E3.84266
G1 X65.722 Y105.069 E3.88114
G1 X64.397 Y102.370 E3.92322
G1 X64.133 Y101.647 E3.93399
G1 X63.450 Y99.021 E3.97196
G1 X63.188 Y96.076 E4.01333
G1 X63.188 Y63.968 E4.46263
G1 X63.451 Y60.968 E4.50477
G1 X64.143 Y58.317 E4.54311
G1 X64.380 Y57.668 E4.55278
G1 X65.539 Y55.221 E4.59067
G1 X67.057 Y53.023 E4.62806
G1 X67.514 Y52.470 E4.63809
G1 X69.366 Y50.635 E4.67457
G1 X69.680 Y50.952 F10800.000
G1 F1800
G1 X72.246 Y49.147 E4.71847
G1 X74.926 Y47.906 E4.75980
G1 X77.948 Y47.118 E4.80350
G1 X80.666 Y46.885 E4.84168
G1 X89.255 Y46.884 E4.96187
G1 X92.219 Y47.144 E5.00350
G1 X95.068 Y47.903 E5.04476
G1 X97.775 Y49.158 E5.08651
G1 X99.983 Y50.681 E5.12406
G1 X100.517 Y51.131 E5.13382
G1 X102.565 Y53.261 E5.17517
G1 X104.098 Y55.487 E5.21299
G1 X105.381 Y58.285 E5.25607
G1 X106.107 Y61.034 E5.29586
G1 X106.365 Y63.927 E5.33649
G1 X106.366 Y96.030 E5.78573
G1 X106.107 Y98.964 E5.82694
G1 X105.212 Y102.152 E5.87329
G1 X104.072 Y104.559 E5.91055
G1 X102.560 Y106.746 E5.94775
G1 X100.258 Y109.106 E5.99389
G1 X97.563 Y110.953 E6.03961
G1 X95.036 Y112.108 E6.07848
G1 X91.903 Y112.899 E6.12371
G1 X89.328 Y113.115 E6.15986
G1 X80.740 Y113.116 E6.28004
G1 X77.786 Y112.857 E6.32154
G1 X74.927 Y112.095 E6.36294
G1 X72.506 Y110.986 E6.40020
G1 X71.932 Y110.659 E6.40945
G1 X69.712 Y109.081 E6.44756
G1 X67.654 Y107.020 E6.48833
G1 X66.089 Y104.815 E6.52615
G1 X64.800 Y102.177 E6.56725
G1 X64.558 Y101.512 E6.57715
G1 X63.890 Y98.946 E6.61426
G1 X63.635 Y96.068 E6.65468
G1 X63.634 Y63.970 E7.10385
G1 X63.893 Y61.036 E7.14506
G1 X64.788 Y57.848 E7.19141
G1 X65.926 Y55.445 E7.22860
G1 X67.423 Y53.279 E7.26545
G1 X67.838 Y52.777 E7.27456
G1 X69.626 Y51.004 E7.30980
G1 X69.947 Y51.316 F10800.000
G1 F1800
G1 X70.011 Y51.251 E7.31108
G1 X72.474 Y49.530 E7.35313
G1 X75.072 Y48.327 E7.39320
G1 X78.016 Y47.559 E7.43576
G1 X80.676 Y47.331 E7.47312
G1 X89.255 Y47.330 E7.59317
G1 X92.142 Y47.583 E7.63372
G1 X94.922 Y48.325 E7.67399
G1 X97.557 Y49.548 E7.71465
G1 X99.726 Y51.046 E7.75154
G1 X100.201 Y51.447 E7.76022
G1 X102.203 Y53.522 E7.80057
G1 X103.708 Y55.704 E7.83766
G1 X104.962 Y58.439 E7.87977
G1 X105.667 Y61.112 E7.91845
G1 X105.919 Y63.935 E7.95812
G1 X105.919 Y96.028 E8.40721
G1 X105.667 Y98.892 E8.44743
G1 X104.804 Y101.970 E8.49217
G1 X103.685 Y104.336 E8.52880
G1 X102.198 Y106.484 E8.56536
G1 X99.967 Y108.768 E8.61003
G1 X97.353 Y110.559 E8.65437
G1 X94.892 Y111.685 E8.69225
G1 X91.857 Y112.455 E8.73606
G1 X89.319 Y112.669 E8.77170
G1 X80.741 Y112.670 E8.89175
G1 X77.858 Y112.417 E8.93223
G1 X75.074 Y111.673 E8.97257
G1 X72.669 Y110.570 E9.00959
G1 X72.145 Y110.264 E9.01808
G1 X69.824 Y108.578 E9.05823
G1 X67.964 Y106.696 E9.09525
G1 X66.315 Y104.337 E9.13552
G1 X65.095 Y101.726 E9.17585
G1 X64.399 Y99.193 E9.21261
G1 X64.080 Y96.008 E9.25741
G1 X64.081 Y63.972 E9.70571
G1 X64.333 Y61.108 E9.74593
G1 X65.196 Y58.030 E9.79066
G1 X66.312 Y55.668 E9.82722
G1 X67.791 Y53.531 E9.86359
G1 X69.895 Y51.370 E9.90579
G1 X70.213 Y51.681 F10800.000
G1 F1800
G1 X70.304 Y51.588 E9.90761
G1 X72.703 Y49.914 E9.94854
G1 X75.225 Y48.747 E9.98743
G1 X78.080 Y48.001 E10.02873
G1 X80.686 Y47.777 E10.06533
G1 X89.254 Y47.777 E10.18523
G1 X92.065 Y48.023 E10.22471
G1 X94.776 Y48.747 E10.26398
G1 X97.341 Y49.938 E10.30355
G1 X99.469 Y51.411 E10.33977
G1 X101.842 Y53.785 E10.38673
G1 X103.319 Y55.921 E10.42308
G1 X104.542 Y58.592 E10.46419
G1 X105.228 Y61.190 E10.50178
G1 X105.473 Y63.945 E10.54049
G1 X105.473 Y96.022 E10.98936
G1 X105.226 Y98.820 E11.02866
G1 X104.396 Y101.789 E11.07180
G1 X103.301 Y104.110 E11.10772
G1 X101.833 Y106.227 E11.14376
G1 X99.679 Y108.426 E11.18684
G1 X97.152 Y110.161 E11.22974
G1 X94.750 Y111.262 E11.26671
G1 X91.810 Y112.011 E11.30917
G1 X89.309 Y112.223 E11.34428
G1 X80.741 Y112.223 E11.46418
G1 X77.930 Y111.976 E11.50367
G1 X75.220 Y111.251 E11.54293
G1 X72.864 Y110.168 E11.57922
G1 X70.133 Y108.256 E11.62587
G1 X68.309 Y106.412 E11.66215
G1 X66.701 Y104.113 E11.70142
G1 X65.512 Y101.567 E11.74074
G1 X64.827 Y99.066 E11.77703
G1 X64.527 Y96.006 E11.82005
G1 X64.527 Y63.978 E12.26824
G1 X64.773 Y61.185 E12.30747
G1 X65.602 Y58.215 E12.35062
G1 X66.699 Y55.890 E12.38660
G1 X68.156 Y53.788 E12.42239
G1 X70.161 Y51.734 E12.46254
G1 E10.46254 F2400.00000
G92 E0
G1 X90.393 Y69.723 F10800.000
G1 E2.00000 F2400.00000
G1 F1800
G1 X86.973 Y73.143 E2.06767
G1 X83.027 Y73.143 E2.12290
G1 X79.607 Y69.723 E2.19056
G1 X79.607 Y54.857 E2.39859
G1 X90.393 Y54.857 E2.54952
G1 X90.393 Y69.648 E2.75649
G1 X89.946 Y69.538 F10800.000
G1 F1800
G1 X86.788 Y72.696 E2.81899
G1 X83.212 Y72.696 E2.86904
G1 X80.054 Y69.538 E2.93154
G1 X80.054 Y55.304 E3.13073
G1 X89.946 Y55.304 E3.26916
G1 X89.946 Y69.463 E3.46731
G1 X89.500 Y69.354 F10800.000
G1 F1800
G1 X86.604 Y72.250 E3.52463
G1 X83.396 Y72.250 E3.56951
G1 X80.500 Y69.354 E3.62683
G1 X80.500 Y55.750 E3.81719
G1 X89.500 Y55.750 E3.94313
G1 X89.500 Y69.279 E4.13244
G1 X89.829 Y69.730 F10800.000
G1 E2.13244 F2400.00000
G92 E0
G1 X76.570 Y64.687 F10800.000
G1 E2.00000 F2400.00000
G1 F1800
G1 X76.319 Y65.348 E2.00990
G1 X75.921 Y65.924 E2.01969
G1 X75.398 Y66.388 E2.02947
G1 X74.779 Y66.713 E2.03926
G1 X74.100 Y66.880 E2.04905
G1 X73.400 Y66.880 E2.05883
G1 X72.721 Y66.713 E2.06862
G1 X72.102 Y66.388 E2.07841
G1 X71.579 Y65.924 E2.08819
G1 X71.181 Y65.348 E2.09798
G1 X70.933 Y64.694 E2.10777
G1 X70.853 Y64.034 E2.11707
G1 X70.930 Y63.313 E2.12722
G1 X71.181 Y62.652 E2.13712
G1 X71.579 Y62.076 E2.14691
G1 X72.102 Y61.612 E2.15669
G1 X72.721 Y61.287 E2.16648
G1 X73.400 Y61.120 E2.17627
G1 X74.100 Y61.120 E2.18605
G1 X74.779 Y61.287 E2.19584
G1 X75.398 Y61.612 E2.20563
G1 X75.921 Y62.076 E2.21541
G1 X76.319 Y62.652 E2.22520
G1 X76.567 Y63.306 E2.23499
G1 X76.647 Y63.966 E2.24429
G1 X76.578 Y64.612 E2.25339
G1 X76.132 Y64.582 F10800.000
G1 F1800
G1 X75.921 Y65.139 E2.26172
G1 X75.585 Y65.626 E2.26999
G1 X75.143 Y66.018 E2.27826
G1 X74.619 Y66.292 E2.28653
G1 X74.045 Y66.434 E2.29480
G1 X73.455 Y66.434 E2.30307
G1 X72.881 Y66.292 E2.31134
G1 X72.357 Y66.018 E2.31961
G1 X71.915 Y65.626 E2.32788
G1 X71.579 Y65.139 E2.33615
G1 X71.370 Y64.587 E2.34442
G1 X71.302 Y64.031 E2.35226
G1 X71.368 Y63.418 E2.36088
G1 X71.579 Y62.861 E2.36922
G1 X71.915 Y62.374 E2.37749
G1 X72.357 Y61.982 E2.38576
G1 X72.881 Y61.708 E2.39403
G1 X73.455 Y61.566 E2.40230
G1 X74.045 Y61.566 E2.41057
G1 X74.619 Y61.708 E2.41884
G1 X75.143 Y61.982 E2.42711
G1 X75.585 Y62.374 E2.43538
G1 X75.921 Y62.861 E2.44365
G1 X76.130 Y63.413 E2.45192
G1 X76.198 Y63.969 E2.45975
G1 X76.140 Y64.507 E2.46733
G1 X75.694 Y64.477 F10800.000
G1 F1800
G1 X75.523 Y64.930 E2.47411
G1 X75.248 Y65.327 E2.48086
G1 X74.887 Y65.647 E2.48762
G1 X74.460 Y65.872 E2.49437
G1 X73.991 Y65.987 E2.50112
G1 X73.509 Y65.987 E2.50788
G1 X73.040 Y65.872 E2.51463
G1 X72.613 Y65.647 E2.52138
G1 X72.252 Y65.327 E2.52814
G1 X71.977 Y64.930 E2.53489
G1 X71.806 Y64.479 E2.54164
G1 X71.752 Y64.028 E2.54800
G1 X71.806 Y63.523 E2.55511
G1 X71.977 Y63.070 E2.56189
G1 X72.252 Y62.673 E2.56864
G1 X72.613 Y62.353 E2.57540
G1 X73.040 Y62.128 E2.58215
G1 X73.509 Y62.013 E2.58890
G1 X73.991 Y62.013 E2.59566
G1 X74.460 Y62.128 E2.60241
G1 X74.887 Y62.353 E2.60916
G1 X75.248 Y62.673 E2.61592
G1 X75.523 Y63.070 E2.62267
G1 X75.694 Y63.521 E2.62942
G1 X75.748 Y63.972 E2.63578
G1 X75.702 Y64.403 E2.64184
G1 X76.044 Y64.813 F10800.000
G1 E0.64184 F2400.00000
G92 E0
G1 X93.353 Y64.034 F10800.000
G1 E2.00000 F2400.00000
G1 F1800
G1 X93.430 Y63.313 E2.01015
G1 X93.681 Y62.652 E2.02005
G1 X94.079 Y62.076 E2.02983
G1 X94.602 Y61.612 E2.03962
G1 X95.221 Y61.287 E2.04941
G1 X95.900 Y61.120 E2.05919
G1 X96.600 Y61.120 E2.06898
G1 X97.279 Y61.287 E2.07877
G1 X97.898 Y61.612 E2.08855
G1 X98.421 Y62.076 E2.09834
G1 X98.819 Y62.652 E2.10813
G1 X99.067 Y63.306 E2.11791
G1 X99.147 Y63.966 E2.12722
G1 X99.070 Y64.687 E2.13736
G1 X98.819 Y65.348 E2.14726
G1 X98.421 Y65.924 E2.15705
G1 X97.898 Y66.388 E2.16684
G1 X97.279 Y66.713 E2.17662
G1 X96.600 Y66.880 E2.18641
G1 X95.900 Y66.880 E2.19620
G1 X95.221 Y66.713 E2.20598
G1 X94.602 Y66.388 E2.21577
G1 X94.079 Y65.924 E2.22556
G1 X93.681 Y65.348 E2.23534
G1 X93.433 Y64.694 E2.24513
G1 X93.362 Y64.109 E2.25339
G1 X93.802 Y64.031 F10800.000
G1 F1800
G1 X93.868 Y63.418 E2.26201
G1 X94.079 Y62.861 E2.27035
G1 X94.415 Y62.374 E2.27862
G1 X94.857 Y61.982 E2.28689
G1 X95.381 Y61.708 E2.29516
G1 X95.955 Y61.566 E2.30343
G1 X96.545 Y61.566 E2.31170
G1 X97.119 Y61.708 E2.31997
G1 X97.643 Y61.982 E2.32824
G1 X98.085 Y62.374 E2.33651
G1 X98.421 Y62.861 E2.34478
G1 X98.630 Y63.413 E2.35305
G1 X98.698 Y63.969 E2.36088
G1 X98.632 Y64.582 E2.36951
G1 X98.421 Y65.139 E2.37785
G1 X98.085 Y65.626 E2.38612
G1 X97.643 Y66.018 E2.39439
G1 X97.119 Y66.292 E2.40266
G1 X96.545 Y66.434 E2.41093
G1 X95.955 Y66.434 E2.41920
G1 X95.381 Y66.292 E2.42747
G1 X94.857 Y66.018 E2.43574
G1 X94.415 Y65.626 E2.44401
G1 X94.079 Y65.139 E2.45228
G1 X93.870 Y64.587 E2.46055
G1 X93.811 Y64.106 E2.46733
G1 X94.252 Y64.028 F10800.000
G1 F1800
G1 X94.306 Y63.523 E2.47445
G1 X94.477 Y63.070 E2.48122
G1 X94.752 Y62.673 E2.48798
G1 X95.113 Y62.353 E2.49473
G1 X95.540 Y62.128 E2.50148
G1 X96.009 Y62.013 E2.50824
G1 X96.491 Y62.013 E2.51499
G1 X96.960 Y62.128 E2.52174
G1 X97.387 Y62.353 E2.52850
G1 X97.748 Y62.673 E2.53525
G1 X98.023 Y63.070 E2.54200
G1 X98.194 Y63.521 E2.54875
G1 X98.248 Y63.972 E2.55511
G1 X98.194 Y64.477 E2.56223
G1 X98.023 Y64.930 E2.56900
G1 X97.748 Y65.327 E2.57576
G1 X97.387 Y65.647 E2.58251
G1 X96.960 Y65.872 E2.58926
G1 X96.491 Y65.987 E2.59602
G1 X96.009 Y65.987 E2.60277
G1 X95.540 Y65.872 E2.60952
G1 X95.113 Y65.647 E2.61628
G1 X94.752 Y65.327 E2.62303
G1 X94.477 Y64.930 E2.62978
G1 X94.306 Y64.479 E2.63653
G1 X94.261 Y64.102 E2.64184
G1 X93.816 Y63.783 F10800.000
G1 E0.64184 F2400.00000
G92 E0
G1 X101.103 Y64.000 F10800.000
G1 E2.00000 F2400.00000
G1 F1800
G1 X100.923 Y66.058 E2.02891
G1 X100.388 Y68.054 E2.05782
G1 X99.533 Y69.889 E2.08615
G1 X98.330 Y71.619 E2.11564
G1 X96.869 Y73.080 E2.14455
G1 X95.176 Y74.265 E2.17346
G1 X93.304 Y75.138 E2.20237
G1 X91.308 Y75.673 E2.23129
G1 X89.200 Y75.857 E2.26090
G1 X80.800 Y75.857 E2.37845
G1 X78.692 Y75.673 E2.40806
G1 X76.696 Y75.138 E2.43697
G1 X74.824 Y74.265 E2.46588
G1 X73.131 Y73.080 E2.49480
G1 X71.670 Y71.619 E2.52371
G1 X70.485 Y69.926 E2.55262
G1 X69.612 Y68.054 E2.58153
G1 X69.077 Y66.058 E2.61044
G1 X68.897 Y64.000 E2.63936
G1 X69.077 Y61.942 E2.66827
G1 X69.612 Y59.946 E2.69718
G1 X70.467 Y58.111 E2.72551
G1 X71.670 Y56.381 E2.75500
G1 X73.131 Y54.920 E2.78391
G1 X74.824 Y53.735 E2.81282
G1 X76.696 Y52.862 E2.84173
G1 X78.692 Y52.327 E2.87064
G1 X80.800 Y52.143 E2.90026
G1 X89.200 Y52.143 E3.01780
G1 X91.308 Y52.327 E3.04742
G1 X93.304 Y52.862 E3.07633
G1 X95.176 Y53.735 E3.10524
G1 X96.869 Y54.920 E3.13415
G1 X98.330 Y56.381 E3.16306
G1 X99.515 Y58.074 E3.19198
G1 X100.388 Y59.946 E3.22089
G1 X100.923 Y61.942 E3.24980
G1 X101.096 Y63.925 E3.27766
G1 X101.548 Y63.961 F10800.000
G1 F1800
G1 X101.364 Y66.136 E3.30821
G1 X100.809 Y68.207 E3.33821
G1 X99.903 Y70.150 E3.36822
G1 X98.673 Y71.907 E3.39822
G1 X97.157 Y73.423 E3.42823
G1 X95.400 Y74.653 E3.45823
G1 X93.457 Y75.559 E3.48824
G1 X91.386 Y76.114 E3.51824
G1 X89.220 Y76.304 E3.54867
G1 X80.780 Y76.304 E3.66677
G1 X78.614 Y76.114 E3.69720
G1 X76.543 Y75.559 E3.72720
G1 X74.600 Y74.653 E3.75721
G1 X72.843 Y73.423 E3.78721
G1 X71.327 Y71.907 E3.81722
G1 X70.097 Y70.150 E3.84722
G1 X69.191 Y68.207 E3.87723
G1 X68.636 Y66.136 E3.90723
G1 X68.449 Y64.000 E3.93724
G1 X68.636 Y61.864 E3.96724
G1 X69.191 Y59.793 E3.99725
G1 X70.063 Y57.923 E4.02612
G1 X70.097 Y57.850 E4.02725
G1 X71.327 Y56.093 E4.05726
G1 X72.843 Y54.577 E4.08726
G1 X74.600 Y53.347 E4.11727
G1 X76.543 Y52.441 E4.14727
G1 X78.614 Y51.886 E4.17728
G1 X80.780 Y51.696 E4.20771
G1 X89.220 Y51.696 E4.32580
G1 X91.386 Y51.886 E4.35623
G1 X93.457 Y52.441 E4.38624
G1 X95.400 Y53.347 E4.41624
G1 X97.157 Y54.577 E4.44625
G1 X98.673 Y56.093 E4.47625
G1 X99.903 Y57.850 E4.50626
G1 X100.809 Y59.793 E4.53626
G1 X101.364 Y61.864 E4.56627
G1 X101.541 Y63.886 E4.59468
G1 X101.992 Y63.922 F10800.000
G1 F1800
G1 X101.999 Y64.000 E4.59577
G1 X101.805 Y66.214 E4.62687
G1 X101.230 Y68.360 E4.65796
G1 X100.291 Y70.375 E4.68906
G1 X99.016 Y72.195 E4.72016
G1 X97.445 Y73.766 E4.75126
G1 X95.625 Y75.041 E4.78236
G1 X93.610 Y75.980 E4.81345
G1 X91.464 Y76.555 E4.84455
G1 X89.239 Y76.750 E4.87580
G1 X80.761 Y76.750 E4.99444
G1 X78.536 Y76.555 E5.02569
G1 X76.390 Y75.980 E5.05679
G1 X74.375 Y75.041 E5.08789
G1 X72.555 Y73.766 E5.11899
G1 X70.984 Y72.195 E5.15008
G1 X69.709 Y70.375 E5.18118
G1 X68.770 Y68.360 E5.21228
G1 X68.195 Y66.214 E5.24338
G1 X68.001 Y64.000 E5.27447
G1 X68.195 Y61.786 E5.30557
G1 X68.770 Y59.640 E5.33667
G1 X69.658 Y57.734 E5.36609
G1 X69.709 Y57.625 E5.36777
G1 X70.984 Y55.805 E5.39887
G1 X72.555 Y54.234 E5.42996
G1 X74.375 Y52.959 E5.46106
G1 X76.390 Y52.020 E5.49216
G1 X78.536 Y51.445 E5.52326
G1 X80.761 Y51.250 E5.55451
G1 X89.239 Y51.250 E5.67315
G1 X91.464 Y51.445 E5.70440
G1 X93.610 Y52.020 E5.73550
G1 X95.625 Y52.959 E5.76659
G1 X97.445 Y54.234 E5.79769
G1 X99.016 Y55.805 E5.82879
G1 X100.291 Y57.625 E5.85989
G1 X101.230 Y59.640 E5.89098
G1 X101.805 Y61.786 E5.92208
G1 X101.986 Y63.847 E5.95104
G1 X101.930 Y63.969 F10800.000
G1 X100.919 Y64.566
G1 F1800
G1 X99.282 Y62.928 E5.98388
G1 X99.394 Y63.225 E5.98838
G1 X99.457 Y63.744 E5.99578
G1 X100.682 Y64.969 E6.02035
G1 X100.631 Y65.557 E6.02873
G1 X99.441 Y64.367 E6.05259
G1 X99.398 Y64.765 E6.05828
G1 X99.343 Y64.909 E6.06046
G1 X100.559 Y66.124 E6.08483
G1 X100.423 Y66.629 E6.09224
G1 X99.167 Y65.373 E6.11743
G1 X99.117 Y65.505 E6.11943
G1 X98.930 Y65.776 E6.12410
G1 X100.288 Y67.134 E6.15133
G1 X100.153 Y67.638 E6.15874
G1 X98.668 Y66.153 E6.18853
G1 X98.329 Y66.453 E6.19495
G1 X99.990 Y68.115 E6.22828
G1 X99.787 Y68.551 E6.23511
G1 X97.966 Y66.730 E6.27163
G1 X97.546 Y66.950 E6.27835
G1 X99.583 Y68.988 E6.31921
G1 X99.380 Y69.424 E6.32604
G1 X97.066 Y67.110 E6.37245
