; generated by PrusaSlicer 2.0.0+linux64 on 2019-06-30 at 15:38:52

; 

; external perimeters extrusion width = 0.56mm
; perimeters extrusion width = 0.56mm
; infill extrusion width = 0.56mm
; solid infill extrusion width = 0.40mm
; top infill extrusion width = 0.50mm
; first layer extrusion width = 0.50mm

M201 X9000 Y9000 Z100 E10000 ; sets maximum accelerations, mm/sec^2
M203 X300 Y300 Z5 E120 ; sets maximum feedrates, mm/sec
M204 P1500 R1500 T1500 ; sets acceleration (P, T) and retract acceleration (R), mm/sec^2
M205 X10.00 Y10.00 Z0.20 E2.50 ; sets the jerk limits, mm/sec
M205 S0 T0 ; sets the minimum extruding and travel feed rate, mm/sec
M107
M190 S70 ; set bed temperature and wait for it to be reached
M104 S230 ; set temperature
G28 ; home all axes
G1 Z5 F100 ; lift nozzle
; Filament gcode
M109 S230 ; set temperature and wait for it to be reached
G21 ; set units to millimeters
G90 ; use absolute coordinates
M82 ; use absolute distances for extrusion
G92 E0
G1 Z0.250 F10800.000
G1 E-2.00000 F2400.00000
G92 E0
G1 X55.206 Y56.686 F10800.000
G1 E2.00000 F2400.00000
G1 F1800
G1 X55.865 Y56.168 E2.01172
G1 X56.607 Y55.780 E2.02345
G1 X57.408 Y55.534 E2.03517
G1 X58.240 Y55.439 E2.04690
G1 X111.664 Y55.438 E2.79448
G1 X112.426 Y55.503 E2.80518
G1 X113.171 Y55.696 E2.81594
G1 X113.868 Y56.008 E2.82664
G1 X114.507 Y56.436 E2.83741
G1 X115.062 Y56.962 E2.84810
G1 X115.525 Y57.577 E2.85887
G1 X115.877 Y58.261 E2.86964
G1 X116.108 Y58.990 E2.88033
G1 X116.221 Y59.973 E2.89419
G1 X116.201 Y75.427 E3.11044
G1 X116.044 Y76.260 E3.12231
G1 X109.270 Y99.484 E3.46083
G1 X108.875 Y100.537 E3.47656
G1 X108.317 Y101.487 E3.49199
G1 X107.891 Y102.058 E3.50195
G1 X107.194 Y102.769 E3.51588
G1 X106.508 Y103.304 E3.52805
G1 X105.282 Y103.986 E3.54769
G1 X104.046 Y104.391 E3.56589
G1 X102.714 Y104.557 E3.58466
G1 X67.442 Y104.562 E4.07825
G1 X65.944 Y104.389 E4.09935
G1 X64.535 Y103.908 E4.12018
G1 X63.218 Y103.115 E4.14170
G1 X62.231 Y102.194 E4.16058
G1 X61.802 Y101.666 E4.17010
G1 X61.255 Y100.792 E4.18453
G1 X60.713 Y99.433 E4.20501
G1 X53.832 Y75.695 E4.55085
G1 X53.779 Y75.012 E4.56044
G1 X53.791 Y59.673 E4.77509
G1 X53.930 Y58.836 E4.78696
G1 X54.219 Y58.044 E4.79876
G1 X54.649 Y57.319 E4.81055
G1 X55.156 Y56.742 E4.82130
G1 X55.490 Y57.038 F10800.000
G1 F1800
G1 X56.121 Y56.534 E4.83259
G1 X56.792 Y56.187 E4.84317
G1 X57.515 Y55.968 E4.85374
G1 X58.261 Y55.885 E4.86425
G1 X111.664 Y55.884 E5.61154
G1 X112.362 Y55.945 E5.62135
G1 X113.040 Y56.123 E5.63115
G1 X113.678 Y56.413 E5.64096
G1 X114.257 Y56.808 E5.65077
G1 X114.761 Y57.295 E5.66057
G1 X115.175 Y57.860 E5.67038
G1 X115.487 Y58.488 E5.68019
G1 X115.688 Y59.159 E5.69000
G1 X115.775 Y59.985 E5.70162
G1 X115.753 Y75.420 E5.91761
G1 X115.613 Y76.143 E5.92790
G1 X108.847 Y99.342 E6.26607
G1 X108.470 Y100.348 E6.28110
G1 X107.936 Y101.254 E6.29583
G1 X107.545 Y101.775 E6.30493
G1 X106.871 Y102.460 E6.31838
G1 X106.257 Y102.934 E6.32923
G1 X105.103 Y103.576 E6.34772
G1 X103.943 Y103.957 E6.36481
G1 X102.680 Y104.111 E6.38261
G1 X67.445 Y104.116 E6.87567
G1 X66.038 Y103.952 E6.89548
G1 X64.711 Y103.498 E6.91512
G1 X63.474 Y102.749 E6.93535
G1 X62.541 Y101.872 E6.95327
G1 X61.638 Y100.561 E6.97554
G1 X61.138 Y99.296 E6.99458
G1 X54.274 Y75.634 E7.33935
G1 X54.234 Y59.725 E7.56197
G1 X54.358 Y58.964 E7.57276
G1 X54.623 Y58.235 E7.58361
G1 X55.017 Y57.573 E7.59440
G1 X55.441 Y57.094 E7.60334
G1 X55.383 Y57.829 F10800.000
G1 F1800
G1 X55.849 Y57.307 E7.61312
G1 X56.377 Y56.900 E7.62245
G1 X56.974 Y56.595 E7.63184
G1 X57.613 Y56.404 E7.64116
G1 X58.275 Y56.331 E7.65049
G1 X111.664 Y56.330 E8.39758
G1 X112.295 Y56.386 E8.40645
G1 X112.907 Y56.549 E8.41531
G1 X113.477 Y56.813 E8.42411
G1 X113.998 Y57.173 E8.43297
G1 X114.450 Y57.617 E8.44183
G1 X114.818 Y58.133 E8.45070
G1 X115.092 Y58.704 E8.45956
G1 X115.264 Y59.313 E8.46842
G1 X115.328 Y59.991 E8.47795
G1 X115.306 Y75.406 E8.69366
G1 X115.184 Y76.018 E8.70239
G1 X108.425 Y99.196 E9.04025
G1 X108.068 Y100.156 E9.05457
G1 X107.558 Y101.017 E9.06858
G1 X106.553 Y102.146 E9.08972
G1 X105.540 Y102.857 E9.10704
G1 X104.924 Y103.167 E9.11670
G1 X103.844 Y103.521 E9.13261
G1 X102.651 Y103.666 E9.14942
G1 X67.448 Y103.669 E9.64203
G1 X66.132 Y103.516 E9.66057
G1 X64.887 Y103.088 E9.67899
G1 X63.731 Y102.383 E9.69794
G1 X62.852 Y101.551 E9.71487
G1 X62.021 Y100.332 E9.73552
G1 X61.561 Y99.154 E9.75321
G1 X54.717 Y75.575 E10.09679
G1 X54.679 Y59.773 E10.31791
G1 X54.788 Y59.082 E10.32770
G1 X55.025 Y58.429 E10.33742
G1 X55.345 Y57.893 E10.34616
G1 E8.34616 F2400.00000
G92 E0
G1 X112.771 Y56.975 F10800.000
G1 E2.00000 F2400.00000
G1 F1800
G1 X113.740 Y57.539 E2.01568
G1 X114.457 Y58.400 E2.03137
G1 X114.836 Y59.455 E2.04705
G1 X114.859 Y75.385 E2.26997
G1 X108.002 Y99.056 E2.61483
G1 X107.664 Y99.965 E2.62840
G1 X107.178 Y100.783 E2.64172
G1 X106.237 Y101.830 E2.66142
G1 X105.296 Y102.484 E2.67745
G1 X104.749 Y102.756 E2.68601
G1 X103.743 Y103.086 E2.70081
G1 X102.626 Y103.220 E2.71655
G1 X67.456 Y103.223 E3.20871
G1 X66.229 Y103.080 E3.22600
G1 X65.067 Y102.679 E3.24319
G1 X63.991 Y102.021 E3.26084
G1 X63.171 Y101.239 E3.27670
G1 X62.407 Y100.107 E3.29580
G1 X61.985 Y99.013 E3.31221
G1 X55.159 Y75.513 E3.65466
G1 X55.123 Y59.818 E3.87428
G1 X55.217 Y59.205 E3.88296
G1 X55.427 Y58.622 E3.89163
G1 X55.745 Y58.090 E3.90031
G1 X56.162 Y57.625 E3.90905
G1 X56.627 Y57.270 E3.91723
G1 X57.148 Y57.006 E3.92541
G1 X57.709 Y56.839 E3.93359
G1 X58.290 Y56.777 E3.94177
G1 X111.663 Y56.777 E4.68865
G1 X112.697 Y56.962 E4.70335
G1 E2.70335 F2400.00000
G92 E0
G1 X102.511 Y87.997 F10800.000
G1 E2.00000 F2400.00000
G1 F1800
G1 X101.195 Y90.408 E2.03844
G1 X99.549 Y92.606 E2.07687
G1 X97.606 Y94.549 E2.11531
G1 X95.408 Y96.195 E2.15374
G1 X92.997 Y97.511 E2.19218
G1 X90.424 Y98.471 E2.23061
G1 X87.740 Y99.055 E2.26905
G1 X85.000 Y99.251 E2.30748
G1 X82.260 Y99.055 E2.34592
G1 X79.576 Y98.471 E2.38435
G1 X77.003 Y97.511 E2.42279
G1 X74.592 Y96.195 E2.46122
G1 X72.394 Y94.549 E2.49966
G1 X70.451 Y92.606 E2.53809
G1 X68.805 Y90.408 E2.57653
G1 X67.489 Y87.997 E2.61496
G1 X66.529 Y85.424 E2.65340
G1 X65.945 Y82.740 E2.69183
G1 X65.749 Y80.000 E2.73027
G1 X65.945 Y77.260 E2.76870
G1 X66.529 Y74.576 E2.80714
G1 X67.489 Y72.003 E2.84557
G1 X68.805 Y69.592 E2.88401
G1 X70.451 Y67.394 E2.92244
G1 X72.394 Y65.451 E2.96088
G1 X74.592 Y63.805 E2.99931
G1 X77.003 Y62.489 E3.03775
G1 X79.576 Y61.529 E3.07618
G1 X82.260 Y60.945 E3.11462
G1 X84.957 Y60.752 E3.15246
G1 X87.739 Y60.945 E3.19148
G1 X90.424 Y61.529 E3.22992
G1 X92.997 Y62.489 E3.26835
G1 X95.370 Y63.785 E3.30619
G1 X97.606 Y65.451 E3.34522
G1 X99.549 Y67.394 E3.38365
G1 X101.195 Y69.592 E3.42209
G1 X102.511 Y72.003 E3.46052
G1 X103.471 Y74.576 E3.49896
G1 X104.055 Y77.260 E3.53739
G1 X104.251 Y80.000 E3.57583
G1 X104.055 Y82.740 E3.61427
G1 X103.471 Y85.424 E3.65270
G1 X102.537 Y87.927 E3.69009
G1 X102.801 Y88.404 F10800.000
G1 E1.69009 F2400.00000
G92 E0
G1 X70.685 Y65.493 F10800.000
G1 E2.00000 F2400.00000
G1 F1800
G1 X70.279 Y65.853 E2.00760
G1 X69.798 Y66.105 E2.01519
G1 X69.271 Y66.235 E2.02279
G1 X68.729 Y66.235 E2.03038
G1 X68.202 Y66.105 E2.03798
G1 X67.721 Y65.853 E2.04557
G1 X67.315 Y65.493 E2.05317
G1 X67.006 Y65.046 E2.06076
G1 X66.814 Y64.539 E2.06836
G1 X66.749 Y64.000 E2.07595
G1 X66.814 Y63.461 E2.08355
G1 X67.006 Y62.954 E2.09114
G1 X67.315 Y62.507 E2.09874
G1 X67.721 Y62.147 E2.10633
G1 X68.202 Y61.895 E2.11393
G1 X68.729 Y61.765 E2.12152
G1 X69.271 Y61.765 E2.12912
G1 X69.798 Y61.895 E2.13671
G1 X70.279 Y62.147 E2.14431
G1 X70.685 Y62.507 E2.15190
G1 X70.994 Y62.954 E2.15950
G1 X71.186 Y63.461 E2.16709
G1 X71.251 Y64.000 E2.17469
G1 X71.186 Y64.539 E2.18229
G1 X70.994 Y65.046 E2.18988
G1 X70.728 Y65.431 E2.19643
G1 X70.349 Y65.195 F10800.000
G1 F1800
G1 X70.024 Y65.483 E2.20250
G1 X69.639 Y65.685 E2.20858
G1 X69.217 Y65.789 E2.21466
G1 X68.783 Y65.789 E2.22074
G1 X68.361 Y65.685 E2.22682
G1 X67.976 Y65.483 E2.23290
G1 X67.651 Y65.195 E2.23897
G1 X67.405 Y64.837 E2.24505
G1 X67.251 Y64.431 E2.25113
G1 X67.198 Y64.000 E2.25721
G1 X67.251 Y63.569 E2.26329
G1 X67.405 Y63.163 E2.26937
G1 X67.651 Y62.805 E2.27545
G1 X67.976 Y62.517 E2.28152
G1 X68.361 Y62.315 E2.28760
G1 X68.783 Y62.211 E2.29368
G1 X69.217 Y62.211 E2.29976
G1 X69.639 Y62.315 E2.30584
G1 X70.024 Y62.517 E2.31192
G1 X70.349 Y62.805 E2.31799
G1 X70.595 Y63.163 E2.32407
G1 X70.749 Y63.569 E2.33015
G1 X70.802 Y64.000 E2.33623
G1 X70.749 Y64.431 E2.34231
G1 X70.595 Y64.837 E2.34839
G1 X70.391 Y65.133 E2.35342
G1 X70.486 Y65.607 F10800.000
G1 X69.992 Y66.517
G1 F1800
G1 X68.052 Y69.108 E2.39871
G1 X66.675 Y71.631 E2.43893
G1 X65.845 Y73.857 E2.47218
G1 X59.484 Y73.857 E2.56119
G1 X59.484 Y61.143 E2.73911
G1 X68.404 Y61.143 E2.86394
G1 X68.433 Y61.378 E2.86726
G1 X68.042 Y61.474 E2.87288
G1 X67.466 Y61.777 E2.88200
G1 X66.978 Y62.209 E2.89111
G1 X66.608 Y62.745 E2.90022
G1 X66.377 Y63.354 E2.90933
G1 X66.299 Y64.000 E2.91844
G1 X66.377 Y64.646 E2.92756
G1 X66.608 Y65.255 E2.93667
G1 X66.978 Y65.791 E2.94578
G1 X67.466 Y66.223 E2.95489
G1 X68.042 Y66.526 E2.96400
G1 X68.674 Y66.681 E2.97312
G1 X69.326 Y66.681 E2.98223
G1 X69.920 Y66.535 E2.99079
G1 E0.99079 F2400.00000
G92 E0
G1 X71.587 Y64.940 F10800.000
G1 E2.00000 F2400.00000
G1 F1800
G1 X71.701 Y64.000 E2.01325
G1 X71.623 Y63.354 E2.02236
G1 X71.392 Y62.745 E2.03147
G1 X71.022 Y62.209 E2.04059
G1 X70.534 Y61.777 E2.04970
G1 X69.958 Y61.474 E2.05881
G1 X69.567 Y61.378 E2.06444
G1 X69.596 Y61.143 E2.06776
G1 X77.428 Y61.143 E2.17735
G1 X77.468 Y61.363 E2.18048
G1 X76.631 Y61.675 E2.19297
G1 X74.108 Y63.052 E2.23320
G1 X71.647 Y64.895 E2.27622
G1 E0.27622 F2400.00000
G92 E0
G1 X65.696 Y74.304 F10800.000
G1 E2.00000 F2400.00000
G1 F1800
G1 X59.037 Y74.304 E2.09318
G1 X59.037 Y60.696 E2.28360
G1 X80.180 Y60.696 E2.57945
G1 X80.205 Y60.936 E2.58282
G1 X79.450 Y61.100 E2.59363
G1 X76.817 Y62.082 E2.63296
G1 X74.350 Y63.429 E2.67229
G1 X72.100 Y65.113 E2.71162
G1 X70.113 Y67.100 E2.75094
G1 X68.429 Y69.350 E2.79027
G1 X67.082 Y71.817 E2.82960
G1 X66.100 Y74.450 E2.86893
G1 X65.936 Y75.205 E2.87974
G1 X65.696 Y75.180 E2.88311
G1 X65.696 Y74.379 E2.89432
G1 E0.89432 F2400.00000
G92 E0
G1 X68.729 Y93.765 F10800.000
G1 E2.00000 F2400.00000
G1 F1800
G1 X69.271 Y93.765 E2.00760
G1 X69.798 Y93.895 E2.01519
G1 X70.279 Y94.147 E2.02279
G1 X70.685 Y94.507 E2.03038
G1 X70.994 Y94.954 E2.03798
G1 X71.186 Y95.461 E2.04557
G1 X71.251 Y96.000 E2.05317
G1 X71.186 Y96.539 E2.06076
G1 X70.994 Y97.046 E2.06836
G1 X70.685 Y97.493 E2.07595
G1 X70.279 Y97.853 E2.08355
G1 X69.798 Y98.105 E2.09114
G1 X69.271 Y98.235 E2.09874
G1 X68.729 Y98.235 E2.10633
G1 X68.202 Y98.105 E2.11393
G1 X67.721 Y97.853 E2.12152
G1 X67.315 Y97.493 E2.12912
G1 X67.006 Y97.046 E2.13671
G1 X66.814 Y96.539 E2.14431
G1 X66.749 Y96.000 E2.15190
G1 X66.814 Y95.461 E2.15950
G1 X67.006 Y94.954 E2.16709
G1 X67.315 Y94.507 E2.17469
G1 X67.721 Y94.147 E2.18228
G1 X68.202 Y93.895 E2.18988
G1 X68.656 Y93.783 E2.19643
G1 X68.783 Y94.211 F10800.000
G1 F1800
G1 X69.217 Y94.211 E2.20250
G1 X69.639 Y94.315 E2.20858
G1 X70.024 Y94.517 E2.21466
G1 X70.349 Y94.805 E2.22074
G1 X70.595 Y95.163 E2.22682
G1 X70.749 Y95.569 E2.23290
G1 X70.802 Y96.000 E2.23897
G1 X70.749 Y96.431 E2.24505
G1 X70.595 Y96.837 E2.25113
G1 X70.349 Y97.195 E2.25721
G1 X70.024 Y97.483 E2.26329
G1 X69.639 Y97.685 E2.26937
G1 X69.217 Y97.789 E2.27545
G1 X68.783 Y97.789 E2.28152
G1 X68.361 Y97.685 E2.28760
G1 X67.976 Y97.483 E2.29368
G1 X67.651 Y97.195 E2.29976
G1 X67.405 Y96.837 E2.30584
G1 X67.251 Y96.431 E2.31192
G1 X67.198 Y96.000 E2.31799
G1 X67.251 Y95.569 E2.32407
G1 X67.405 Y95.163 E2.33015
G1 X67.651 Y94.805 E2.33623
G1 X67.976 Y94.517 E2.34231
G1 X68.361 Y94.315 E2.34839
G1 X68.710 Y94.229 E2.35342
G1 X68.953 Y93.812 F10800.000
G1 E0.35342 F2400.00000
G92 E0
G1 X66.362 Y96.606 F10800.000
G1 E2.00000 F2400.00000
G1 F1800
G1 X66.608 Y97.255 E2.00971
G1 X66.978 Y97.791 E2.01882
G1 X67.466 Y98.223 E2.02793
G1 X68.042 Y98.526 E2.03705
G1 X68.433 Y98.622 E2.04267
G1 X68.404 Y98.857 E2.04599
G1 X67.564 Y98.857 E2.05774
G1 X67.200 Y98.816 E2.06288
G1 X66.914 Y98.716 E2.06711
G1 X66.658 Y98.556 E2.07134
G1 X66.444 Y98.342 E2.07557
G1 X66.284 Y98.086 E2.07980
G1 X66.184 Y97.800 E2.08403
G1 X66.143 Y97.436 E2.08916
G1 X66.143 Y96.647 E2.10021
G1 X66.288 Y96.620 E2.10228
G1 E0.10228 F2400.00000
G92 E0
G1 X69.567 Y98.622 F10800.000
G1 E2.00000 F2400.00000
G1 F1800
G1 X69.958 Y98.526 E2.00563
G1 X70.534 Y98.223 E2.01474
G1 X71.022 Y97.791 E2.02385
G1 X71.392 Y97.255 E2.03296
G1 X71.623 Y96.646 E2.04207
G1 X71.701 Y96.000 E2.05119
G1 X71.587 Y95.060 E2.06444
G1 X74.108 Y96.948 E2.10851
G1 X76.631 Y98.325 E2.14873
G1 X77.468 Y98.637 E2.16123
G1 X77.428 Y98.857 E2.16436
G1 X69.596 Y98.857 E2.27395
G1 X69.577 Y98.696 E2.27622
G1 E0.27622 F2400.00000
G92 E0
G1 X66.362 Y95.394 F10800.000
G1 E2.00000 F2400.00000
G1 F1800
G1 X66.143 Y95.353 E2.00312
G1 X66.143 Y87.572 E2.11201
G1 X66.363 Y87.532 E2.11514
G1 X66.675 Y88.369 E2.12763
G1 X68.052 Y90.892 E2.16785
G1 X69.992 Y93.483 E2.21315
G1 X69.326 Y93.319 E2.22276
G1 X68.674 Y93.319 E2.23187
G1 X68.042 Y93.474 E2.24099
G1 X67.466 Y93.777 E2.25010
G1 X66.978 Y94.209 E2.25921
G1 X66.608 Y94.745 E2.26832
G1 X66.389 Y95.323 E2.27698
G1 E0.27698 F2400.00000
G92 E0
G1 X80.205 Y99.064 F10800.000
G1 E2.00000 F2400.00000
G1 F1800
G1 X80.180 Y99.304 E2.00337
G1 X67.539 Y99.304 E2.18025
G1 X67.100 Y99.254 E2.18644
G1 X66.719 Y99.121 E2.19208
G1 X66.378 Y98.907 E2.19772
G1 X66.093 Y98.622 E2.20336
G1 X65.879 Y98.281 E2.20899
G1 X65.746 Y97.900 E2.21463
G1 X65.696 Y97.461 E2.22082
G1 X65.696 Y84.820 E2.39771
G1 X65.936 Y84.795 E2.40107
G1 X66.100 Y85.550 E2.41189
G1 X67.082 Y88.183 E2.45122
G1 X68.429 Y90.650 E2.49054
G1 X70.113 Y92.900 E2.52987
G1 X72.100 Y94.887 E2.56920
G1 X74.350 Y96.571 E2.60853
G1 X76.817 Y97.918 E2.64786
G1 X79.450 Y98.900 E2.68719
G1 X80.132 Y99.049 E2.69695
G1 E0.69695 F2400.00000
G92 E0
G1 X98.814 Y96.539 F10800.000
G1 E2.00000 F2400.00000
G1 F1800
G1 X98.749 Y96.000 E2.00760
G1 X98.814 Y95.461 E2.01519
G1 X99.006 Y94.954 E2.02279
G1 X99.315 Y94.507 E2.03038
G1 X99.721 Y94.147 E2.03798
G1 X100.202 Y93.895 E2.04557
G1 X100.729 Y93.765 E2.05317
G1 X101.271 Y93.765 E2.06076
G1 X101.798 Y93.895 E2.06836
G1 X102.279 Y94.147 E2.07595
G1 X102.685 Y94.507 E2.08355
G1 X102.994 Y94.954 E2.09114
G1 X103.186 Y95.461 E2.09874
G1 X103.251 Y96.000 E2.10633
G1 X103.186 Y96.539 E2.11393
G1 X102.994 Y97.046 E2.12152
G1 X102.685 Y97.493 E2.12912
G1 X102.279 Y97.853 E2.13671
G1 X101.798 Y98.105 E2.14431
G1 X101.271 Y98.235 E2.15190
G1 X100.729 Y98.235 E2.15950
G1 X100.202 Y98.105 E2.16709
G1 X99.721 Y97.853 E2.17469
G1 X99.315 Y97.493 E2.18229
G1 X99.006 Y97.046 E2.18988
G1 X98.841 Y96.609 E2.19643
G1 X99.251 Y96.431 F10800.000
G1 F1800
G1 X99.198 Y96.000 E2.20250
G1 X99.251 Y95.569 E2.20858
G1 X99.405 Y95.163 E2.21466
G1 X99.651 Y94.805 E2.22074
G1 X99.976 Y94.517 E2.22682
G1 X100.361 Y94.315 E2.23290
G1 X100.783 Y94.211 E2.23897
G1 X101.217 Y94.211 E2.24505
G1 X101.639 Y94.315 E2.25113
G1 X102.024 Y94.517 E2.25721
G1 X102.349 Y94.805 E2.26329
G1 X102.595 Y95.163 E2.26937
G1 X102.749 Y95.569 E2.27545
G1 X102.802 Y96.000 E2.28152
G1 X102.749 Y96.431 E2.28760
G1 X102.595 Y96.837 E2.29368
G1 X102.349 Y97.195 E2.29976
G1 X102.024 Y97.483 E2.30584
G1 X101.639 Y97.685 E2.31192
G1 X101.217 Y97.789 E2.31799
G1 X100.783 Y97.789 E2.32407
G1 X100.361 Y97.685 E2.33015
G1 X99.976 Y97.483 E2.33623
G1 X99.651 Y97.195 E2.34231
G1 X99.405 Y96.837 E2.34839
G1 X99.277 Y96.501 E2.35342
G1 X98.833 Y96.310 F10800.000
G1 X98.413 Y95.060
G1 F1800
G1 X98.299 Y96.000 E2.36667
G1 X98.377 Y96.646 E2.37578
G1 X98.608 Y97.255 E2.38489
G1 X98.978 Y97.791 E2.39400
G1 X99.466 Y98.223 E2.40311
G1 X100.042 Y98.526 E2.41223
G1 X100.433 Y98.622 E2.41785
G1 X100.404 Y98.857 E2.42117
G1 X92.572 Y98.857 E2.53077
G1 X92.532 Y98.637 E2.53390
G1 X93.369 Y98.325 E2.54639
G1 X95.892 Y96.948 E2.58661
G1 X98.353 Y95.105 E2.62964
G1 E0.62964 F2400.00000
G92 E0
G1 X101.567 Y98.622 F10800.000
G1 E2.00000 F2400.00000
G1 F1800
G1 X101.958 Y98.526 E2.00563
G1 X102.534 Y98.223 E2.01474
